public/assets/luts/b01_dock.cube
TITLE "b01_dock"
LUT_3D_SIZE 9
DOMAIN_MIN 0 0 0
DOMAIN_MAX 1 1 1
0.000000 0.000000 0.000000
0.109220 0.000000 0.000000
0.223029 0.000000 0.000000
0.338638 0.000000 0.000000
0.455430 0.000000 0.000000
0.573112 0.000000 0.000000
0.691506 0.000000 0.000000
0.810497 0.000000 0.000000
0.930000 0.000000 0.000000
0.000000 0.121250 0.000000
0.109220 0.121250 0.000000
0.223029 0.121250 0.000000
0.338638 0.121250 0.000000
0.455430 0.121250 0.000000
0.573112 0.121250 0.000000
0.691506 0.121250 0.000000
0.810497 0.121250 0.000000
0.930000 0.121250 0.000000
0.000000 0.242500 0.000000
0.109220 0.242500 0.000000
0.223029 0.242500 0.000000
0.338638 0.242500 0.000000
0.455430 0.242500 0.000000
0.573112 0.242500 0.000000
0.691506 0.242500 0.000000
0.810497 0.242500 0.000000
0.930000 0.242500 0.000000
0.000000 0.363750 0.000000
0.109220 0.363750 0.000000
0.223029 0.363750 0.000000
0.338638 0.363750 0.000000
0.455430 0.363750 0.000000
0.573112 0.363750 0.000000
0.691506 0.363750 0.000000
0.810497 0.363750 0.000000
0.930000 0.363750 0.000000
0.000000 0.485000 0.000000
0.109220 0.485000 0.000000
0.223029 0.485000 0.000000
0.338638 0.485000 0.000000
0.455430 0.485000 0.000000
0.573112 0.485000 0.000000
0.691506 0.485000 0.000000
0.810497 0.485000 0.000000
0.930000 0.485000 0.000000
0.000000 0.606250 0.000000
0.109220 0.606250 0.000000
0.223029 0.606250 0.000000
0.338638 0.606250 0.000000
0.455430 0.606250 0.000000
0.573112 0.606250 0.000000
0.691506 0.606250 0.000000
0.810497 0.606250 0.000000
0.930000 0.606250 0.000000
0.000000 0.727500 0.000000
0.109220 0.727500 0.000000
0.223029 0.727500 0.000000
0.338638 0.727500 0.000000
0.455430 0.727500 0.000000
0.573112 0.727500 0.000000
0.691506 0.727500 0.000000
0.810497 0.727500 0.000000
0.930000 0.727500 0.000000
0.000000 0.848750 0.000000
0.109220 0.848750 0.000000
0.223029 0.848750 0.000000
0.338638 0.848750 0.000000
0.455430 0.848750 0.000000
0.573112 0.848750 0.000000
0.691506 0.848750 0.000000
0.810497 0.848750 0.000000
0.930000 0.848750 0.000000
0.000000 0.970000 0.000000
0.109220 0.970000 0.000000
0.223029 0.970000 0.000000
0.338638 0.970000 0.000000
0.455430 0.970000 0.000000
0.573112 0.970000 0.000000
0.691506 0.970000 0.000000
0.810497 0.970000 0.000000
0.930000 0.970000 0.000000
0.000000 0.000000 0.141029
0.109220 0.000000 0.141029
0.223029 0.000000 0.141029
0.338638 0.000000 0.141029
0.455430 0.000000 0.141029
0.573112 0.000000 0.141029
0.691506 0.000000 0.141029
0.810497 0.000000 0.141029
0.930000 0.000000 0.141029
0.000000 0.121250 0.141029
0.109220 0.121250 0.141029
0.223029 0.121250 0.141029
0.338638 0.121250 0.141029
0.455430 0.121250 0.141029
0.573112 0.121250 0.141029
0.691506 0.121250 0.141029
0.810497 0.121250 0.141029
0.930000 0.121250 0.141029
0.000000 0.242500 0.141029
0.109220 0.242500 0.141029
0.223029 0.242500 0.141029
0.338638 0.242500 0.141029
0.455430 0.242500 0.141029
0.573112 0.242500 0.141029
0.691506 0.242500 0.141029
0.810497 0.242500 0.141029
0.930000 0.242500 0.141029
0.000000 0.363750 0.141029
0.109220 0.363750 0.141029
0.223029 0.363750 0.141029
0.338638 0.363750 0.141029
0.455430 0.363750 0.141029
0.573112 0.363750 0.141029
0.691506 0.363750 0.141029
0.810497 0.363750 0.141029
0.930000 0.363750 0.141029
0.000000 0.485000 0.141029
0.109220 0.485000 0.141029
0.223029 0.485000 0.141029
0.338638 0.485000 0.141029
0.455430 0.485000 0.141029
0.573112 0.485000 0.141029
0.691506 0.485000 0.141029
0.810497 0.485000 0.141029
0.930000 0.485000 0.141029
0.000000 0.606250 0.141029
0.109220 0.606250 0.141029
0.223029 0.606250 0.141029
0.338638 0.606250 0.141029
0.455430 0.606250 0.141029
0.573112 0.606250 0.141029
0.691506 0.606250 0.141029
0.810497 0.606250 0.141029
0.930000 0.606250 0.141029
0.000000 0.727500 0.141029
0.109220 0.727500 0.141029
0.223029 0.727500 0.141029
0.338638 0.727500 0.141029
0.455430 0.727500 0.141029
0.573112 0.727500 0.141029
0.691506 0.727500 0.141029
0.810497 0.727500 0.141029
0.930000 0.727500 0.141029
0.000000 0.848750 0.141029
0.109220 0.848750 0.141029
0.223029 0.848750 0.141029
0.338638 0.848750 0.141029
0.455430 0.848750 0.141029
0.573112 0.848750 0.141029
0.691506 0.848750 0.141029
0.810497 0.848750 0.141029
0.930000 0.848750 0.141029
0.000000 0.970000 0.141029
0.109220 0.970000 0.141029
0.223029 0.970000 0.141029
0.338638 0.970000 0.141029
0.455430 0.970000 0.141029
0.573112 0.970000 0.141029
0.691506 0.970000 0.141029
0.810497 0.970000 0.141029
0.930000 0.970000 0.141029
0.000000 0.000000 0.276253
0.109220 0.000000 0.276253
0.223029 0.000000 0.276253
0.338638 0.000000 0.276253
0.455430 0.000000 0.276253
0.573112 0.000000 0.276253
0.691506 0.000000 0.276253
0.810497 0.000000 0.276253
0.930000 0.000000 0.276253
0.000000 0.121250 0.276253
0.109220 0.121250 0.276253
0.223029 0.121250 0.276253
0.338638 0.121250 0.276253
0.455430 0.121250 0.276253
0.573112 0.121250 0.276253
0.691506 0.121250 0.276253
0.810497 0.121250 0.276253
0.930000 0.121250 0.276253
0.000000 0.242500 0.276253
0.109220 0.242500 0.276253
0.223029 0.242500 0.276253
0.338638 0.242500 0.276253
0.455430 0.242500 0.276253
0.573112 0.242500 0.276253
0.691506 0.242500 0.276253
0.810497 0.242500 0.276253
0.930000 0.242500 0.276253
0.000000 0.363750 0.276253
0.109220 0.363750 0.276253
0.223029 0.363750 0.276253
0.338638 0.363750 0.276253
0.455430 0.363750 0.276253
0.573112 0.363750 0.276253
0.691506 0.363750 0.276253
0.810497 0.363750 0.276253
0.930000 0.363750 0.276253
0.000000 0.485000 0.276253
0.109220 0.485000 0.276253
0.223029 0.485000 0.276253
0.338638 0.485000 0.276253
0.455430 0.485000 0.276253
0.573112 0.485000 0.276253
0.691506 0.485000 0.276253
0.810497 0.485000 0.276253
0.930000 0.485000 0.276253
0.000000 0.606250 0.276253
0.109220 0.606250 0.276253
0.223029 0.606250 0.276253
0.338638 0.606250 0.276253
0.455430 0.606250 0.276253
0.573112 0.606250 0.276253
0.691506 0.606250 0.276253
0.810497 0.606250 0.276253
0.930000 0.606250 0.276253
0.000000 0.727500 0.276253
0.109220 0.727500 0.276253
0.223029 0.727500 0.276253
0.338638 0.727500 0.276253
0.455430 0.727500 0.276253
0.573112 0.727500 0.276253
0.691506 0.727500 0.276253
0.810497 0.727500 0.276253
0.930000 0.727500 0.276253
0.000000 0.848750 0.276253
0.109220 0.848750 0.276253
0.223029 0.848750 0.276253
0.338638 0.848750 0.276253
0.455430 0.848750 0.276253
0.573112 0.848750 0.276253
0.691506 0.848750 0.276253
0.810497 0.848750 0.276253
0.930000 0.848750 0.276253
0.000000 0.970000 0.276253
0.109220 0.970000 0.276253
0.223029 0.970000 0.276253
0.338638 0.970000 0.276253
0.455430 0.970000 0.276253
0.573112 0.970000 0.276253
0.691506 0.970000 0.276253
0.810497 0.970000 0.276253
0.930000 0.970000 0.276253
0.000000 0.000000 0.409370
0.109220 0.000000 0.409370
0.223029 0.000000 0.409370
0.338638 0.000000 0.409370
0.455430 0.000000 0.409370
0.573112 0.000000 0.409370
0.691506 0.000000 0.409370
0.810497 0.000000 0.409370
0.930000 0.000000 0.409370
0.000000 0.121250 0.409370
0.109220 0.121250 0.409370
0.223029 0.121250 0.409370
0.338638 0.121250 0.409370
0.455430 0.121250 0.409370
0.573112 0.121250 0.409370
0.691506 0.121250 0.409370
0.810497 0.121250 0.409370
0.930000 0.121250 0.409370
0.000000 0.242500 0.409370
0.109220 0.242500 0.409370
0.223029 0.242500 0.409370
0.338638 0.242500 0.409370
0.455430 0.242500 0.409370
0.573112 0.242500 0.409370
0.691506 0.242500 0.409370
0.810497 0.242500 0.409370
0.930000 0.242500 0.409370
0.000000 0.363750 0.409370
0.109220 0.363750 0.409370
0.223029 0.363750 0.409370
0.338638 0.363750 0.409370
0.455430 0.363750 0.409370
0.573112 0.363750 0.409370
0.691506 0.363750 0.409370
0.810497 0.363750 0.409370
0.930000 0.363750 0.409370
0.000000 0.485000 0.409370
0.109220 0.485000 0.409370
0.223029 0.485000 0.409370
0.338638 0.485000 0.409370
0.455430 0.485000 0.409370
0.573112 0.485000 0.409370
0.691506 0.485000 0.409370
0.810497 0.485000 0.409370
0.930000 0.485000 0.409370
0.000000 0.606250 0.409370
0.109220 0.606250 0.409370
0.223029 0.606250 0.409370
0.338638 0.606250 0.409370
0.455430 0.606250 0.409370
0.573112 0.606250 0.409370
0.691506 0.606250 0.409370
0.810497 0.606250 0.409370
0.930000 0.606250 0.409370
0.000000 0.727500 0.409370
0.109220 0.727500 0.409370
0.223029 0.727500 0.409370
0.338638 0.727500 0.409370
0.455430 0.727500 0.409370
0.573112 0.727500 0.409370
0.691506 0.727500 0.409370
0.810497 0.727500 0.409370
0.930000 0.727500 0.409370
0.000000 0.848750 0.409370
0.109220 0.848750 0.409370
0.223029 0.848750 0.409370
0.338638 0.848750 0.409370
0.455430 0.848750 0.409370
0.573112 0.848750 0.409370
0.691506 0.848750 0.409370
0.810497 0.848750 0.409370
0.930000 0.848750 0.409370
0.000000 0.970000 0.409370
0.109220 0.970000 0.409370
0.223029 0.970000 0.409370
0.338638 0.970000 0.409370
0.455430 0.970000 0.409370
0.573112 0.970000 0.409370
0.691506 0.970000 0.409370
0.810497 0.970000 0.409370
0.930000 0.970000 0.409370
0.000000 0.000000 0.541136
0.109220 0.000000 0.541136
0.223029 0.000000 0.541136
0.338638 0.000000 0.541136
0.455430 0.000000 0.541136
0.573112 0.000000 0.541136
0.691506 0.000000 0.541136
0.810497 0.000000 0.541136
0.930000 0.000000 0.541136
0.000000 0.121250 0.541136
0.109220 0.121250 0.541136
0.223029 0.121250 0.541136
0.338638 0.121250 0.541136
0.455430 0.121250 0.541136
0.573112 0.121250 0.541136
0.691506 0.121250 0.541136
0.810497 0.121250 0.541136
0.930000 0.121250 0.541136
0.000000 0.242500 0.541136
0.109220 0.242500 0.541136
0.223029 0.242500 0.541136
0.338638 0.242500 0.541136
0.455430 0.242500 0.541136
0.573112 0.242500 0.541136
0.691506 0.242500 0.541136
0.810497 0.242500 0.541136
0.930000 0.242500 0.541136
0.000000 0.363750 0.541136
0.109220 0.363750 0.541136
0.223029 0.363750 0.541136
0.338638 0.363750 0.541136
0.455430 0.363750 0.541136
0.573112 0.363750 0.541136
0.691506 0.363750 0.541136
0.810497 0.363750 0.541136
0.930000 0.363750 0.541136
0.000000 0.485000 0.541136
0.109220 0.485000 0.541136
0.223029 0.485000 0.541136
0.338638 0.485000 0.541136
0.455430 0.485000 0.541136
0.573112 0.485000 0.541136
0.691506 0.485000 0.541136
0.810497 0.485000 0.541136
0.930000 0.485000 0.541136
0.000000 0.606250 0.541136
0.109220 0.606250 0.541136
0.223029 0.606250 0.541136
0.338638 0.606250 0.541136
0.455430 0.606250 0.541136
0.573112 0.606250 0.541136
0.691506 0.606250 0.541136
0.810497 0.606250 0.541136
0.930000 0.606250 0.541136
0.000000 0.727500 0.541136
0.109220 0.727500 0.541136
0.223029 0.727500 0.541136
0.338638 0.727500 0.541136
0.455430 0.727500 0.541136
0.573112 0.727500 0.541136
0.691506 0.727500 0.541136
0.810497 0.727500 0.541136
0.930000 0.727500 0.541136
0.000000 0.848750 0.541136
0.109220 0.848750 0.541136
0.223029 0.848750 0.541136
0.338638 0.848750 0.541136
0.455430 0.848750 0.541136
0.573112 0.848750 0.541136
0.691506 0.848750 0.541136
0.810497 0.848750 0.541136
0.930000 0.848750 0.541136
0.000000 0.970000 0.541136
0.109220 0.970000 0.541136
0.223029 0.970000 0.541136
0.338638 0.970000 0.541136
0.455430 0.970000 0.541136
0.573112 0.970000 0.541136
0.691506 0.970000 0.541136
0.810497 0.970000 0.541136
0.930000 0.970000 0.541136
0.000000 0.000000 0.671907
0.109220 0.000000 0.671907
0.223029 0.000000 0.671907
0.338638 0.000000 0.671907
0.455430 0.000000 0.671907
0.573112 0.000000 0.671907
0.691506 0.000000 0.671907
0.810497 0.000000 0.671907
0.930000 0.000000 0.671907
0.000000 0.121250 0.671907
0.109220 0.121250 0.671907
0.223029 0.121250 0.671907
0.338638 0.121250 0.671907
0.455430 0.121250 0.671907
0.573112 0.121250 0.671907
0.691506 0.121250 0.671907
0.810497 0.121250 0.671907
0.930000 0.121250 0.671907
0.000000 0.242500 0.671907
0.109220 0.242500 0.671907
0.223029 0.242500 0.671907
0.338638 0.242500 0.671907
0.455430 0.242500 0.671907
0.573112 0.242500 0.671907
0.691506 0.242500 0.671907
0.810497 0.242500 0.671907
0.930000 0.242500 0.671907
0.000000 0.363750 0.671907
0.109220 0.363750 0.671907
0.223029 0.363750 0.671907
0.338638 0.363750 0.671907
0.455430 0.363750 0.671907
0.573112 0.363750 0.671907
0.691506 0.363750 0.671907
0.810497 0.363750 0.671907
0.930000 0.363750 0.671907
0.000000 0.485000 0.671907
0.109220 0.485000 0.671907
0.223029 0.485000 0.671907
0.338638 0.485000 0.671907
0.455430 0.485000 0.671907
0.573112 0.485000 0.671907
0.691506 0.485000 0.671907
0.810497 0.485000 0.671907
0.930000 0.485000 0.671907
0.000000 0.606250 0.671907
0.109220 0.606250 0.671907
0.223029 0.606250 0.671907
0.338638 0.606250 0.671907
0.455430 0.606250 0.671907
0.573112 0.606250 0.671907
0.691506 0.606250 0.671907
0.810497 0.606250 0.671907
0.930000 0.606250 0.671907
0.000000 0.727500 0.671907
0.109220 0.727500 0.671907
0.223029 0.727500 0.671907
0.338638 0.727500 0.671907
0.455430 0.727500 0.671907
0.573112 0.727500 0.671907
0.691506 0.727500 0.671907
0.810497 0.727500 0.671907
0.930000 0.727500 0.671907
0.000000 0.848750 0.671907
0.109220 0.848750 0.671907
0.223029 0.848750 0.671907
0.338638 0.848750 0.671907
0.455430 0.848750 0.671907
0.573112 0.848750 0.671907
0.691506 0.848750 0.671907
0.810497 0.848750 0.671907
0.930000 0.848750 0.671907
0.000000 0.970000 0.671907
0.109220 0.970000 0.671907
0.223029 0.970000 0.671907
0.338638 0.970000 0.671907
0.455430 0.970000 0.671907
0.573112 0.970000 0.671907
0.691506 0.970000 0.671907
0.810497 0.970000 0.671907
0.930000 0.970000 0.671907
0.000000 0.000000 0.801891
0.109220 0.000000 0.801891
0.223029 0.000000 0.801891
0.338638 0.000000 0.801891
0.455430 0.000000 0.801891
0.573112 0.000000 0.801891
0.691506 0.000000 0.801891
0.810497 0.000000 0.801891
0.930000 0.000000 0.801891
0.000000 0.121250 0.801891
0.109220 0.121250 0.801891
0.223029 0.121250 0.801891
0.338638 0.121250 0.801891
0.455430 0.121250 0.801891
0.573112 0.121250 0.801891
0.691506 0.121250 0.801891
0.810497 0.121250 0.801891
0.930000 0.121250 0.801891
0.000000 0.242500 0.801891
0.109220 0.242500 0.801891
0.223029 0.242500 0.801891
0.338638 0.242500 0.801891
0.455430 0.242500 0.801891
0.573112 0.242500 0.801891
0.691506 0.242500 0.801891
0.810497 0.242500 0.801891
0.930000 0.242500 0.801891
0.000000 0.363750 0.801891
0.109220 0.363750 0.801891
0.223029 0.363750 0.801891
0.338638 0.363750 0.801891
0.455430 0.363750 0.801891
0.573112 0.363750 0.801891
0.691506 0.363750 0.801891
0.810497 0.363750 0.801891
0.930000 0.363750 0.801891
0.000000 0.485000 0.801891
0.109220 0.485000 0.801891
0.223029 0.485000 0.801891
0.338638 0.485000 0.801891
0.455430 0.485000 0.801891
0.573112 0.485000 0.801891
0.691506 0.485000 0.801891
0.810497 0.485000 0.801891
0.930000 0.485000 0.801891
0.000000 0.606250 0.801891
0.109220 0.606250 0.801891
0.223029 0.606250 0.801891
0.338638 0.606250 0.801891
0.455430 0.606250 0.801891
0.573112 0.606250 0.801891
0.691506 0.606250 0.801891
0.810497 0.606250 0.801891
0.930000 0.606250 0.801891
0.000000 0.727500 0.801891
0.109220 0.727500 0.801891
0.223029 0.727500 0.801891
0.338638 0.727500 0.801891
0.455430 0.727500 0.801891
0.573112 0.727500 0.801891
0.691506 0.727500 0.801891
0.810497 0.727500 0.801891
0.930000 0.727500 0.801891
0.000000 0.848750 0.801891
0.109220 0.848750 0.801891
0.223029 0.848750 0.801891
0.338638 0.848750 0.801891
0.455430 0.848750 0.801891
0.573112 0.848750 0.801891
0.691506 0.848750 0.801891
0.810497 0.848750 0.801891
0.930000 0.848750 0.801891
0.000000 0.970000 0.801891
0.109220 0.970000 0.801891
0.223029 0.970000 0.801891
0.338638 0.970000 0.801891
0.455430 0.970000 0.801891
0.573112 0.970000 0.801891
0.691506 0.970000 0.801891
0.810497 0.970000 0.801891
0.930000 0.970000 0.801891
0.000000 0.000000 0.931223
0.109220 0.000000 0.931223
0.223029 0.000000 0.931223
0.338638 0.000000 0.931223
0.455430 0.000000 0.931223
0.573112 0.000000 0.931223
0.691506 0.000000 0.931223
0.810497 0.000000 0.931223
0.930000 0.000000 0.931223
0.000000 0.121250 0.931223
0.109220 0.121250 0.931223
0.223029 0.121250 0.931223
0.338638 0.121250 0.931223
0.455430 0.121250 0.931223
0.573112 0.121250 0.931223
0.691506 0.121250 0.931223
0.810497 0.121250 0.931223
0.930000 0.121250 0.931223
0.000000 0.242500 0.931223
0.109220 0.242500 0.931223
0.223029 0.242500 0.931223
0.338638 0.242500 0.931223
0.455430 0.242500 0.931223
0.573112 0.242500 0.931223
0.691506 0.242500 0.931223
0.810497 0.242500 0.931223
0.930000 0.242500 0.931223
0.000000 0.363750 0.931223
0.109220 0.363750 0.931223
0.223029 0.363750 0.931223
0.338638 0.363750 0.931223
0.455430 0.363750 0.931223
0.573112 0.363750 0.931223
0.691506 0.363750 0.931223
0.810497 0.363750 0.931223
0.930000 0.363750 0.931223
0.000000 0.485000 0.931223
0.109220 0.485000 0.931223
0.223029 0.485000 0.931223
0.338638 0.485000 0.931223
0.455430 0.485000 0.931223
0.573112 0.485000 0.931223
0.691506 0.485000 0.931223
0.810497 0.485000 0.931223
0.930000 0.485000 0.931223
0.000000 0.606250 0.931223
0.109220 0.606250 0.931223
0.223029 0.606250 0.931223
0.338638 0.606250 0.931223
0.455430 0.606250 0.931223
0.573112 0.606250 0.931223
0.691506 0.606250 0.931223
0.810497 0.606250 0.931223
0.930000 0.606250 0.931223
0.000000 0.727500 0.931223
0.109220 0.727500 0.931223
0.223029 0.727500 0.931223
0.338638 0.727500 0.931223
0.455430 0.727500 0.931223
0.573112 0.727500 0.931223
0.691506 0.727500 0.931223
0.810497 0.727500 0.931223
0.930000 0.727500 0.931223
0.000000 0.848750 0.931223
0.109220 0.848750 0.931223
0.223029 0.848750 0.931223
0.338638 0.848750 0.931223
0.455430 0.848750 0.931223
0.573112 0.848750 0.931223
0.691506 0.848750 0.931223
0.810497 0.848750 0.931223
0.930000 0.848750 0.931223
0.000000 0.970000 0.931223
0.109220 0.970000 0.931223
0.223029 0.970000 0.931223
0.338638 0.970000 0.931223
0.455430 0.970000 0.931223
0.573112 0.970000 0.931223
0.691506 0.970000 0.931223
0.810497 0.970000 0.931223
0.930000 0.970000 0.931223
0.000000 0.000000 1.060000
0.109220 0.000000 1.060000
0.223029 0.000000 1.060000
0.338638 0.000000 1.060000
0.455430 0.000000 1.060000
0.573112 0.000000 1.060000
0.691506 0.000000 1.060000
0.810497 0.000000 1.060000
0.930000 0.000000 1.060000
0.000000 0.121250 1.060000
0.109220 0.121250 1.060000
0.223029 0.121250 1.060000
0.338638 0.121250 1.060000
0.455430 0.121250 1.060000
0.573112 0.121250 1.060000
0.691506 0.121250 1.060000
0.810497 0.121250 1.060000
0.930000 0.121250 1.060000
0.000000 0.242500 1.060000
0.109220 0.242500 1.060000
0.223029 0.242500 1.060000
0.338638 0.242500 1.060000
0.455430 0.242500 1.060000
0.573112 0.242500 1.060000
0.691506 0.242500 1.060000
0.810497 0.242500 1.060000
0.930000 0.242500 1.060000
0.000000 0.363750 1.060000
0.109220 0.363750 1.060000
0.223029 0.363750 1.060000
0.338638 0.363750 1.060000
0.455430 0.363750 1.060000
0.573112 0.363750 1.060000
0.691506 0.363750 1.060000
0.810497 0.363750 1.060000
0.930000 0.363750 1.060000
0.000000 0.485000 1.060000
0.109220 0.485000 1.060000
0.223029 0.485000 1.060000
0.338638 0.485000 1.060000
0.455430 0.485000 1.060000
0.573112 0.485000 1.060000
0.691506 0.485000 1.060000
0.810497 0.485000 1.060000
0.930000 0.485000 1.060000
0.000000 0.606250 1.060000
0.109220 0.606250 1.060000
0.223029 0.606250 1.060000
0.338638 0.606250 1.060000
0.455430 0.606250 1.060000
0.573112 0.606250 1.060000
0.691506 0.606250 1.060000
0.810497 0.606250 1.060000
0.930000 0.606250 1.060000
0.000000 0.727500 1.060000
0.109220 0.727500 1.060000
0.223029 0.727500 1.060000
0.338638 0.727500 1.060000
0.455430 0.727500 1.060000
0.573112 0.727500 1.060000
0.691506 0.727500 1.060000
0.810497 0.727500 1.060000
0.930000 0.727500 1.060000
0.000000 0.848750 1.060000
0.109220 0.848750 1.060000
0.223029 0.848750 1.060000
0.338638 0.848750 1.060000
0.455430 0.848750 1.060000
0.573112 0.848750 1.060000
0.691506 0.848750 1.060000
0.810497 0.848750 1.060000
0.930000 0.848750 1.060000
0.000000 0.970000 1.060000
0.109220 0.970000 1.060000
0.223029 0.970000 1.060000
0.338638 0.970000 1.060000
0.455430 0.970000 1.060000
0.573112 0.970000 1.060000
0.691506 0.970000 1.060000
0.810497 0.970000 1.060000
0.930000 0.970000 1.060000
