public/assets/luts/b01_dock.cube
TITLE "b01_dock"
LUT_3D_SIZE 5
DOMAIN_MIN 0 0 0
DOMAIN_MAX 1 1 1
0.000000 0.000000 0.000000
0.223029 0.000000 0.000000
0.455430 0.000000 0.000000
0.691506 0.000000 0.000000
0.930000 0.000000 0.000000
0.000000 0.242500 0.000000
0.223029 0.242500 0.000000
0.455430 0.242500 0.000000
0.691506 0.242500 0.000000
0.930000 0.242500 0.000000
0.000000 0.485000 0.000000
0.223029 0.485000 0.000000
0.455430 0.485000 0.000000
0.691506 0.485000 0.000000
0.930000 0.485000 0.000000
0.000000 0.727500 0.000000
0.223029 0.727500 0.000000
0.455430 0.727500 0.000000
0.691506 0.727500 0.000000
0.930000 0.727500 0.000000
0.000000 0.970000 0.000000
0.223029 0.970000 0.000000
0.455430 0.970000 0.000000
0.691506 0.970000 0.000000
0.930000 0.970000 0.000000
0.000000 0.000000 0.276253
0.223029 0.000000 0.276253
0.455430 0.000000 0.276253
0.691506 0.000000 0.276253
0.930000 0.000000 0.276253
0.000000 0.242500 0.276253
0.223029 0.242500 0.276253
0.455430 0.242500 0.276253
0.691506 0.242500 0.276253
0.930000 0.242500 0.276253
0.000000 0.485000 0.276253
0.223029 0.485000 0.276253
0.455430 0.485000 0.276253
0.691506 0.485000 0.276253
0.930000 0.485000 0.276253
0.000000 0.727500 0.276253
0.223029 0.727500 0.276253
0.455430 0.727500 0.276253
0.691506 0.727500 0.276253
0.930000 0.727500 0.276253
0.000000 0.970000 0.276253
0.223029 0.970000 0.276253
0.455430 0.970000 0.276253
0.691506 0.970000 0.276253
0.930000 0.970000 0.276253
0.000000 0.000000 0.541136
0.223029 0.000000 0.541136
0.455430 0.000000 0.541136
0.691506 0.000000 0.541136
0.930000 0.000000 0.541136
0.000000 0.242500 0.541136
0.223029 0.242500 0.541136
0.455430 0.242500 0.541136
0.691506 0.242500 0.541136
0.930000 0.242500 0.541136
0.000000 0.485000 0.541136
0.223029 0.485000 0.541136
0.455430 0.485000 0.541136
0.691506 0.485000 0.541136
0.930000 0.485000 0.541136
0.000000 0.727500 0.541136
0.223029 0.727500 0.541136
0.455430 0.727500 0.541136
0.691506 0.727500 0.541136
0.930000 0.727500 0.541136
0.000000 0.970000 0.541136
0.223029 0.970000 0.541136
0.455430 0.970000 0.541136
0.691506 0.970000 0.541136
0.930000 0.970000 0.541136
0.000000 0.000000 0.801891
0.223029 0.000000 0.801891
0.455430 0.000000 0.801891
0.691506 0.000000 0.801891
0.930000 0.000000 0.801891
0.000000 0.242500 0.801891
0.223029 0.242500 0.801891
0.455430 0.242500 0.801891
0.691506 0.242500 0.801891
0.930000 0.242500 0.801891
0.000000 0.485000 0.801891
0.223029 0.485000 0.801891
0.455430 0.485000 0.801891
0.691506 0.485000 0.801891
0.930000 0.485000 0.801891
0.000000 0.727500 0.801891
0.223029 0.727500 0.801891
0.455430 0.727500 0.801891
0.691506 0.727500 0.801891
0.930000 0.727500 0.801891
0.000000 0.970000 0.801891
0.223029 0.970000 0.801891
0.455430 0.970000 0.801891
0.691506 0.970000 0.801891
0.930000 0.970000 0.801891
0.000000 0.000000 1.060000
0.223029 0.000000 1.060000
0.455430 0.000000 1.060000
0.691506 0.000000 1.060000
0.930000 0.000000 1.060000
0.000000 0.242500 1.060000
0.223029 0.242500 1.060000
0.455430 0.242500 1.060000
0.691506 0.242500 1.060000
0.930000 0.242500 1.060000
0.000000 0.485000 1.060000
0.223029 0.485000 1.060000
0.455430 0.485000 1.060000
0.691506 0.485000 1.060000
0.930000 0.485000 1.060000
0.000000 0.727500 1.060000
0.223029 0.727500 1.060000
0.455430 0.727500 1.060000
0.691506 0.727500 1.060000
0.930000 0.727500 1.060000
0.000000 0.970000 1.060000
0.223029 0.970000 1.060000
0.455430 0.970000 1.060000
0.691506 0.970000 1.060000
0.930000 0.970000 1.060000
