public/assets/luts/b01_dock.cube
TITLE "b01_dock"
LUT_3D_SIZE 17
DOMAIN_MIN 0 0 0
DOMAIN_MAX 1 1 1
0.000000 0.000000 0.000000
0.053486 0.000000 0.000000
0.109220 0.000000 0.000000
0.165834 0.000000 0.000000
0.223029 0.000000 0.000000
0.280659 0.000000 0.000000
0.338638 0.000000 0.000000
0.396908 0.000000 0.000000
0.455430 0.000000 0.000000
0.514173 0.000000 0.000000
0.573112 0.000000 0.000000
0.632228 0.000000 0.000000
0.691506 0.000000 0.000000
0.750933 0.000000 0.000000
0.810497 0.000000 0.000000
0.870189 0.000000 0.000000
0.930000 0.000000 0.000000
0.000000 0.060625 0.000000
0.053486 0.060625 0.000000
0.109220 0.060625 0.000000
0.165834 0.060625 0.000000
0.223029 0.060625 0.000000
0.280659 0.060625 0.000000
0.338638 0.060625 0.000000
0.396908 0.060625 0.000000
0.455430 0.060625 0.000000
0.514173 0.060625 0.000000
0.573112 0.060625 0.000000
0.632228 0.060625 0.000000
0.691506 0.060625 0.000000
0.750933 0.060625 0.000000
0.810497 0.060625 0.000000
0.870189 0.060625 0.000000
0.930000 0.060625 0.000000
0.000000 0.121250 0.000000
0.053486 0.121250 0.000000
0.109220 0.121250 0.000000
0.165834 0.121250 0.000000
0.223029 0.121250 0.000000
0.280659 0.121250 0.000000
0.338638 0.121250 0.000000
0.396908 0.121250 0.000000
0.455430 0.121250 0.000000
0.514173 0.121250 0.000000
0.573112 0.121250 0.000000
0.632228 0.121250 0.000000
0.691506 0.121250 0.000000
0.750933 0.121250 0.000000
0.810497 0.121250 0.000000
0.870189 0.121250 0.000000
0.930000 0.121250 0.000000
0.000000 0.181875 0.000000
0.053486 0.181875 0.000000
0.109220 0.181875 0.000000
0.165834 0.181875 0.000000
0.223029 0.181875 0.000000
0.280659 0.181875 0.000000
0.338638 0.181875 0.000000
0.396908 0.181875 0.000000
0.455430 0.181875 0.000000
0.514173 0.181875 0.000000
0.573112 0.181875 0.000000
0.632228 0.181875 0.000000
0.691506 0.181875 0.000000
0.750933 0.181875 0.000000
0.810497 0.181875 0.000000
0.870189 0.181875 0.000000
0.930000 0.181875 0.000000
0.000000 0.242500 0.000000
0.053486 0.242500 0.000000
0.109220 0.242500 0.000000
0.165834 0.242500 0.000000
0.223029 0.242500 0.000000
0.280659 0.242500 0.000000
0.338638 0.242500 0.000000
0.396908 0.242500 0.000000
0.455430 0.242500 0.000000
0.514173 0.242500 0.000000
0.573112 0.242500 0.000000
0.632228 0.242500 0.000000
0.691506 0.242500 0.000000
0.750933 0.242500 0.000000
0.810497 0.242500 0.000000
0.870189 0.242500 0.000000
0.930000 0.242500 0.000000
0.000000 0.303125 0.000000
0.053486 0.303125 0.000000
0.109220 0.303125 0.000000
0.165834 0.303125 0.000000
0.223029 0.303125 0.000000
0.280659 0.303125 0.000000
0.338638 0.303125 0.000000
0.396908 0.303125 0.000000
0.455430 0.303125 0.000000
0.514173 0.303125 0.000000
0.573112 0.303125 0.000000
0.632228 0.303125 0.000000
0.691506 0.303125 0.000000
0.750933 0.303125 0.000000
0.810497 0.303125 0.000000
0.870189 0.303125 0.000000
0.930000 0.303125 0.000000
0.000000 0.363750 0.000000
0.053486 0.363750 0.000000
0.109220 0.363750 0.000000
0.165834 0.363750 0.000000
0.223029 0.363750 0.000000
0.280659 0.363750 0.000000
0.338638 0.363750 0.000000
0.396908 0.363750 0.000000
0.455430 0.363750 0.000000
0.514173 0.363750 0.000000
0.573112 0.363750 0.000000
0.632228 0.363750 0.000000
0.691506 0.363750 0.000000
0.750933 0.363750 0.000000
0.810497 0.363750 0.000000
0.870189 0.363750 0.000000
0.930000 0.363750 0.000000
0.000000 0.424375 0.000000
0.053486 0.424375 0.000000
0.109220 0.424375 0.000000
0.165834 0.424375 0.000000
0.223029 0.424375 0.000000
0.280659 0.424375 0.000000
0.338638 0.424375 0.000000
0.396908 0.424375 0.000000
0.455430 0.424375 0.000000
0.514173 0.424375 0.000000
0.573112 0.424375 0.000000
0.632228 0.424375 0.000000
0.691506 0.424375 0.000000
0.750933 0.424375 0.000000
0.810497 0.424375 0.000000
0.870189 0.424375 0.000000
0.930000 0.424375 0.000000
0.000000 0.485000 0.000000
0.053486 0.485000 0.000000
0.109220 0.485000 0.000000
0.165834 0.485000 0.000000
0.223029 0.485000 0.000000
0.280659 0.485000 0.000000
0.338638 0.485000 0.000000
0.396908 0.485000 0.000000
0.455430 0.485000 0.000000
0.514173 0.485000 0.000000
0.573112 0.485000 0.000000
0.632228 0.485000 0.000000
0.691506 0.485000 0.000000
0.750933 0.485000 0.000000
0.810497 0.485000 0.000000
0.870189 0.485000 0.000000
0.930000 0.485000 0.000000
0.000000 0.545625 0.000000
0.053486 0.545625 0.000000
0.109220 0.545625 0.000000
0.165834 0.545625 0.000000
0.223029 0.545625 0.000000
0.280659 0.545625 0.000000
0.338638 0.545625 0.000000
0.396908 0.545625 0.000000
0.455430 0.545625 0.000000
0.514173 0.545625 0.000000
0.573112 0.545625 0.000000
0.632228 0.545625 0.000000
0.691506 0.545625 0.000000
0.750933 0.545625 0.000000
0.810497 0.545625 0.000000
0.870189 0.545625 0.000000
0.930000 0.545625 0.000000
0.000000 0.606250 0.000000
0.053486 0.606250 0.000000
0.109220 0.606250 0.000000
0.165834 0.606250 0.000000
0.223029 0.606250 0.000000
0.280659 0.606250 0.000000
0.338638 0.606250 0.000000
0.396908 0.606250 0.000000
0.455430 0.606250 0.000000
0.514173 0.606250 0.000000
0.573112 0.606250 0.000000
0.632228 0.606250 0.000000
0.691506 0.606250 0.000000
0.750933 0.606250 0.000000
0.810497 0.606250 0.000000
0.870189 0.606250 0.000000
0.930000 0.606250 0.000000
0.000000 0.666875 0.000000
0.053486 0.666875 0.000000
0.109220 0.666875 0.000000
0.165834 0.666875 0.000000
0.223029 0.666875 0.000000
0.280659 0.666875 0.000000
0.338638 0.666875 0.000000
0.396908 0.666875 0.000000
0.455430 0.666875 0.000000
0.514173 0.666875 0.000000
0.573112 0.666875 0.000000
0.632228 0.666875 0.000000
0.691506 0.666875 0.000000
0.750933 0.666875 0.000000
0.810497 0.666875 0.000000
0.870189 0.666875 0.000000
0.930000 0.666875 0.000000
0.000000 0.727500 0.000000
0.053486 0.727500 0.000000
0.109220 0.727500 0.000000
0.165834 0.727500 0.000000
0.223029 0.727500 0.000000
0.280659 0.727500 0.000000
0.338638 0.727500 0.000000
0.396908 0.727500 0.000000
0.455430 0.727500 0.000000
0.514173 0.727500 0.000000
0.573112 0.727500 0.000000
0.632228 0.727500 0.000000
0.691506 0.727500 0.000000
0.750933 0.727500 0.000000
0.810497 0.727500 0.000000
0.870189 0.727500 0.000000
0.930000 0.727500 0.000000
0.000000 0.788125 0.000000
0.053486 0.788125 0.000000
0.109220 0.788125 0.000000
0.165834 0.788125 0.000000
0.223029 0.788125 0.000000
0.280659 0.788125 0.000000
0.338638 0.788125 0.000000
0.396908 0.788125 0.000000
0.455430 0.788125 0.000000
0.514173 0.788125 0.000000
0.573112 0.788125 0.000000
0.632228 0.788125 0.000000
0.691506 0.788125 0.000000
0.750933 0.788125 0.000000
0.810497 0.788125 0.000000
0.870189 0.788125 0.000000
0.930000 0.788125 0.000000
0.000000 0.848750 0.000000
0.053486 0.848750 0.000000
0.109220 0.848750 0.000000
0.165834 0.848750 0.000000
0.223029 0.848750 0.000000
0.280659 0.848750 0.000000
0.338638 0.848750 0.000000
0.396908 0.848750 0.000000
0.455430 0.848750 0.000000
0.514173 0.848750 0.000000
0.573112 0.848750 0.000000
0.632228 0.848750 0.000000
0.691506 0.848750 0.000000
0.750933 0.848750 0.000000
0.810497 0.848750 0.000000
0.870189 0.848750 0.000000
0.930000 0.848750 0.000000
0.000000 0.909375 0.000000
0.053486 0.909375 0.000000
0.109220 0.909375 0.000000
0.165834 0.909375 0.000000
0.223029 0.909375 0.000000
0.280659 0.909375 0.000000
0.338638 0.909375 0.000000
0.396908 0.909375 0.000000
0.455430 0.909375 0.000000
0.514173 0.909375 0.000000
0.573112 0.909375 0.000000
0.632228 0.909375 0.000000
0.691506 0.909375 0.000000
0.750933 0.909375 0.000000
0.810497 0.909375 0.000000
0.870189 0.909375 0.000000
0.930000 0.909375 0.000000
0.000000 0.970000 0.000000
0.053486 0.970000 0.000000
0.109220 0.970000 0.000000
0.165834 0.970000 0.000000
0.223029 0.970000 0.000000
0.280659 0.970000 0.000000
0.338638 0.970000 0.000000
0.396908 0.970000 0.000000
0.455430 0.970000 0.000000
0.514173 0.970000 0.000000
0.573112 0.970000 0.000000
0.632228 0.970000 0.000000
0.691506 0.970000 0.000000
0.750933 0.970000 0.000000
0.810497 0.970000 0.000000
0.870189 0.970000 0.000000
0.930000 0.970000 0.000000
0.000000 0.000000 0.071996
0.053486 0.000000 0.071996
0.109220 0.000000 0.071996
0.165834 0.000000 0.071996
0.223029 0.000000 0.071996
0.280659 0.000000 0.071996
0.338638 0.000000 0.071996
0.396908 0.000000 0.071996
0.455430 0.000000 0.071996
0.514173 0.000000 0.071996
0.573112 0.000000 0.071996
0.632228 0.000000 0.071996
0.691506 0.000000 0.071996
0.750933 0.000000 0.071996
0.810497 0.000000 0.071996
0.870189 0.000000 0.071996
0.930000 0.000000 0.071996
0.000000 0.060625 0.071996
0.053486 0.060625 0.071996
0.109220 0.060625 0.071996
0.165834 0.060625 0.071996
0.223029 0.060625 0.071996
0.280659 0.060625 0.071996
0.338638 0.060625 0.071996
0.396908 0.060625 0.071996
0.455430 0.060625 0.071996
0.514173 0.060625 0.071996
0.573112 0.060625 0.071996
0.632228 0.060625 0.071996
0.691506 0.060625 0.071996
0.750933 0.060625 0.071996
0.810497 0.060625 0.071996
0.870189 0.060625 0.071996
0.930000 0.060625 0.071996
0.000000 0.121250 0.071996
0.053486 0.121250 0.071996
0.109220 0.121250 0.071996
0.165834 0.121250 0.071996
0.223029 0.121250 0.071996
0.280659 0.121250 0.071996
0.338638 0.121250 0.071996
0.396908 0.121250 0.071996
0.455430 0.121250 0.071996
0.514173 0.121250 0.071996
0.573112 0.121250 0.071996
0.632228 0.121250 0.071996
0.691506 0.121250 0.071996
0.750933 0.121250 0.071996
0.810497 0.121250 0.071996
0.870189 0.121250 0.071996
0.930000 0.121250 0.071996
0.000000 0.181875 0.071996
0.053486 0.181875 0.071996
0.109220 0.181875 0.071996
0.165834 0.181875 0.071996
0.223029 0.181875 0.071996
0.280659 0.181875 0.071996
0.338638 0.181875 0.071996
0.396908 0.181875 0.071996
0.455430 0.181875 0.071996
0.514173 0.181875 0.071996
0.573112 0.181875 0.071996
0.632228 0.181875 0.071996
0.691506 0.181875 0.071996
0.750933 0.181875 0.071996
0.810497 0.181875 0.071996
0.870189 0.181875 0.071996
0.930000 0.181875 0.071996
0.000000 0.242500 0.071996
0.053486 0.242500 0.071996
0.109220 0.242500 0.071996
0.165834 0.242500 0.071996
0.223029 0.242500 0.071996
0.280659 0.242500 0.071996
0.338638 0.242500 0.071996
0.396908 0.242500 0.071996
0.455430 0.242500 0.071996
0.514173 0.242500 0.071996
0.573112 0.242500 0.071996
0.632228 0.242500 0.071996
0.691506 0.242500 0.071996
0.750933 0.242500 0.071996
0.810497 0.242500 0.071996
0.870189 0.242500 0.071996
0.930000 0.242500 0.071996
0.000000 0.303125 0.071996
0.053486 0.303125 0.071996
0.109220 0.303125 0.071996
0.165834 0.303125 0.071996
0.223029 0.303125 0.071996
0.280659 0.303125 0.071996
0.338638 0.303125 0.071996
0.396908 0.303125 0.071996
0.455430 0.303125 0.071996
0.514173 0.303125 0.071996
0.573112 0.303125 0.071996
0.632228 0.303125 0.071996
0.691506 0.303125 0.071996
0.750933 0.303125 0.071996
0.810497 0.303125 0.071996
0.870189 0.303125 0.071996
0.930000 0.303125 0.071996
0.000000 0.363750 0.071996
0.053486 0.363750 0.071996
0.109220 0.363750 0.071996
0.165834 0.363750 0.071996
0.223029 0.363750 0.071996
0.280659 0.363750 0.071996
0.338638 0.363750 0.071996
0.396908 0.363750 0.071996
0.455430 0.363750 0.071996
0.514173 0.363750 0.071996
0.573112 0.363750 0.071996
0.632228 0.363750 0.071996
0.691506 0.363750 0.071996
0.750933 0.363750 0.071996
0.810497 0.363750 0.071996
0.870189 0.363750 0.071996
0.930000 0.363750 0.071996
0.000000 0.424375 0.071996
0.053486 0.424375 0.071996
0.109220 0.424375 0.071996
0.165834 0.424375 0.071996
0.223029 0.424375 0.071996
0.280659 0.424375 0.071996
0.338638 0.424375 0.071996
0.396908 0.424375 0.071996
0.455430 0.424375 0.071996
0.514173 0.424375 0.071996
0.573112 0.424375 0.071996
0.632228 0.424375 0.071996
0.691506 0.424375 0.071996
0.750933 0.424375 0.071996
0.810497 0.424375 0.071996
0.870189 0.424375 0.071996
0.930000 0.424375 0.071996
0.000000 0.485000 0.071996
0.053486 0.485000 0.071996
0.109220 0.485000 0.071996
0.165834 0.485000 0.071996
0.223029 0.485000 0.071996
0.280659 0.485000 0.071996
0.338638 0.485000 0.071996
0.396908 0.485000 0.071996
0.455430 0.485000 0.071996
0.514173 0.485000 0.071996
0.573112 0.485000 0.071996
0.632228 0.485000 0.071996
0.691506 0.485000 0.071996
0.750933 0.485000 0.071996
0.810497 0.485000 0.071996
0.870189 0.485000 0.071996
0.930000 0.485000 0.071996
0.000000 0.545625 0.071996
0.053486 0.545625 0.071996
0.109220 0.545625 0.071996
0.165834 0.545625 0.071996
0.223029 0.545625 0.071996
0.280659 0.545625 0.071996
0.338638 0.545625 0.071996
0.396908 0.545625 0.071996
0.455430 0.545625 0.071996
0.514173 0.545625 0.071996
0.573112 0.545625 0.071996
0.632228 0.545625 0.071996
0.691506 0.545625 0.071996
0.750933 0.545625 0.071996
0.810497 0.545625 0.071996
0.870189 0.545625 0.071996
0.930000 0.545625 0.071996
0.000000 0.606250 0.071996
0.053486 0.606250 0.071996
0.109220 0.606250 0.071996
0.165834 0.606250 0.071996
0.223029 0.606250 0.071996
0.280659 0.606250 0.071996
0.338638 0.606250 0.071996
0.396908 0.606250 0.071996
0.455430 0.606250 0.071996
0.514173 0.606250 0.071996
0.573112 0.606250 0.071996
0.632228 0.606250 0.071996
0.691506 0.606250 0.071996
0.750933 0.606250 0.071996
0.810497 0.606250 0.071996
0.870189 0.606250 0.071996
0.930000 0.606250 0.071996
0.000000 0.666875 0.071996
0.053486 0.666875 0.071996
0.109220 0.666875 0.071996
0.165834 0.666875 0.071996
0.223029 0.666875 0.071996
0.280659 0.666875 0.071996
0.338638 0.666875 0.071996
0.396908 0.666875 0.071996
0.455430 0.666875 0.071996
0.514173 0.666875 0.071996
0.573112 0.666875 0.071996
0.632228 0.666875 0.071996
0.691506 0.666875 0.071996
0.750933 0.666875 0.071996
0.810497 0.666875 0.071996
0.870189 0.666875 0.071996
0.930000 0.666875 0.071996
0.000000 0.727500 0.071996
0.053486 0.727500 0.071996
0.109220 0.727500 0.071996
0.165834 0.727500 0.071996
0.223029 0.727500 0.071996
0.280659 0.727500 0.071996
0.338638 0.727500 0.071996
0.396908 0.727500 0.071996
0.455430 0.727500 0.071996
0.514173 0.727500 0.071996
0.573112 0.727500 0.071996
0.632228 0.727500 0.071996
0.691506 0.727500 0.071996
0.750933 0.727500 0.071996
0.810497 0.727500 0.071996
0.870189 0.727500 0.071996
0.930000 0.727500 0.071996
0.000000 0.788125 0.071996
0.053486 0.788125 0.071996
0.109220 0.788125 0.071996
0.165834 0.788125 0.071996
0.223029 0.788125 0.071996
0.280659 0.788125 0.071996
0.338638 0.788125 0.071996
0.396908 0.788125 0.071996
0.455430 0.788125 0.071996
0.514173 0.788125 0.071996
0.573112 0.788125 0.071996
0.632228 0.788125 0.071996
0.691506 0.788125 0.071996
0.750933 0.788125 0.071996
0.810497 0.788125 0.071996
0.870189 0.788125 0.071996
0.930000 0.788125 0.071996
0.000000 0.848750 0.071996
0.053486 0.848750 0.071996
0.109220 0.848750 0.071996
0.165834 0.848750 0.071996
0.223029 0.848750 0.071996
0.280659 0.848750 0.071996
0.338638 0.848750 0.071996
0.396908 0.848750 0.071996
0.455430 0.848750 0.071996
0.514173 0.848750 0.071996
0.573112 0.848750 0.071996
0.632228 0.848750 0.071996
0.691506 0.848750 0.071996
0.750933 0.848750 0.071996
0.810497 0.848750 0.071996
0.870189 0.848750 0.071996
0.930000 0.848750 0.071996
0.000000 0.909375 0.071996
0.053486 0.909375 0.071996
0.109220 0.909375 0.071996
0.165834 0.909375 0.071996
0.223029 0.909375 0.071996
0.280659 0.909375 0.071996
0.338638 0.909375 0.071996
0.396908 0.909375 0.071996
0.455430 0.909375 0.071996
0.514173 0.909375 0.071996
0.573112 0.909375 0.071996
0.632228 0.909375 0.071996
0.691506 0.909375 0.071996
0.750933 0.909375 0.071996
0.810497 0.909375 0.071996
0.870189 0.909375 0.071996
0.930000 0.909375 0.071996
0.000000 0.970000 0.071996
0.053486 0.970000 0.071996
0.109220 0.970000 0.071996
0.165834 0.970000 0.071996
0.223029 0.970000 0.071996
0.280659 0.970000 0.071996
0.338638 0.970000 0.071996
0.396908 0.970000 0.071996
0.455430 0.970000 0.071996
0.514173 0.970000 0.071996
0.573112 0.970000 0.071996
0.632228 0.970000 0.071996
0.691506 0.970000 0.071996
0.750933 0.970000 0.071996
0.810497 0.970000 0.071996
0.870189 0.970000 0.071996
0.930000 0.970000 0.071996
0.000000 0.000000 0.141029
0.053486 0.000000 0.141029
0.109220 0.000000 0.141029
0.165834 0.000000 0.141029
0.223029 0.000000 0.141029
0.280659 0.000000 0.141029
0.338638 0.000000 0.141029
0.396908 0.000000 0.141029
0.455430 0.000000 0.141029
0.514173 0.000000 0.141029
0.573112 0.000000 0.141029
0.632228 0.000000 0.141029
0.691506 0.000000 0.141029
0.750933 0.000000 0.141029
0.810497 0.000000 0.141029
0.870189 0.000000 0.141029
0.930000 0.000000 0.141029
0.000000 0.060625 0.141029
0.053486 0.060625 0.141029
0.109220 0.060625 0.141029
0.165834 0.060625 0.141029
0.223029 0.060625 0.141029
0.280659 0.060625 0.141029
0.338638 0.060625 0.141029
0.396908 0.060625 0.141029
0.455430 0.060625 0.141029
0.514173 0.060625 0.141029
0.573112 0.060625 0.141029
0.632228 0.060625 0.141029
0.691506 0.060625 0.141029
0.750933 0.060625 0.141029
0.810497 0.060625 0.141029
0.870189 0.060625 0.141029
0.930000 0.060625 0.141029
0.000000 0.121250 0.141029
0.053486 0.121250 0.141029
0.109220 0.121250 0.141029
0.165834 0.121250 0.141029
0.223029 0.121250 0.141029
0.280659 0.121250 0.141029
0.338638 0.121250 0.141029
0.396908 0.121250 0.141029
0.455430 0.121250 0.141029
0.514173 0.121250 0.141029
0.573112 0.121250 0.141029
0.632228 0.121250 0.141029
0.691506 0.121250 0.141029
0.750933 0.121250 0.141029
0.810497 0.121250 0.141029
0.870189 0.121250 0.141029
0.930000 0.121250 0.141029
0.000000 0.181875 0.141029
0.053486 0.181875 0.141029
0.109220 0.181875 0.141029
0.165834 0.181875 0.141029
0.223029 0.181875 0.141029
0.280659 0.181875 0.141029
0.338638 0.181875 0.141029
0.396908 0.181875 0.141029
0.455430 0.181875 0.141029
0.514173 0.181875 0.141029
0.573112 0.181875 0.141029
0.632228 0.181875 0.141029
0.691506 0.181875 0.141029
0.750933 0.181875 0.141029
0.810497 0.181875 0.141029
0.870189 0.181875 0.141029
0.930000 0.181875 0.141029
0.000000 0.242500 0.141029
0.053486 0.242500 0.141029
0.109220 0.242500 0.141029
0.165834 0.242500 0.141029
0.223029 0.242500 0.141029
0.280659 0.242500 0.141029
0.338638 0.242500 0.141029
0.396908 0.242500 0.141029
0.455430 0.242500 0.141029
0.514173 0.242500 0.141029
0.573112 0.242500 0.141029
0.632228 0.242500 0.141029
0.691506 0.242500 0.141029
0.750933 0.242500 0.141029
0.810497 0.242500 0.141029
0.870189 0.242500 0.141029
0.930000 0.242500 0.141029
0.000000 0.303125 0.141029
0.053486 0.303125 0.141029
0.109220 0.303125 0.141029
0.165834 0.303125 0.141029
0.223029 0.303125 0.141029
0.280659 0.303125 0.141029
0.338638 0.303125 0.141029
0.396908 0.303125 0.141029
0.455430 0.303125 0.141029
0.514173 0.303125 0.141029
0.573112 0.303125 0.141029
0.632228 0.303125 0.141029
0.691506 0.303125 0.141029
0.750933 0.303125 0.141029
0.810497 0.303125 0.141029
0.870189 0.303125 0.141029
0.930000 0.303125 0.141029
0.000000 0.363750 0.141029
0.053486 0.363750 0.141029
0.109220 0.363750 0.141029
0.165834 0.363750 0.141029
0.223029 0.363750 0.141029
0.280659 0.363750 0.141029
0.338638 0.363750 0.141029
0.396908 0.363750 0.141029
0.455430 0.363750 0.141029
0.514173 0.363750 0.141029
0.573112 0.363750 0.141029
0.632228 0.363750 0.141029
0.691506 0.363750 0.141029
0.750933 0.363750 0.141029
0.810497 0.363750 0.141029
0.870189 0.363750 0.141029
0.930000 0.363750 0.141029
0.000000 0.424375 0.141029
0.053486 0.424375 0.141029
0.109220 0.424375 0.141029
0.165834 0.424375 0.141029
0.223029 0.424375 0.141029
0.280659 0.424375 0.141029
0.338638 0.424375 0.141029
0.396908 0.424375 0.141029
0.455430 0.424375 0.141029
0.514173 0.424375 0.141029
0.573112 0.424375 0.141029
0.632228 0.424375 0.141029
0.691506 0.424375 0.141029
0.750933 0.424375 0.141029
0.810497 0.424375 0.141029
0.870189 0.424375 0.141029
0.930000 0.424375 0.141029
0.000000 0.485000 0.141029
0.053486 0.485000 0.141029
0.109220 0.485000 0.141029
0.165834 0.485000 0.141029
0.223029 0.485000 0.141029
0.280659 0.485000 0.141029
0.338638 0.485000 0.141029
0.396908 0.485000 0.141029
0.455430 0.485000 0.141029
0.514173 0.485000 0.141029
0.573112 0.485000 0.141029
0.632228 0.485000 0.141029
0.691506 0.485000 0.141029
0.750933 0.485000 0.141029
0.810497 0.485000 0.141029
0.870189 0.485000 0.141029
0.930000 0.485000 0.141029
0.000000 0.545625 0.141029
0.053486 0.545625 0.141029
0.109220 0.545625 0.141029
0.165834 0.545625 0.141029
0.223029 0.545625 0.141029
0.280659 0.545625 0.141029
0.338638 0.545625 0.141029
0.396908 0.545625 0.141029
0.455430 0.545625 0.141029
0.514173 0.545625 0.141029
0.573112 0.545625 0.141029
0.632228 0.545625 0.141029
0.691506 0.545625 0.141029
0.750933 0.545625 0.141029
0.810497 0.545625 0.141029
0.870189 0.545625 0.141029
0.930000 0.545625 0.141029
0.000000 0.606250 0.141029
0.053486 0.606250 0.141029
0.109220 0.606250 0.141029
0.165834 0.606250 0.141029
0.223029 0.606250 0.141029
0.280659 0.606250 0.141029
0.338638 0.606250 0.141029
0.396908 0.606250 0.141029
0.455430 0.606250 0.141029
0.514173 0.606250 0.141029
0.573112 0.606250 0.141029
0.632228 0.606250 0.141029
0.691506 0.606250 0.141029
0.750933 0.606250 0.141029
0.810497 0.606250 0.141029
0.870189 0.606250 0.141029
0.930000 0.606250 0.141029
0.000000 0.666875 0.141029
0.053486 0.666875 0.141029
0.109220 0.666875 0.141029
0.165834 0.666875 0.141029
0.223029 0.666875 0.141029
0.280659 0.666875 0.141029
0.338638 0.666875 0.141029
0.396908 0.666875 0.141029
0.455430 0.666875 0.141029
0.514173 0.666875 0.141029
0.573112 0.666875 0.141029
0.632228 0.666875 0.141029
0.691506 0.666875 0.141029
0.750933 0.666875 0.141029
0.810497 0.666875 0.141029
0.870189 0.666875 0.141029
0.930000 0.666875 0.141029
0.000000 0.727500 0.141029
0.053486 0.727500 0.141029
0.109220 0.727500 0.141029
0.165834 0.727500 0.141029
0.223029 0.727500 0.141029
0.280659 0.727500 0.141029
0.338638 0.727500 0.141029
0.396908 0.727500 0.141029
0.455430 0.727500 0.141029
0.514173 0.727500 0.141029
0.573112 0.727500 0.141029
0.632228 0.727500 0.141029
0.691506 0.727500 0.141029
0.750933 0.727500 0.141029
0.810497 0.727500 0.141029
0.870189 0.727500 0.141029
0.930000 0.727500 0.141029
0.000000 0.788125 0.141029
0.053486 0.788125 0.141029
0.109220 0.788125 0.141029
0.165834 0.788125 0.141029
0.223029 0.788125 0.141029
0.280659 0.788125 0.141029
0.338638 0.788125 0.141029
0.396908 0.788125 0.141029
0.455430 0.788125 0.141029
0.514173 0.788125 0.141029
0.573112 0.788125 0.141029
0.632228 0.788125 0.141029
0.691506 0.788125 0.141029
0.750933 0.788125 0.141029
0.810497 0.788125 0.141029
0.870189 0.788125 0.141029
0.930000 0.788125 0.141029
0.000000 0.848750 0.141029
0.053486 0.848750 0.141029
0.109220 0.848750 0.141029
0.165834 0.848750 0.141029
0.223029 0.848750 0.141029
0.280659 0.848750 0.141029
0.338638 0.848750 0.141029
0.396908 0.848750 0.141029
0.455430 0.848750 0.141029
0.514173 0.848750 0.141029
0.573112 0.848750 0.141029
0.632228 0.848750 0.141029
0.691506 0.848750 0.141029
0.750933 0.848750 0.141029
0.810497 0.848750 0.141029
0.870189 0.848750 0.141029
0.930000 0.848750 0.141029
0.000000 0.909375 0.141029
0.053486 0.909375 0.141029
0.109220 0.909375 0.141029
0.165834 0.909375 0.141029
0.223029 0.909375 0.141029
0.280659 0.909375 0.141029
0.338638 0.909375 0.141029
0.396908 0.909375 0.141029
0.455430 0.909375 0.141029
0.514173 0.909375 0.141029
0.573112 0.909375 0.141029
0.632228 0.909375 0.141029
0.691506 0.909375 0.141029
0.750933 0.909375 0.141029
0.810497 0.909375 0.141029
0.870189 0.909375 0.141029
0.930000 0.909375 0.141029
0.000000 0.970000 0.141029
0.053486 0.970000 0.141029
0.109220 0.970000 0.141029
0.165834 0.970000 0.141029
0.223029 0.970000 0.141029
0.280659 0.970000 0.141029
0.338638 0.970000 0.141029
0.396908 0.970000 0.141029
0.455430 0.970000 0.141029
0.514173 0.970000 0.141029
0.573112 0.970000 0.141029
0.632228 0.970000 0.141029
0.691506 0.970000 0.141029
0.750933 0.970000 0.141029
0.810497 0.970000 0.141029
0.870189 0.970000 0.141029
0.930000 0.970000 0.141029
0.000000 0.000000 0.208986
0.053486 0.000000 0.208986
0.109220 0.000000 0.208986
0.165834 0.000000 0.208986
0.223029 0.000000 0.208986
0.280659 0.000000 0.208986
0.338638 0.000000 0.208986
0.396908 0.000000 0.208986
0.455430 0.000000 0.208986
0.514173 0.000000 0.208986
0.573112 0.000000 0.208986
0.632228 0.000000 0.208986
0.691506 0.000000 0.208986
0.750933 0.000000 0.208986
0.810497 0.000000 0.208986
0.870189 0.000000 0.208986
0.930000 0.000000 0.208986
0.000000 0.060625 0.208986
0.053486 0.060625 0.208986
