public/assets/luts/b02_continental.cube
TITLE "b02_continental"
LUT_3D_SIZE 5
DOMAIN_MIN 0 0 0
DOMAIN_MAX 1 1 1
0.000000 0.000000 0.000000
0.247011 0.000000 0.000000
0.504401 0.000000 0.000000
0.765862 0.000000 0.000000
1.030000 0.000000 0.000000
0.000000 0.247500 0.000000
0.247011 0.247500 0.000000
0.504401 0.247500 0.000000
0.765862 0.247500 0.000000
1.030000 0.247500 0.000000
0.000000 0.495000 0.000000
0.247011 0.495000 0.000000
0.504401 0.495000 0.000000
0.765862 0.495000 0.000000
1.030000 0.495000 0.000000
0.000000 0.742500 0.000000
0.247011 0.742500 0.000000
0.504401 0.742500 0.000000
0.765862 0.742500 0.000000
1.030000 0.742500 0.000000
0.000000 0.990000 0.000000
0.247011 0.990000 0.000000
0.504401 0.990000 0.000000
0.765862 0.990000 0.000000
1.030000 0.990000 0.000000
0.000000 0.000000 0.250192
0.247011 0.000000 0.250192
0.504401 0.000000 0.250192
0.765862 0.000000 0.250192
1.030000 0.000000 0.250192
0.000000 0.247500 0.250192
0.247011 0.247500 0.250192
0.504401 0.247500 0.250192
0.765862 0.247500 0.250192
1.030000 0.247500 0.250192
0.000000 0.495000 0.250192
0.247011 0.495000 0.250192
0.504401 0.495000 0.250192
0.765862 0.495000 0.250192
1.030000 0.495000 0.250192
0.000000 0.742500 0.250192
0.247011 0.742500 0.250192
0.504401 0.742500 0.250192
0.765862 0.742500 0.250192
1.030000 0.742500 0.250192
0.000000 0.990000 0.250192
0.247011 0.990000 0.250192
0.504401 0.990000 0.250192
0.765862 0.990000 0.250192
1.030000 0.990000 0.250192
0.000000 0.000000 0.490086
0.247011 0.000000 0.490086
0.504401 0.000000 0.490086
0.765862 0.000000 0.490086
1.030000 0.000000 0.490086
0.000000 0.247500 0.490086
0.247011 0.247500 0.490086
0.504401 0.247500 0.490086
0.765862 0.247500 0.490086
1.030000 0.247500 0.490086
0.000000 0.495000 0.490086
0.247011 0.495000 0.490086
0.504401 0.495000 0.490086
0.765862 0.495000 0.490086
1.030000 0.495000 0.490086
0.000000 0.742500 0.490086
0.247011 0.742500 0.490086
0.504401 0.742500 0.490086
0.765862 0.742500 0.490086
1.030000 0.742500 0.490086
0.000000 0.990000 0.490086
0.247011 0.990000 0.490086
0.504401 0.990000 0.490086
0.765862 0.990000 0.490086
1.030000 0.990000 0.490086
0.000000 0.000000 0.726241
0.247011 0.000000 0.726241
0.504401 0.000000 0.726241
0.765862 0.000000 0.726241
1.030000 0.000000 0.726241
0.000000 0.247500 0.726241
0.247011 0.247500 0.726241
0.504401 0.247500 0.726241
0.765862 0.247500 0.726241
1.030000 0.247500 0.726241
0.000000 0.495000 0.726241
0.247011 0.495000 0.726241
0.504401 0.495000 0.726241
0.765862 0.495000 0.726241
1.030000 0.495000 0.726241
0.000000 0.742500 0.726241
0.247011 0.742500 0.726241
0.504401 0.742500 0.726241
0.765862 0.742500 0.726241
1.030000 0.742500 0.726241
0.000000 0.990000 0.726241
0.247011 0.990000 0.726241
0.504401 0.990000 0.726241
0.765862 0.990000 0.726241
1.030000 0.990000 0.726241
0.000000 0.000000 0.960000
0.247011 0.000000 0.960000
0.504401 0.000000 0.960000
0.765862 0.000000 0.960000
1.030000 0.000000 0.960000
0.000000 0.247500 0.960000
0.247011 0.247500 0.960000
0.504401 0.247500 0.960000
0.765862 0.247500 0.960000
1.030000 0.247500 0.960000
0.000000 0.495000 0.960000
0.247011 0.495000 0.960000
0.504401 0.495000 0.960000
0.765862 0.495000 0.960000
1.030000 0.495000 0.960000
0.000000 0.742500 0.960000
0.247011 0.742500 0.960000
0.504401 0.742500 0.960000
0.765862 0.742500 0.960000
1.030000 0.742500 0.960000
0.000000 0.990000 0.960000
0.247011 0.990000 0.960000
0.504401 0.990000 0.960000
0.765862 0.990000 0.960000
1.030000 0.990000 0.960000
