public/assets/luts/b02_continental.cube
TITLE "b02_continental"
LUT_3D_SIZE 9
DOMAIN_MIN 0 0 0
DOMAIN_MAX 1 1 1
0.000000 0.000000 0.000000
0.120964 0.000000 0.000000
0.247011 0.000000 0.000000
0.375050 0.000000 0.000000
0.504401 0.000000 0.000000
0.634737 0.000000 0.000000
0.765862 0.000000 0.000000
0.897647 0.000000 0.000000
1.030000 0.000000 0.000000
0.000000 0.123750 0.000000
0.120964 0.123750 0.000000
0.247011 0.123750 0.000000
0.375050 0.123750 0.000000
0.504401 0.123750 0.000000
0.634737 0.123750 0.000000
0.765862 0.123750 0.000000
0.897647 0.123750 0.000000
1.030000 0.123750 0.000000
0.000000 0.247500 0.000000
0.120964 0.247500 0.000000
0.247011 0.247500 0.000000
0.375050 0.247500 0.000000
0.504401 0.247500 0.000000
0.634737 0.247500 0.000000
0.765862 0.247500 0.000000
0.897647 0.247500 0.000000
1.030000 0.247500 0.000000
0.000000 0.371250 0.000000
0.120964 0.371250 0.000000
0.247011 0.371250 0.000000
0.375050 0.371250 0.000000
0.504401 0.371250 0.000000
0.634737 0.371250 0.000000
0.765862 0.371250 0.000000
0.897647 0.371250 0.000000
1.030000 0.371250 0.000000
0.000000 0.495000 0.000000
0.120964 0.495000 0.000000
0.247011 0.495000 0.000000
0.375050 0.495000 0.000000
0.504401 0.495000 0.000000
0.634737 0.495000 0.000000
0.765862 0.495000 0.000000
0.897647 0.495000 0.000000
1.030000 0.495000 0.000000
0.000000 0.618750 0.000000
0.120964 0.618750 0.000000
0.247011 0.618750 0.000000
0.375050 0.618750 0.000000
0.504401 0.618750 0.000000
0.634737 0.618750 0.000000
0.765862 0.618750 0.000000
0.897647 0.618750 0.000000
1.030000 0.618750 0.000000
0.000000 0.742500 0.000000
0.120964 0.742500 0.000000
0.247011 0.742500 0.000000
0.375050 0.742500 0.000000
0.504401 0.742500 0.000000
0.634737 0.742500 0.000000
0.765862 0.742500 0.000000
0.897647 0.742500 0.000000
1.030000 0.742500 0.000000
0.000000 0.866250 0.000000
0.120964 0.866250 0.000000
0.247011 0.866250 0.000000
0.375050 0.866250 0.000000
0.504401 0.866250 0.000000
0.634737 0.866250 0.000000
0.765862 0.866250 0.000000
0.897647 0.866250 0.000000
1.030000 0.866250 0.000000
0.000000 0.990000 0.000000
0.120964 0.990000 0.000000
0.247011 0.990000 0.000000
0.375050 0.990000 0.000000
0.504401 0.990000 0.000000
0.634737 0.990000 0.000000
0.765862 0.990000 0.000000
0.897647 0.990000 0.000000
1.030000 0.990000 0.000000
0.000000 0.000000 0.127724
0.120964 0.000000 0.127724
0.247011 0.000000 0.127724
0.375050 0.000000 0.127724
0.504401 0.000000 0.127724
0.634737 0.000000 0.127724
0.765862 0.000000 0.127724
0.897647 0.000000 0.127724
1.030000 0.000000 0.127724
0.000000 0.123750 0.127724
0.120964 0.123750 0.127724
0.247011 0.123750 0.127724
0.375050 0.123750 0.127724
0.504401 0.123750 0.127724
0.634737 0.123750 0.127724
0.765862 0.123750 0.127724
0.897647 0.123750 0.127724
1.030000 0.123750 0.127724
0.000000 0.247500 0.127724
0.120964 0.247500 0.127724
0.247011 0.247500 0.127724
0.375050 0.247500 0.127724
0.504401 0.247500 0.127724
0.634737 0.247500 0.127724
0.765862 0.247500 0.127724
0.897647 0.247500 0.127724
1.030000 0.247500 0.127724
0.000000 0.371250 0.127724
0.120964 0.371250 0.127724
0.247011 0.371250 0.127724
0.375050 0.371250 0.127724
0.504401 0.371250 0.127724
0.634737 0.371250 0.127724
0.765862 0.371250 0.127724
0.897647 0.371250 0.127724
1.030000 0.371250 0.127724
0.000000 0.495000 0.127724
0.120964 0.495000 0.127724
0.247011 0.495000 0.127724
0.375050 0.495000 0.127724
0.504401 0.495000 0.127724
0.634737 0.495000 0.127724
0.765862 0.495000 0.127724
0.897647 0.495000 0.127724
1.030000 0.495000 0.127724
0.000000 0.618750 0.127724
0.120964 0.618750 0.127724
0.247011 0.618750 0.127724
0.375050 0.618750 0.127724
0.504401 0.618750 0.127724
0.634737 0.618750 0.127724
0.765862 0.618750 0.127724
0.897647 0.618750 0.127724
1.030000 0.618750 0.127724
0.000000 0.742500 0.127724
0.120964 0.742500 0.127724
0.247011 0.742500 0.127724
0.375050 0.742500 0.127724
0.504401 0.742500 0.127724
0.634737 0.742500 0.127724
0.765862 0.742500 0.127724
0.897647 0.742500 0.127724
1.030000 0.742500 0.127724
0.000000 0.866250 0.127724
0.120964 0.866250 0.127724
0.247011 0.866250 0.127724
0.375050 0.866250 0.127724
0.504401 0.866250 0.127724
0.634737 0.866250 0.127724
0.765862 0.866250 0.127724
0.897647 0.866250 0.127724
1.030000 0.866250 0.127724
0.000000 0.990000 0.127724
0.120964 0.990000 0.127724
0.247011 0.990000 0.127724
0.375050 0.990000 0.127724
0.504401 0.990000 0.127724
0.634737 0.990000 0.127724
0.765862 0.990000 0.127724
0.897647 0.990000 0.127724
1.030000 0.990000 0.127724
0.000000 0.000000 0.250192
0.120964 0.000000 0.250192
0.247011 0.000000 0.250192
0.375050 0.000000 0.250192
0.504401 0.000000 0.250192
0.634737 0.000000 0.250192
0.765862 0.000000 0.250192
0.897647 0.000000 0.250192
1.030000 0.000000 0.250192
0.000000 0.123750 0.250192
0.120964 0.123750 0.250192
0.247011 0.123750 0.250192
0.375050 0.123750 0.250192
0.504401 0.123750 0.250192
0.634737 0.123750 0.250192
0.765862 0.123750 0.250192
0.897647 0.123750 0.250192
1.030000 0.123750 0.250192
0.000000 0.247500 0.250192
0.120964 0.247500 0.250192
0.247011 0.247500 0.250192
0.375050 0.247500 0.250192
0.504401 0.247500 0.250192
0.634737 0.247500 0.250192
0.765862 0.247500 0.250192
0.897647 0.247500 0.250192
1.030000 0.247500 0.250192
0.000000 0.371250 0.250192
0.120964 0.371250 0.250192
0.247011 0.371250 0.250192
0.375050 0.371250 0.250192
0.504401 0.371250 0.250192
0.634737 0.371250 0.250192
0.765862 0.371250 0.250192
0.897647 0.371250 0.250192
1.030000 0.371250 0.250192
0.000000 0.495000 0.250192
0.120964 0.495000 0.250192
0.247011 0.495000 0.250192
0.375050 0.495000 0.250192
0.504401 0.495000 0.250192
0.634737 0.495000 0.250192
0.765862 0.495000 0.250192
0.897647 0.495000 0.250192
1.030000 0.495000 0.250192
0.000000 0.618750 0.250192
0.120964 0.618750 0.250192
0.247011 0.618750 0.250192
0.375050 0.618750 0.250192
0.504401 0.618750 0.250192
0.634737 0.618750 0.250192
0.765862 0.618750 0.250192
0.897647 0.618750 0.250192
1.030000 0.618750 0.250192
0.000000 0.742500 0.250192
0.120964 0.742500 0.250192
0.247011 0.742500 0.250192
0.375050 0.742500 0.250192
0.504401 0.742500 0.250192
0.634737 0.742500 0.250192
0.765862 0.742500 0.250192
0.897647 0.742500 0.250192
1.030000 0.742500 0.250192
0.000000 0.866250 0.250192
0.120964 0.866250 0.250192
0.247011 0.866250 0.250192
0.375050 0.866250 0.250192
0.504401 0.866250 0.250192
0.634737 0.866250 0.250192
0.765862 0.866250 0.250192
0.897647 0.866250 0.250192
1.030000 0.866250 0.250192
0.000000 0.990000 0.250192
0.120964 0.990000 0.250192
0.247011 0.990000 0.250192
0.375050 0.990000 0.250192
0.504401 0.990000 0.250192
0.634737 0.990000 0.250192
0.765862 0.990000 0.250192
0.897647 0.990000 0.250192
1.030000 0.990000 0.250192
0.000000 0.000000 0.370750
0.120964 0.000000 0.370750
0.247011 0.000000 0.370750
0.375050 0.000000 0.370750
0.504401 0.000000 0.370750
0.634737 0.000000 0.370750
0.765862 0.000000 0.370750
0.897647 0.000000 0.370750
1.030000 0.000000 0.370750
0.000000 0.123750 0.370750
0.120964 0.123750 0.370750
0.247011 0.123750 0.370750
0.375050 0.123750 0.370750
0.504401 0.123750 0.370750
0.634737 0.123750 0.370750
0.765862 0.123750 0.370750
0.897647 0.123750 0.370750
1.030000 0.123750 0.370750
0.000000 0.247500 0.370750
0.120964 0.247500 0.370750
0.247011 0.247500 0.370750
0.375050 0.247500 0.370750
0.504401 0.247500 0.370750
0.634737 0.247500 0.370750
0.765862 0.247500 0.370750
0.897647 0.247500 0.370750
1.030000 0.247500 0.370750
0.000000 0.371250 0.370750
0.120964 0.371250 0.370750
0.247011 0.371250 0.370750
0.375050 0.371250 0.370750
0.504401 0.371250 0.370750
0.634737 0.371250 0.370750
0.765862 0.371250 0.370750
0.897647 0.371250 0.370750
1.030000 0.371250 0.370750
0.000000 0.495000 0.370750
0.120964 0.495000 0.370750
0.247011 0.495000 0.370750
0.375050 0.495000 0.370750
0.504401 0.495000 0.370750
0.634737 0.495000 0.370750
0.765862 0.495000 0.370750
0.897647 0.495000 0.370750
1.030000 0.495000 0.370750
0.000000 0.618750 0.370750
0.120964 0.618750 0.370750
0.247011 0.618750 0.370750
0.375050 0.618750 0.370750
0.504401 0.618750 0.370750
0.634737 0.618750 0.370750
0.765862 0.618750 0.370750
0.897647 0.618750 0.370750
1.030000 0.618750 0.370750
0.000000 0.742500 0.370750
0.120964 0.742500 0.370750
0.247011 0.742500 0.370750
0.375050 0.742500 0.370750
0.504401 0.742500 0.370750
0.634737 0.742500 0.370750
0.765862 0.742500 0.370750
0.897647 0.742500 0.370750
1.030000 0.742500 0.370750
0.000000 0.866250 0.370750
0.120964 0.866250 0.370750
0.247011 0.866250 0.370750
0.375050 0.866250 0.370750
0.504401 0.866250 0.370750
0.634737 0.866250 0.370750
0.765862 0.866250 0.370750
0.897647 0.866250 0.370750
1.030000 0.866250 0.370750
0.000000 0.990000 0.370750
0.120964 0.990000 0.370750
0.247011 0.990000 0.370750
0.375050 0.990000 0.370750
0.504401 0.990000 0.370750
0.634737 0.990000 0.370750
0.765862 0.990000 0.370750
0.897647 0.990000 0.370750
1.030000 0.990000 0.370750
0.000000 0.000000 0.490086
0.120964 0.000000 0.490086
0.247011 0.000000 0.490086
0.375050 0.000000 0.490086
0.504401 0.000000 0.490086
0.634737 0.000000 0.490086
0.765862 0.000000 0.490086
0.897647 0.000000 0.490086
1.030000 0.000000 0.490086
0.000000 0.123750 0.490086
0.120964 0.123750 0.490086
0.247011 0.123750 0.490086
0.375050 0.123750 0.490086
0.504401 0.123750 0.490086
0.634737 0.123750 0.490086
0.765862 0.123750 0.490086
0.897647 0.123750 0.490086
1.030000 0.123750 0.490086
0.000000 0.247500 0.490086
0.120964 0.247500 0.490086
0.247011 0.247500 0.490086
0.375050 0.247500 0.490086
0.504401 0.247500 0.490086
0.634737 0.247500 0.490086
0.765862 0.247500 0.490086
0.897647 0.247500 0.490086
1.030000 0.247500 0.490086
0.000000 0.371250 0.490086
0.120964 0.371250 0.490086
0.247011 0.371250 0.490086
0.375050 0.371250 0.490086
0.504401 0.371250 0.490086
0.634737 0.371250 0.490086
0.765862 0.371250 0.490086
0.897647 0.371250 0.490086
1.030000 0.371250 0.490086
0.000000 0.495000 0.490086
0.120964 0.495000 0.490086
0.247011 0.495000 0.490086
0.375050 0.495000 0.490086
0.504401 0.495000 0.490086
0.634737 0.495000 0.490086
0.765862 0.495000 0.490086
0.897647 0.495000 0.490086
1.030000 0.495000 0.490086
0.000000 0.618750 0.490086
0.120964 0.618750 0.490086
0.247011 0.618750 0.490086
0.375050 0.618750 0.490086
0.504401 0.618750 0.490086
0.634737 0.618750 0.490086
0.765862 0.618750 0.490086
0.897647 0.618750 0.490086
1.030000 0.618750 0.490086
0.000000 0.742500 0.490086
0.120964 0.742500 0.490086
0.247011 0.742500 0.490086
0.375050 0.742500 0.490086
0.504401 0.742500 0.490086
0.634737 0.742500 0.490086
0.765862 0.742500 0.490086
0.897647 0.742500 0.490086
1.030000 0.742500 0.490086
0.000000 0.866250 0.490086
0.120964 0.866250 0.490086
0.247011 0.866250 0.490086
0.375050 0.866250 0.490086
0.504401 0.866250 0.490086
0.634737 0.866250 0.490086
0.765862 0.866250 0.490086
0.897647 0.866250 0.490086
1.030000 0.866250 0.490086
0.000000 0.990000 0.490086
0.120964 0.990000 0.490086
0.247011 0.990000 0.490086
0.375050 0.990000 0.490086
0.504401 0.990000 0.490086
0.634737 0.990000 0.490086
0.765862 0.990000 0.490086
0.897647 0.990000 0.490086
1.030000 0.990000 0.490086
0.000000 0.000000 0.608520
0.120964 0.000000 0.608520
0.247011 0.000000 0.608520
0.375050 0.000000 0.608520
0.504401 0.000000 0.608520
0.634737 0.000000 0.608520
0.765862 0.000000 0.608520
0.897647 0.000000 0.608520
1.030000 0.000000 0.608520
0.000000 0.123750 0.608520
0.120964 0.123750 0.608520
0.247011 0.123750 0.608520
0.375050 0.123750 0.608520
0.504401 0.123750 0.608520
0.634737 0.123750 0.608520
0.765862 0.123750 0.608520
0.897647 0.123750 0.608520
1.030000 0.123750 0.608520
0.000000 0.247500 0.608520
0.120964 0.247500 0.608520
0.247011 0.247500 0.608520
0.375050 0.247500 0.608520
0.504401 0.247500 0.608520
0.634737 0.247500 0.608520
0.765862 0.247500 0.608520
0.897647 0.247500 0.608520
1.030000 0.247500 0.608520
0.000000 0.371250 0.608520
0.120964 0.371250 0.608520
0.247011 0.371250 0.608520
0.375050 0.371250 0.608520
0.504401 0.371250 0.608520
0.634737 0.371250 0.608520
0.765862 0.371250 0.608520
0.897647 0.371250 0.608520
1.030000 0.371250 0.608520
0.000000 0.495000 0.608520
0.120964 0.495000 0.608520
0.247011 0.495000 0.608520
0.375050 0.495000 0.608520
0.504401 0.495000 0.608520
0.634737 0.495000 0.608520
0.765862 0.495000 0.608520
0.897647 0.495000 0.608520
1.030000 0.495000 0.608520
0.000000 0.618750 0.608520
0.120964 0.618750 0.608520
0.247011 0.618750 0.608520
0.375050 0.618750 0.608520
0.504401 0.618750 0.608520
0.634737 0.618750 0.608520
0.765862 0.618750 0.608520
0.897647 0.618750 0.608520
1.030000 0.618750 0.608520
0.000000 0.742500 0.608520
0.120964 0.742500 0.608520
0.247011 0.742500 0.608520
0.375050 0.742500 0.608520
0.504401 0.742500 0.608520
0.634737 0.742500 0.608520
0.765862 0.742500 0.608520
0.897647 0.742500 0.608520
1.030000 0.742500 0.608520
0.000000 0.866250 0.608520
0.120964 0.866250 0.608520
0.247011 0.866250 0.608520
0.375050 0.866250 0.608520
0.504401 0.866250 0.608520
0.634737 0.866250 0.608520
0.765862 0.866250 0.608520
0.897647 0.866250 0.608520
1.030000 0.866250 0.608520
0.000000 0.990000 0.608520
0.120964 0.990000 0.608520
0.247011 0.990000 0.608520
0.375050 0.990000 0.608520
0.504401 0.990000 0.608520
0.634737 0.990000 0.608520
0.765862 0.990000 0.608520
0.897647 0.990000 0.608520
1.030000 0.990000 0.608520
0.000000 0.000000 0.726241
0.120964 0.000000 0.726241
0.247011 0.000000 0.726241
0.375050 0.000000 0.726241
0.504401 0.000000 0.726241
0.634737 0.000000 0.726241
0.765862 0.000000 0.726241
0.897647 0.000000 0.726241
1.030000 0.000000 0.726241
0.000000 0.123750 0.726241
0.120964 0.123750 0.726241
0.247011 0.123750 0.726241
0.375050 0.123750 0.726241
0.504401 0.123750 0.726241
0.634737 0.123750 0.726241
0.765862 0.123750 0.726241
0.897647 0.123750 0.726241
1.030000 0.123750 0.726241
0.000000 0.247500 0.726241
0.120964 0.247500 0.726241
0.247011 0.247500 0.726241
0.375050 0.247500 0.726241
0.504401 0.247500 0.726241
0.634737 0.247500 0.726241
0.765862 0.247500 0.726241
0.897647 0.247500 0.726241
1.030000 0.247500 0.726241
0.000000 0.371250 0.726241
0.120964 0.371250 0.726241
0.247011 0.371250 0.726241
0.375050 0.371250 0.726241
0.504401 0.371250 0.726241
0.634737 0.371250 0.726241
0.765862 0.371250 0.726241
0.897647 0.371250 0.726241
1.030000 0.371250 0.726241
0.000000 0.495000 0.726241
0.120964 0.495000 0.726241
0.247011 0.495000 0.726241
0.375050 0.495000 0.726241
0.504401 0.495000 0.726241
0.634737 0.495000 0.726241
0.765862 0.495000 0.726241
0.897647 0.495000 0.726241
1.030000 0.495000 0.726241
0.000000 0.618750 0.726241
0.120964 0.618750 0.726241
0.247011 0.618750 0.726241
0.375050 0.618750 0.726241
0.504401 0.618750 0.726241
0.634737 0.618750 0.726241
0.765862 0.618750 0.726241
0.897647 0.618750 0.726241
1.030000 0.618750 0.726241
0.000000 0.742500 0.726241
0.120964 0.742500 0.726241
0.247011 0.742500 0.726241
0.375050 0.742500 0.726241
0.504401 0.742500 0.726241
0.634737 0.742500 0.726241
0.765862 0.742500 0.726241
0.897647 0.742500 0.726241
1.030000 0.742500 0.726241
0.000000 0.866250 0.726241
0.120964 0.866250 0.726241
0.247011 0.866250 0.726241
0.375050 0.866250 0.726241
0.504401 0.866250 0.726241
0.634737 0.866250 0.726241
0.765862 0.866250 0.726241
0.897647 0.866250 0.726241
1.030000 0.866250 0.726241
0.000000 0.990000 0.726241
0.120964 0.990000 0.726241
0.247011 0.990000 0.726241
0.375050 0.990000 0.726241
0.504401 0.990000 0.726241
0.634737 0.990000 0.726241
0.765862 0.990000 0.726241
0.897647 0.990000 0.726241
1.030000 0.990000 0.726241
0.000000 0.000000 0.843372
0.120964 0.000000 0.843372
0.247011 0.000000 0.843372
0.375050 0.000000 0.843372
0.504401 0.000000 0.843372
0.634737 0.000000 0.843372
0.765862 0.000000 0.843372
0.897647 0.000000 0.843372
1.030000 0.000000 0.843372
0.000000 0.123750 0.843372
0.120964 0.123750 0.843372
0.247011 0.123750 0.843372
0.375050 0.123750 0.843372
0.504401 0.123750 0.843372
0.634737 0.123750 0.843372
0.765862 0.123750 0.843372
0.897647 0.123750 0.843372
1.030000 0.123750 0.843372
0.000000 0.247500 0.843372
0.120964 0.247500 0.843372
0.247011 0.247500 0.843372
0.375050 0.247500 0.843372
0.504401 0.247500 0.843372
0.634737 0.247500 0.843372
0.765862 0.247500 0.843372
0.897647 0.247500 0.843372
1.030000 0.247500 0.843372
0.000000 0.371250 0.843372
0.120964 0.371250 0.843372
0.247011 0.371250 0.843372
0.375050 0.371250 0.843372
0.504401 0.371250 0.843372
0.634737 0.371250 0.843372
0.765862 0.371250 0.843372
0.897647 0.371250 0.843372
1.030000 0.371250 0.843372
0.000000 0.495000 0.843372
0.120964 0.495000 0.843372
0.247011 0.495000 0.843372
0.375050 0.495000 0.843372
0.504401 0.495000 0.843372
0.634737 0.495000 0.843372
0.765862 0.495000 0.843372
0.897647 0.495000 0.843372
1.030000 0.495000 0.843372
0.000000 0.618750 0.843372
0.120964 0.618750 0.843372
0.247011 0.618750 0.843372
0.375050 0.618750 0.843372
0.504401 0.618750 0.843372
0.634737 0.618750 0.843372
0.765862 0.618750 0.843372
0.897647 0.618750 0.843372
1.030000 0.618750 0.843372
0.000000 0.742500 0.843372
0.120964 0.742500 0.843372
0.247011 0.742500 0.843372
0.375050 0.742500 0.843372
0.504401 0.742500 0.843372
0.634737 0.742500 0.843372
0.765862 0.742500 0.843372
0.897647 0.742500 0.843372
1.030000 0.742500 0.843372
0.000000 0.866250 0.843372
0.120964 0.866250 0.843372
0.247011 0.866250 0.843372
0.375050 0.866250 0.843372
0.504401 0.866250 0.843372
0.634737 0.866250 0.843372
0.765862 0.866250 0.843372
0.897647 0.866250 0.843372
1.030000 0.866250 0.843372
0.000000 0.990000 0.843372
0.120964 0.990000 0.843372
0.247011 0.990000 0.843372
0.375050 0.990000 0.843372
0.504401 0.990000 0.843372
0.634737 0.990000 0.843372
0.765862 0.990000 0.843372
0.897647 0.990000 0.843372
1.030000 0.990000 0.843372
0.000000 0.000000 0.960000
0.120964 0.000000 0.960000
0.247011 0.000000 0.960000
0.375050 0.000000 0.960000
0.504401 0.000000 0.960000
0.634737 0.000000 0.960000
0.765862 0.000000 0.960000
0.897647 0.000000 0.960000
1.030000 0.000000 0.960000
0.000000 0.123750 0.960000
0.120964 0.123750 0.960000
0.247011 0.123750 0.960000
0.375050 0.123750 0.960000
0.504401 0.123750 0.960000
0.634737 0.123750 0.960000
0.765862 0.123750 0.960000
0.897647 0.123750 0.960000
1.030000 0.123750 0.960000
0.000000 0.247500 0.960000
0.120964 0.247500 0.960000
0.247011 0.247500 0.960000
0.375050 0.247500 0.960000
0.504401 0.247500 0.960000
0.634737 0.247500 0.960000
0.765862 0.247500 0.960000
0.897647 0.247500 0.960000
1.030000 0.247500 0.960000
0.000000 0.371250 0.960000
0.120964 0.371250 0.960000
0.247011 0.371250 0.960000
0.375050 0.371250 0.960000
0.504401 0.371250 0.960000
0.634737 0.371250 0.960000
0.765862 0.371250 0.960000
0.897647 0.371250 0.960000
1.030000 0.371250 0.960000
0.000000 0.495000 0.960000
0.120964 0.495000 0.960000
0.247011 0.495000 0.960000
0.375050 0.495000 0.960000
0.504401 0.495000 0.960000
0.634737 0.495000 0.960000
0.765862 0.495000 0.960000
0.897647 0.495000 0.960000
1.030000 0.495000 0.960000
0.000000 0.618750 0.960000
0.120964 0.618750 0.960000
0.247011 0.618750 0.960000
0.375050 0.618750 0.960000
0.504401 0.618750 0.960000
0.634737 0.618750 0.960000
0.765862 0.618750 0.960000
0.897647 0.618750 0.960000
1.030000 0.618750 0.960000
0.000000 0.742500 0.960000
0.120964 0.742500 0.960000
0.247011 0.742500 0.960000
0.375050 0.742500 0.960000
0.504401 0.742500 0.960000
0.634737 0.742500 0.960000
0.765862 0.742500 0.960000
0.897647 0.742500 0.960000
1.030000 0.742500 0.960000
0.000000 0.866250 0.960000
0.120964 0.866250 0.960000
0.247011 0.866250 0.960000
0.375050 0.866250 0.960000
0.504401 0.866250 0.960000
0.634737 0.866250 0.960000
0.765862 0.866250 0.960000
0.897647 0.866250 0.960000
1.030000 0.866250 0.960000
0.000000 0.990000 0.960000
0.120964 0.990000 0.960000
0.247011 0.990000 0.960000
0.375050 0.990000 0.960000
0.504401 0.990000 0.960000
0.634737 0.990000 0.960000
0.765862 0.990000 0.960000
0.897647 0.990000 0.960000
1.030000 0.990000 0.960000
