public/assets/luts/b02_continental.cube
TITLE "b02_continental"
LUT_3D_SIZE 17
DOMAIN_MIN 0 0 0
DOMAIN_MAX 1 1 1
0.000000 0.000000 0.000000
0.059237 0.000000 0.000000
0.120964 0.000000 0.000000
0.183666 0.000000 0.000000
0.247011 0.000000 0.000000
0.310837 0.000000 0.000000
0.375050 0.000000 0.000000
0.439587 0.000000 0.000000
0.504401 0.000000 0.000000
0.569460 0.000000 0.000000
0.634737 0.000000 0.000000
0.700210 0.000000 0.000000
0.765862 0.000000 0.000000
0.831678 0.000000 0.000000
0.897647 0.000000 0.000000
0.963757 0.000000 0.000000
1.030000 0.000000 0.000000
0.000000 0.061875 0.000000
0.059237 0.061875 0.000000
0.120964 0.061875 0.000000
0.183666 0.061875 0.000000
0.247011 0.061875 0.000000
0.310837 0.061875 0.000000
0.375050 0.061875 0.000000
0.439587 0.061875 0.000000
0.504401 0.061875 0.000000
0.569460 0.061875 0.000000
0.634737 0.061875 0.000000
0.700210 0.061875 0.000000
0.765862 0.061875 0.000000
0.831678 0.061875 0.000000
0.897647 0.061875 0.000000
0.963757 0.061875 0.000000
1.030000 0.061875 0.000000
0.000000 0.123750 0.000000
0.059237 0.123750 0.000000
0.120964 0.123750 0.000000
0.183666 0.123750 0.000000
0.247011 0.123750 0.000000
0.310837 0.123750 0.000000
0.375050 0.123750 0.000000
0.439587 0.123750 0.000000
0.504401 0.123750 0.000000
0.569460 0.123750 0.000000
0.634737 0.123750 0.000000
0.700210 0.123750 0.000000
0.765862 0.123750 0.000000
0.831678 0.123750 0.000000
0.897647 0.123750 0.000000
0.963757 0.123750 0.000000
1.030000 0.123750 0.000000
0.000000 0.185625 0.000000
0.059237 0.185625 0.000000
0.120964 0.185625 0.000000
0.183666 0.185625 0.000000
0.247011 0.185625 0.000000
0.310837 0.185625 0.000000
0.375050 0.185625 0.000000
0.439587 0.185625 0.000000
0.504401 0.185625 0.000000
0.569460 0.185625 0.000000
0.634737 0.185625 0.000000
0.700210 0.185625 0.000000
0.765862 0.185625 0.000000
0.831678 0.185625 0.000000
0.897647 0.185625 0.000000
0.963757 0.185625 0.000000
1.030000 0.185625 0.000000
0.000000 0.247500 0.000000
0.059237 0.247500 0.000000
0.120964 0.247500 0.000000
0.183666 0.247500 0.000000
0.247011 0.247500 0.000000
0.310837 0.247500 0.000000
0.375050 0.247500 0.000000
0.439587 0.247500 0.000000
0.504401 0.247500 0.000000
0.569460 0.247500 0.000000
0.634737 0.247500 0.000000
0.700210 0.247500 0.000000
0.765862 0.247500 0.000000
0.831678 0.247500 0.000000
0.897647 0.247500 0.000000
0.963757 0.247500 0.000000
1.030000 0.247500 0.000000
0.000000 0.309375 0.000000
0.059237 0.309375 0.000000
0.120964 0.309375 0.000000
0.183666 0.309375 0.000000
0.247011 0.309375 0.000000
0.310837 0.309375 0.000000
0.375050 0.309375 0.000000
0.439587 0.309375 0.000000
0.504401 0.309375 0.000000
0.569460 0.309375 0.000000
0.634737 0.309375 0.000000
0.700210 0.309375 0.000000
0.765862 0.309375 0.000000
0.831678 0.309375 0.000000
0.897647 0.309375 0.000000
0.963757 0.309375 0.000000
1.030000 0.309375 0.000000
0.000000 0.371250 0.000000
0.059237 0.371250 0.000000
0.120964 0.371250 0.000000
0.183666 0.371250 0.000000
0.247011 0.371250 0.000000
0.310837 0.371250 0.000000
0.375050 0.371250 0.000000
0.439587 0.371250 0.000000
0.504401 0.371250 0.000000
0.569460 0.371250 0.000000
0.634737 0.371250 0.000000
0.700210 0.371250 0.000000
0.765862 0.371250 0.000000
0.831678 0.371250 0.000000
0.897647 0.371250 0.000000
0.963757 0.371250 0.000000
1.030000 0.371250 0.000000
0.000000 0.433125 0.000000
0.059237 0.433125 0.000000
0.120964 0.433125 0.000000
0.183666 0.433125 0.000000
0.247011 0.433125 0.000000
0.310837 0.433125 0.000000
0.375050 0.433125 0.000000
0.439587 0.433125 0.000000
0.504401 0.433125 0.000000
0.569460 0.433125 0.000000
0.634737 0.433125 0.000000
0.700210 0.433125 0.000000
0.765862 0.433125 0.000000
0.831678 0.433125 0.000000
0.897647 0.433125 0.000000
0.963757 0.433125 0.000000
1.030000 0.433125 0.000000
0.000000 0.495000 0.000000
0.059237 0.495000 0.000000
0.120964 0.495000 0.000000
0.183666 0.495000 0.000000
0.247011 0.495000 0.000000
0.310837 0.495000 0.000000
0.375050 0.495000 0.000000
0.439587 0.495000 0.000000
0.504401 0.495000 0.000000
0.569460 0.495000 0.000000
0.634737 0.495000 0.000000
0.700210 0.495000 0.000000
0.765862 0.495000 0.000000
0.831678 0.495000 0.000000
0.897647 0.495000 0.000000
0.963757 0.495000 0.000000
1.030000 0.495000 0.000000
0.000000 0.556875 0.000000
0.059237 0.556875 0.000000
0.120964 0.556875 0.000000
0.183666 0.556875 0.000000
0.247011 0.556875 0.000000
0.310837 0.556875 0.000000
0.375050 0.556875 0.000000
0.439587 0.556875 0.000000
0.504401 0.556875 0.000000
0.569460 0.556875 0.000000
0.634737 0.556875 0.000000
0.700210 0.556875 0.000000
0.765862 0.556875 0.000000
0.831678 0.556875 0.000000
0.897647 0.556875 0.000000
0.963757 0.556875 0.000000
1.030000 0.556875 0.000000
0.000000 0.618750 0.000000
0.059237 0.618750 0.000000
0.120964 0.618750 0.000000
0.183666 0.618750 0.000000
0.247011 0.618750 0.000000
0.310837 0.618750 0.000000
0.375050 0.618750 0.000000
0.439587 0.618750 0.000000
0.504401 0.618750 0.000000
0.569460 0.618750 0.000000
0.634737 0.618750 0.000000
0.700210 0.618750 0.000000
0.765862 0.618750 0.000000
0.831678 0.618750 0.000000
0.897647 0.618750 0.000000
0.963757 0.618750 0.000000
1.030000 0.618750 0.000000
0.000000 0.680625 0.000000
0.059237 0.680625 0.000000
0.120964 0.680625 0.000000
0.183666 0.680625 0.000000
0.247011 0.680625 0.000000
0.310837 0.680625 0.000000
0.375050 0.680625 0.000000
0.439587 0.680625 0.000000
0.504401 0.680625 0.000000
0.569460 0.680625 0.000000
0.634737 0.680625 0.000000
0.700210 0.680625 0.000000
0.765862 0.680625 0.000000
0.831678 0.680625 0.000000
0.897647 0.680625 0.000000
0.963757 0.680625 0.000000
1.030000 0.680625 0.000000
0.000000 0.742500 0.000000
0.059237 0.742500 0.000000
0.120964 0.742500 0.000000
0.183666 0.742500 0.000000
0.247011 0.742500 0.000000
0.310837 0.742500 0.000000
0.375050 0.742500 0.000000
0.439587 0.742500 0.000000
0.504401 0.742500 0.000000
0.569460 0.742500 0.000000
0.634737 0.742500 0.000000
0.700210 0.742500 0.000000
0.765862 0.742500 0.000000
0.831678 0.742500 0.000000
0.897647 0.742500 0.000000
0.963757 0.742500 0.000000
1.030000 0.742500 0.000000
0.000000 0.804375 0.000000
0.059237 0.804375 0.000000
0.120964 0.804375 0.000000
0.183666 0.804375 0.000000
0.247011 0.804375 0.000000
0.310837 0.804375 0.000000
0.375050 0.804375 0.000000
0.439587 0.804375 0.000000
0.504401 0.804375 0.000000
0.569460 0.804375 0.000000
0.634737 0.804375 0.000000
0.700210 0.804375 0.000000
0.765862 0.804375 0.000000
0.831678 0.804375 0.000000
0.897647 0.804375 0.000000
0.963757 0.804375 0.000000
1.030000 0.804375 0.000000
0.000000 0.866250 0.000000
0.059237 0.866250 0.000000
0.120964 0.866250 0.000000
0.183666 0.866250 0.000000
0.247011 0.866250 0.000000
0.310837 0.866250 0.000000
0.375050 0.866250 0.000000
0.439587 0.866250 0.000000
0.504401 0.866250 0.000000
0.569460 0.866250 0.000000
0.634737 0.866250 0.000000
0.700210 0.866250 0.000000
0.765862 0.866250 0.000000
0.831678 0.866250 0.000000
0.897647 0.866250 0.000000
0.963757 0.866250 0.000000
1.030000 0.866250 0.000000
0.000000 0.928125 0.000000
0.059237 0.928125 0.000000
0.120964 0.928125 0.000000
0.183666 0.928125 0.000000
0.247011 0.928125 0.000000
0.310837 0.928125 0.000000
0.375050 0.928125 0.000000
0.439587 0.928125 0.000000
0.504401 0.928125 0.000000
0.569460 0.928125 0.000000
0.634737 0.928125 0.000000
0.700210 0.928125 0.000000
0.765862 0.928125 0.000000
0.831678 0.928125 0.000000
0.897647 0.928125 0.000000
0.963757 0.928125 0.000000
1.030000 0.928125 0.000000
0.000000 0.990000 0.000000
0.059237 0.990000 0.000000
0.120964 0.990000 0.000000
0.183666 0.990000 0.000000
0.247011 0.990000 0.000000
0.310837 0.990000 0.000000
0.375050 0.990000 0.000000
0.439587 0.990000 0.000000
0.504401 0.990000 0.000000
0.569460 0.990000 0.000000
0.634737 0.990000 0.000000
0.700210 0.990000 0.000000
0.765862 0.990000 0.000000
0.831678 0.990000 0.000000
0.897647 0.990000 0.000000
0.963757 0.990000 0.000000
1.030000 0.990000 0.000000
0.000000 0.000000 0.065204
0.059237 0.000000 0.065204
0.120964 0.000000 0.065204
0.183666 0.000000 0.065204
0.247011 0.000000 0.065204
0.310837 0.000000 0.065204
0.375050 0.000000 0.065204
0.439587 0.000000 0.065204
0.504401 0.000000 0.065204
0.569460 0.000000 0.065204
0.634737 0.000000 0.065204
0.700210 0.000000 0.065204
0.765862 0.000000 0.065204
0.831678 0.000000 0.065204
0.897647 0.000000 0.065204
0.963757 0.000000 0.065204
1.030000 0.000000 0.065204
0.000000 0.061875 0.065204
0.059237 0.061875 0.065204
0.120964 0.061875 0.065204
0.183666 0.061875 0.065204
0.247011 0.061875 0.065204
0.310837 0.061875 0.065204
0.375050 0.061875 0.065204
0.439587 0.061875 0.065204
0.504401 0.061875 0.065204
0.569460 0.061875 0.065204
0.634737 0.061875 0.065204
0.700210 0.061875 0.065204
0.765862 0.061875 0.065204
0.831678 0.061875 0.065204
0.897647 0.061875 0.065204
0.963757 0.061875 0.065204
1.030000 0.061875 0.065204
0.000000 0.123750 0.065204
0.059237 0.123750 0.065204
0.120964 0.123750 0.065204
0.183666 0.123750 0.065204
0.247011 0.123750 0.065204
0.310837 0.123750 0.065204
0.375050 0.123750 0.065204
0.439587 0.123750 0.065204
0.504401 0.123750 0.065204
0.569460 0.123750 0.065204
0.634737 0.123750 0.065204
0.700210 0.123750 0.065204
0.765862 0.123750 0.065204
0.831678 0.123750 0.065204
0.897647 0.123750 0.065204
0.963757 0.123750 0.065204
1.030000 0.123750 0.065204
0.000000 0.185625 0.065204
0.059237 0.185625 0.065204
0.120964 0.185625 0.065204
0.183666 0.185625 0.065204
0.247011 0.185625 0.065204
0.310837 0.185625 0.065204
0.375050 0.185625 0.065204
0.439587 0.185625 0.065204
0.504401 0.185625 0.065204
0.569460 0.185625 0.065204
0.634737 0.185625 0.065204
0.700210 0.185625 0.065204
0.765862 0.185625 0.065204
0.831678 0.185625 0.065204
0.897647 0.185625 0.065204
0.963757 0.185625 0.065204
1.030000 0.185625 0.065204
0.000000 0.247500 0.065204
0.059237 0.247500 0.065204
0.120964 0.247500 0.065204
0.183666 0.247500 0.065204
0.247011 0.247500 0.065204
0.310837 0.247500 0.065204
0.375050 0.247500 0.065204
0.439587 0.247500 0.065204
0.504401 0.247500 0.065204
0.569460 0.247500 0.065204
0.634737 0.247500 0.065204
0.700210 0.247500 0.065204
0.765862 0.247500 0.065204
0.831678 0.247500 0.065204
0.897647 0.247500 0.065204
0.963757 0.247500 0.065204
1.030000 0.247500 0.065204
0.000000 0.309375 0.065204
0.059237 0.309375 0.065204
0.120964 0.309375 0.065204
0.183666 0.309375 0.065204
0.247011 0.309375 0.065204
0.310837 0.309375 0.065204
0.375050 0.309375 0.065204
0.439587 0.309375 0.065204
0.504401 0.309375 0.065204
0.569460 0.309375 0.065204
0.634737 0.309375 0.065204
0.700210 0.309375 0.065204
0.765862 0.309375 0.065204
0.831678 0.309375 0.065204
0.897647 0.309375 0.065204
0.963757 0.309375 0.065204
1.030000 0.309375 0.065204
0.000000 0.371250 0.065204
0.059237 0.371250 0.065204
0.120964 0.371250 0.065204
0.183666 0.371250 0.065204
0.247011 0.371250 0.065204
0.310837 0.371250 0.065204
0.375050 0.371250 0.065204
0.439587 0.371250 0.065204
0.504401 0.371250 0.065204
0.569460 0.371250 0.065204
0.634737 0.371250 0.065204
0.700210 0.371250 0.065204
0.765862 0.371250 0.065204
0.831678 0.371250 0.065204
0.897647 0.371250 0.065204
0.963757 0.371250 0.065204
1.030000 0.371250 0.065204
0.000000 0.433125 0.065204
0.059237 0.433125 0.065204
0.120964 0.433125 0.065204
0.183666 0.433125 0.065204
0.247011 0.433125 0.065204
0.310837 0.433125 0.065204
0.375050 0.433125 0.065204
0.439587 0.433125 0.065204
0.504401 0.433125 0.065204
0.569460 0.433125 0.065204
0.634737 0.433125 0.065204
0.700210 0.433125 0.065204
0.765862 0.433125 0.065204
0.831678 0.433125 0.065204
0.897647 0.433125 0.065204
0.963757 0.433125 0.065204
1.030000 0.433125 0.065204
0.000000 0.495000 0.065204
0.059237 0.495000 0.065204
0.120964 0.495000 0.065204
0.183666 0.495000 0.065204
0.247011 0.495000 0.065204
0.310837 0.495000 0.065204
0.375050 0.495000 0.065204
0.439587 0.495000 0.065204
0.504401 0.495000 0.065204
0.569460 0.495000 0.065204
0.634737 0.495000 0.065204
0.700210 0.495000 0.065204
0.765862 0.495000 0.065204
0.831678 0.495000 0.065204
0.897647 0.495000 0.065204
0.963757 0.495000 0.065204
1.030000 0.495000 0.065204
0.000000 0.556875 0.065204
0.059237 0.556875 0.065204
0.120964 0.556875 0.065204
0.183666 0.556875 0.065204
0.247011 0.556875 0.065204
0.310837 0.556875 0.065204
0.375050 0.556875 0.065204
0.439587 0.556875 0.065204
0.504401 0.556875 0.065204
0.569460 0.556875 0.065204
0.634737 0.556875 0.065204
0.700210 0.556875 0.065204
0.765862 0.556875 0.065204
0.831678 0.556875 0.065204
0.897647 0.556875 0.065204
0.963757 0.556875 0.065204
1.030000 0.556875 0.065204
0.000000 0.618750 0.065204
0.059237 0.618750 0.065204
0.120964 0.618750 0.065204
0.183666 0.618750 0.065204
0.247011 0.618750 0.065204
0.310837 0.618750 0.065204
0.375050 0.618750 0.065204
0.439587 0.618750 0.065204
0.504401 0.618750 0.065204
0.569460 0.618750 0.065204
0.634737 0.618750 0.065204
0.700210 0.618750 0.065204
0.765862 0.618750 0.065204
0.831678 0.618750 0.065204
0.897647 0.618750 0.065204
0.963757 0.618750 0.065204
1.030000 0.618750 0.065204
0.000000 0.680625 0.065204
0.059237 0.680625 0.065204
0.120964 0.680625 0.065204
0.183666 0.680625 0.065204
0.247011 0.680625 0.065204
0.310837 0.680625 0.065204
0.375050 0.680625 0.065204
0.439587 0.680625 0.065204
0.504401 0.680625 0.065204
0.569460 0.680625 0.065204
0.634737 0.680625 0.065204
0.700210 0.680625 0.065204
0.765862 0.680625 0.065204
0.831678 0.680625 0.065204
0.897647 0.680625 0.065204
0.963757 0.680625 0.065204
1.030000 0.680625 0.065204
0.000000 0.742500 0.065204
0.059237 0.742500 0.065204
0.120964 0.742500 0.065204
0.183666 0.742500 0.065204
0.247011 0.742500 0.065204
0.310837 0.742500 0.065204
0.375050 0.742500 0.065204
0.439587 0.742500 0.065204
0.504401 0.742500 0.065204
0.569460 0.742500 0.065204
0.634737 0.742500 0.065204
0.700210 0.742500 0.065204
0.765862 0.742500 0.065204
0.831678 0.742500 0.065204
0.897647 0.742500 0.065204
0.963757 0.742500 0.065204
1.030000 0.742500 0.065204
0.000000 0.804375 0.065204
0.059237 0.804375 0.065204
0.120964 0.804375 0.065204
0.183666 0.804375 0.065204
0.247011 0.804375 0.065204
0.310837 0.804375 0.065204
0.375050 0.804375 0.065204
0.439587 0.804375 0.065204
0.504401 0.804375 0.065204
0.569460 0.804375 0.065204
0.634737 0.804375 0.065204
0.700210 0.804375 0.065204
0.765862 0.804375 0.065204
0.831678 0.804375 0.065204
0.897647 0.804375 0.065204
0.963757 0.804375 0.065204
1.030000 0.804375 0.065204
0.000000 0.866250 0.065204
0.059237 0.866250 0.065204
0.120964 0.866250 0.065204
0.183666 0.866250 0.065204
0.247011 0.866250 0.065204
0.310837 0.866250 0.065204
0.375050 0.866250 0.065204
0.439587 0.866250 0.065204
0.504401 0.866250 0.065204
0.569460 0.866250 0.065204
0.634737 0.866250 0.065204
0.700210 0.866250 0.065204
0.765862 0.866250 0.065204
0.831678 0.866250 0.065204
0.897647 0.866250 0.065204
0.963757 0.866250 0.065204
1.030000 0.866250 0.065204
0.000000 0.928125 0.065204
0.059237 0.928125 0.065204
0.120964 0.928125 0.065204
0.183666 0.928125 0.065204
0.247011 0.928125 0.065204
0.310837 0.928125 0.065204
0.375050 0.928125 0.065204
0.439587 0.928125 0.065204
0.504401 0.928125 0.065204
0.569460 0.928125 0.065204
0.634737 0.928125 0.065204
0.700210 0.928125 0.065204
0.765862 0.928125 0.065204
0.831678 0.928125 0.065204
0.897647 0.928125 0.065204
0.963757 0.928125 0.065204
1.030000 0.928125 0.065204
0.000000 0.990000 0.065204
0.059237 0.990000 0.065204
0.120964 0.990000 0.065204
0.183666 0.990000 0.065204
0.247011 0.990000 0.065204
0.310837 0.990000 0.065204
0.375050 0.990000 0.065204
0.439587 0.990000 0.065204
0.504401 0.990000 0.065204
0.569460 0.990000 0.065204
0.634737 0.990000 0.065204
0.700210 0.990000 0.065204
0.765862 0.990000 0.065204
0.831678 0.990000 0.065204
0.897647 0.990000 0.065204
0.963757 0.990000 0.065204
1.030000 0.990000 0.065204
0.000000 0.000000 0.127724
0.059237 0.000000 0.127724
0.120964 0.000000 0.127724
0.183666 0.000000 0.127724
0.247011 0.000000 0.127724
0.310837 0.000000 0.127724
0.375050 0.000000 0.127724
0.439587 0.000000 0.127724
0.504401 0.000000 0.127724
0.569460 0.000000 0.127724
0.634737 0.000000 0.127724
0.700210 0.000000 0.127724
0.765862 0.000000 0.127724
0.831678 0.000000 0.127724
0.897647 0.000000 0.127724
0.963757 0.000000 0.127724
1.030000 0.000000 0.127724
0.000000 0.061875 0.127724
0.059237 0.061875 0.127724
0.120964 0.061875 0.127724
0.183666 0.061875 0.127724
0.247011 0.061875 0.127724
0.310837 0.061875 0.127724
0.375050 0.061875 0.127724
0.439587 0.061875 0.127724
0.504401 0.061875 0.127724
0.569460 0.061875 0.127724
0.634737 0.061875 0.127724
0.700210 0.061875 0.127724
0.765862 0.061875 0.127724
0.831678 0.061875 0.127724
0.897647 0.061875 0.127724
0.963757 0.061875 0.127724
1.030000 0.061875 0.127724
0.000000 0.123750 0.127724
0.059237 0.123750 0.127724
0.120964 0.123750 0.127724
0.183666 0.123750 0.127724
0.247011 0.123750 0.127724
0.310837 0.123750 0.127724
0.375050 0.123750 0.127724
0.439587 0.123750 0.127724
0.504401 0.123750 0.127724
0.569460 0.123750 0.127724
0.634737 0.123750 0.127724
0.700210 0.123750 0.127724
0.765862 0.123750 0.127724
0.831678 0.123750 0.127724
0.897647 0.123750 0.127724
0.963757 0.123750 0.127724
1.030000 0.123750 0.127724
0.000000 0.185625 0.127724
0.059237 0.185625 0.127724
0.120964 0.185625 0.127724
0.183666 0.185625 0.127724
0.247011 0.185625 0.127724
0.310837 0.185625 0.127724
0.375050 0.185625 0.127724
0.439587 0.185625 0.127724
0.504401 0.185625 0.127724
0.569460 0.185625 0.127724
0.634737 0.185625 0.127724
0.700210 0.185625 0.127724
0.765862 0.185625 0.127724
0.831678 0.185625 0.127724
0.897647 0.185625 0.127724
0.963757 0.185625 0.127724
1.030000 0.185625 0.127724
0.000000 0.247500 0.127724
0.059237 0.247500 0.127724
0.120964 0.247500 0.127724
0.183666 0.247500 0.127724
0.247011 0.247500 0.127724
0.310837 0.247500 0.127724
0.375050 0.247500 0.127724
0.439587 0.247500 0.127724
0.504401 0.247500 0.127724
0.569460 0.247500 0.127724
0.634737 0.247500 0.127724
0.700210 0.247500 0.127724
0.765862 0.247500 0.127724
0.831678 0.247500 0.127724
0.897647 0.247500 0.127724
0.963757 0.247500 0.127724
1.030000 0.247500 0.127724
0.000000 0.309375 0.127724
0.059237 0.309375 0.127724
0.120964 0.309375 0.127724
0.183666 0.309375 0.127724
0.247011 0.309375 0.127724
0.310837 0.309375 0.127724
0.375050 0.309375 0.127724
0.439587 0.309375 0.127724
0.504401 0.309375 0.127724
0.569460 0.309375 0.127724
0.634737 0.309375 0.127724
0.700210 0.309375 0.127724
0.765862 0.309375 0.127724
0.831678 0.309375 0.127724
0.897647 0.309375 0.127724
0.963757 0.309375 0.127724
1.030000 0.309375 0.127724
0.000000 0.371250 0.127724
0.059237 0.371250 0.127724
0.120964 0.371250 0.127724
0.183666 0.371250 0.127724
0.247011 0.371250 0.127724
0.310837 0.371250 0.127724
0.375050 0.371250 0.127724
0.439587 0.371250 0.127724
0.504401 0.371250 0.127724
0.569460 0.371250 0.127724
0.634737 0.371250 0.127724
0.700210 0.371250 0.127724
0.765862 0.371250 0.127724
0.831678 0.371250 0.127724
0.897647 0.371250 0.127724
0.963757 0.371250 0.127724
1.030000 0.371250 0.127724
0.000000 0.433125 0.127724
0.059237 0.433125 0.127724
0.120964 0.433125 0.127724
0.183666 0.433125 0.127724
0.247011 0.433125 0.127724
0.310837 0.433125 0.127724
0.375050 0.433125 0.127724
0.439587 0.433125 0.127724
0.504401 0.433125 0.127724
0.569460 0.433125 0.127724
0.634737 0.433125 0.127724
0.700210 0.433125 0.127724
0.765862 0.433125 0.127724
0.831678 0.433125 0.127724
0.897647 0.433125 0.127724
0.963757 0.433125 0.127724
1.030000 0.433125 0.127724
0.000000 0.495000 0.127724
0.059237 0.495000 0.127724
0.120964 0.495000 0.127724
0.183666 0.495000 0.127724
0.247011 0.495000 0.127724
0.310837 0.495000 0.127724
0.375050 0.495000 0.127724
0.439587 0.495000 0.127724
0.504401 0.495000 0.127724
0.569460 0.495000 0.127724
0.634737 0.495000 0.127724
0.700210 0.495000 0.127724
0.765862 0.495000 0.127724
0.831678 0.495000 0.127724
0.897647 0.495000 0.127724
0.963757 0.495000 0.127724
1.030000 0.495000 0.127724
0.000000 0.556875 0.127724
0.059237 0.556875 0.127724
0.120964 0.556875 0.127724
0.183666 0.556875 0.127724
0.247011 0.556875 0.127724
0.310837 0.556875 0.127724
0.375050 0.556875 0.127724
0.439587 0.556875 0.127724
0.504401 0.556875 0.127724
0.569460 0.556875 0.127724
0.634737 0.556875 0.127724
0.700210 0.556875 0.127724
0.765862 0.556875 0.127724
0.831678 0.556875 0.127724
0.897647 0.556875 0.127724
0.963757 0.556875 0.127724
1.030000 0.556875 0.127724
0.000000 0.618750 0.127724
0.059237 0.618750 0.127724
0.120964 0.618750 0.127724
0.183666 0.618750 0.127724
0.247011 0.618750 0.127724
0.310837 0.618750 0.127724
0.375050 0.618750 0.127724
0.439587 0.618750 0.127724
0.504401 0.618750 0.127724
0.569460 0.618750 0.127724
0.634737 0.618750 0.127724
0.700210 0.618750 0.127724
0.765862 0.618750 0.127724
0.831678 0.618750 0.127724
0.897647 0.618750 0.127724
0.963757 0.618750 0.127724
1.030000 0.618750 0.127724
0.000000 0.680625 0.127724
0.059237 0.680625 0.127724
0.120964 0.680625 0.127724
0.183666 0.680625 0.127724
0.247011 0.680625 0.127724
0.310837 0.680625 0.127724
0.375050 0.680625 0.127724
0.439587 0.680625 0.127724
0.504401 0.680625 0.127724
0.569460 0.680625 0.127724
0.634737 0.680625 0.127724
0.700210 0.680625 0.127724
0.765862 0.680625 0.127724
0.831678 0.680625 0.127724
0.897647 0.680625 0.127724
0.963757 0.680625 0.127724
1.030000 0.680625 0.127724
0.000000 0.742500 0.127724
0.059237 0.742500 0.127724
0.120964 0.742500 0.127724
0.183666 0.742500 0.127724
0.247011 0.742500 0.127724
0.310837 0.742500 0.127724
0.375050 0.742500 0.127724
0.439587 0.742500 0.127724
0.504401 0.742500 0.127724
0.569460 0.742500 0.127724
0.634737 0.742500 0.127724
0.700210 0.742500 0.127724
0.765862 0.742500 0.127724
0.831678 0.742500 0.127724
0.897647 0.742500 0.127724
0.963757 0.742500 0.127724
1.030000 0.742500 0.127724
0.000000 0.804375 0.127724
0.059237 0.804375 0.127724
0.120964 0.804375 0.127724
0.183666 0.804375 0.127724
0.247011 0.804375 0.127724
0.310837 0.804375 0.127724
0.375050 0.804375 0.127724
0.439587 0.804375 0.127724
0.504401 0.804375 0.127724
0.569460 0.804375 0.127724
0.634737 0.804375 0.127724
0.700210 0.804375 0.127724
0.765862 0.804375 0.127724
0.831678 0.804375 0.127724
0.897647 0.804375 0.127724
0.963757 0.804375 0.127724
1.030000 0.804375 0.127724
0.000000 0.866250 0.127724
0.059237 0.866250 0.127724
0.120964 0.866250 0.127724
0.183666 0.866250 0.127724
0.247011 0.866250 0.127724
0.310837 0.866250 0.127724
0.375050 0.866250 0.127724
0.439587 0.866250 0.127724
0.504401 0.866250 0.127724
0.569460 0.866250 0.127724
0.634737 0.866250 0.127724
0.700210 0.866250 0.127724
0.765862 0.866250 0.127724
0.831678 0.866250 0.127724
0.897647 0.866250 0.127724
0.963757 0.866250 0.127724
1.030000 0.866250 0.127724
0.000000 0.928125 0.127724
0.059237 0.928125 0.127724
0.120964 0.928125 0.127724
0.183666 0.928125 0.127724
0.247011 0.928125 0.127724
0.310837 0.928125 0.127724
0.375050 0.928125 0.127724
0.439587 0.928125 0.127724
0.504401 0.928125 0.127724
0.569460 0.928125 0.127724
0.634737 0.928125 0.127724
0.700210 0.928125 0.127724
0.765862 0.928125 0.127724
0.831678 0.928125 0.127724
0.897647 0.928125 0.127724
0.963757 0.928125 0.127724
1.030000 0.928125 0.127724
0.000000 0.990000 0.127724
0.059237 0.990000 0.127724
0.120964 0.990000 0.127724
0.183666 0.990000 0.127724
0.247011 0.990000 0.127724
0.310837 0.990000 0.127724
0.375050 0.990000 0.127724
0.439587 0.990000 0.127724
0.504401 0.990000 0.127724
0.569460 0.990000 0.127724
0.634737 0.990000 0.127724
0.700210 0.990000 0.127724
0.765862 0.990000 0.127724
0.831678 0.990000 0.127724
0.897647 0.990000 0.127724
0.963757 0.990000 0.127724
1.030000 0.990000 0.127724
0.000000 0.000000 0.189270
0.059237 0.000000 0.189270
0.120964 0.000000 0.189270
0.183666 0.000000 0.189270
0.247011 0.000000 0.189270
0.310837 0.000000 0.189270
0.375050 0.000000 0.189270
0.439587 0.000000 0.189270
0.504401 0.000000 0.189270
0.569460 0.000000 0.189270
0.634737 0.000000 0.189270
0.700210 0.000000 0.189270
0.765862 0.000000 0.189270
0.831678 0.000000 0.189270
0.897647 0.000000 0.189270
0.963757 0.000000 0.189270
1.030000 0.000000 0.189270
0.000000 0.061875 0.189270
0.059237 0.061875 0.189270
