public/assets/luts/b03_nightclub.cube
TITLE "b03_nightclub"
LUT_3D_SIZE 9
DOMAIN_MIN 0 0 0
DOMAIN_MAX 1 1 1
0.000000 0.000000 0.000000
0.131533 0.000000 0.000000
0.268594 0.000000 0.000000
0.407822 0.000000 0.000000
0.548475 0.000000 0.000000
0.690199 0.000000 0.000000
0.832782 0.000000 0.000000
0.976082 0.000000 0.000000
1.120000 0.000000 0.000000
0.000000 0.115000 0.000000
0.131533 0.115000 0.000000
0.268594 0.115000 0.000000
0.407822 0.115000 0.000000
0.548475 0.115000 0.000000
0.690199 0.115000 0.000000
0.832782 0.115000 0.000000
0.976082 0.115000 0.000000
1.120000 0.115000 0.000000
0.000000 0.230000 0.000000
0.131533 0.230000 0.000000
0.268594 0.230000 0.000000
0.407822 0.230000 0.000000
0.548475 0.230000 0.000000
0.690199 0.230000 0.000000
0.832782 0.230000 0.000000
0.976082 0.230000 0.000000
1.120000 0.230000 0.000000
0.000000 0.345000 0.000000
0.131533 0.345000 0.000000
0.268594 0.345000 0.000000
0.407822 0.345000 0.000000
0.548475 0.345000 0.000000
0.690199 0.345000 0.000000
0.832782 0.345000 0.000000
0.976082 0.345000 0.000000
1.120000 0.345000 0.000000
0.000000 0.460000 0.000000
0.131533 0.460000 0.000000
0.268594 0.460000 0.000000
0.407822 0.460000 0.000000
0.548475 0.460000 0.000000
0.690199 0.460000 0.000000
0.832782 0.460000 0.000000
0.976082 0.460000 0.000000
1.120000 0.460000 0.000000
0.000000 0.575000 0.000000
0.131533 0.575000 0.000000
0.268594 0.575000 0.000000
0.407822 0.575000 0.000000
0.548475 0.575000 0.000000
0.690199 0.575000 0.000000
0.832782 0.575000 0.000000
0.976082 0.575000 0.000000
1.120000 0.575000 0.000000
0.000000 0.690000 0.000000
0.131533 0.690000 0.000000
0.268594 0.690000 0.000000
0.407822 0.690000 0.000000
0.548475 0.690000 0.000000
0.690199 0.690000 0.000000
0.832782 0.690000 0.000000
0.976082 0.690000 0.000000
1.120000 0.690000 0.000000
0.000000 0.805000 0.000000
0.131533 0.805000 0.000000
0.268594 0.805000 0.000000
0.407822 0.805000 0.000000
0.548475 0.805000 0.000000
0.690199 0.805000 0.000000
0.832782 0.805000 0.000000
0.976082 0.805000 0.000000
1.120000 0.805000 0.000000
0.000000 0.920000 0.000000
0.131533 0.920000 0.000000
0.268594 0.920000 0.000000
0.407822 0.920000 0.000000
0.548475 0.920000 0.000000
0.690199 0.920000 0.000000
0.832782 0.920000 0.000000
0.976082 0.920000 0.000000
1.120000 0.920000 0.000000
0.000000 0.000000 0.141029
0.131533 0.000000 0.141029
0.268594 0.000000 0.141029
0.407822 0.000000 0.141029
0.548475 0.000000 0.141029
0.690199 0.000000 0.141029
0.832782 0.000000 0.141029
0.976082 0.000000 0.141029
1.120000 0.000000 0.141029
0.000000 0.115000 0.141029
0.131533 0.115000 0.141029
0.268594 0.115000 0.141029
0.407822 0.115000 0.141029
0.548475 0.115000 0.141029
0.690199 0.115000 0.141029
0.832782 0.115000 0.141029
0.976082 0.115000 0.141029
1.120000 0.115000 0.141029
0.000000 0.230000 0.141029
0.131533 0.230000 0.141029
0.268594 0.230000 0.141029
0.407822 0.230000 0.141029
0.548475 0.230000 0.141029
0.690199 0.230000 0.141029
0.832782 0.230000 0.141029
0.976082 0.230000 0.141029
1.120000 0.230000 0.141029
0.000000 0.345000 0.141029
0.131533 0.345000 0.141029
0.268594 0.345000 0.141029
0.407822 0.345000 0.141029
0.548475 0.345000 0.141029
0.690199 0.345000 0.141029
0.832782 0.345000 0.141029
0.976082 0.345000 0.141029
1.120000 0.345000 0.141029
0.000000 0.460000 0.141029
0.131533 0.460000 0.141029
0.268594 0.460000 0.141029
0.407822 0.460000 0.141029
0.548475 0.460000 0.141029
0.690199 0.460000 0.141029
0.832782 0.460000 0.141029
0.976082 0.460000 0.141029
1.120000 0.460000 0.141029
0.000000 0.575000 0.141029
0.131533 0.575000 0.141029
0.268594 0.575000 0.141029
0.407822 0.575000 0.141029
0.548475 0.575000 0.141029
0.690199 0.575000 0.141029
0.832782 0.575000 0.141029
0.976082 0.575000 0.141029
1.120000 0.575000 0.141029
0.000000 0.690000 0.141029
0.131533 0.690000 0.141029
0.268594 0.690000 0.141029
0.407822 0.690000 0.141029
0.548475 0.690000 0.141029
0.690199 0.690000 0.141029
0.832782 0.690000 0.141029
0.976082 0.690000 0.141029
1.120000 0.690000 0.141029
0.000000 0.805000 0.141029
0.131533 0.805000 0.141029
0.268594 0.805000 0.141029
0.407822 0.805000 0.141029
0.548475 0.805000 0.141029
0.690199 0.805000 0.141029
0.832782 0.805000 0.141029
0.976082 0.805000 0.141029
1.120000 0.805000 0.141029
0.000000 0.920000 0.141029
0.131533 0.920000 0.141029
0.268594 0.920000 0.141029
0.407822 0.920000 0.141029
0.548475 0.920000 0.141029
0.690199 0.920000 0.141029
0.832782 0.920000 0.141029
0.976082 0.920000 0.141029
1.120000 0.920000 0.141029
0.000000 0.000000 0.276253
0.131533 0.000000 0.276253
0.268594 0.000000 0.276253
0.407822 0.000000 0.276253
0.548475 0.000000 0.276253
0.690199 0.000000 0.276253
0.832782 0.000000 0.276253
0.976082 0.000000 0.276253
1.120000 0.000000 0.276253
0.000000 0.115000 0.276253
0.131533 0.115000 0.276253
0.268594 0.115000 0.276253
0.407822 0.115000 0.276253
0.548475 0.115000 0.276253
0.690199 0.115000 0.276253
0.832782 0.115000 0.276253
0.976082 0.115000 0.276253
1.120000 0.115000 0.276253
0.000000 0.230000 0.276253
0.131533 0.230000 0.276253
0.268594 0.230000 0.276253
0.407822 0.230000 0.276253
0.548475 0.230000 0.276253
0.690199 0.230000 0.276253
0.832782 0.230000 0.276253
0.976082 0.230000 0.276253
1.120000 0.230000 0.276253
0.000000 0.345000 0.276253
0.131533 0.345000 0.276253
0.268594 0.345000 0.276253
0.407822 0.345000 0.276253
0.548475 0.345000 0.276253
0.690199 0.345000 0.276253
0.832782 0.345000 0.276253
0.976082 0.345000 0.276253
1.120000 0.345000 0.276253
0.000000 0.460000 0.276253
0.131533 0.460000 0.276253
0.268594 0.460000 0.276253
0.407822 0.460000 0.276253
0.548475 0.460000 0.276253
0.690199 0.460000 0.276253
0.832782 0.460000 0.276253
0.976082 0.460000 0.276253
1.120000 0.460000 0.276253
0.000000 0.575000 0.276253
0.131533 0.575000 0.276253
0.268594 0.575000 0.276253
0.407822 0.575000 0.276253
0.548475 0.575000 0.276253
0.690199 0.575000 0.276253
0.832782 0.575000 0.276253
0.976082 0.575000 0.276253
1.120000 0.575000 0.276253
0.000000 0.690000 0.276253
0.131533 0.690000 0.276253
0.268594 0.690000 0.276253
0.407822 0.690000 0.276253
0.548475 0.690000 0.276253
0.690199 0.690000 0.276253
0.832782 0.690000 0.276253
0.976082 0.690000 0.276253
1.120000 0.690000 0.276253
0.000000 0.805000 0.276253
0.131533 0.805000 0.276253
0.268594 0.805000 0.276253
0.407822 0.805000 0.276253
0.548475 0.805000 0.276253
0.690199 0.805000 0.276253
0.832782 0.805000 0.276253
0.976082 0.805000 0.276253
1.120000 0.805000 0.276253
0.000000 0.920000 0.276253
0.131533 0.920000 0.276253
0.268594 0.920000 0.276253
0.407822 0.920000 0.276253
0.548475 0.920000 0.276253
0.690199 0.920000 0.276253
0.832782 0.920000 0.276253
0.976082 0.920000 0.276253
1.120000 0.920000 0.276253
0.000000 0.000000 0.409370
0.131533 0.000000 0.409370
0.268594 0.000000 0.409370
0.407822 0.000000 0.409370
0.548475 0.000000 0.409370
0.690199 0.000000 0.409370
0.832782 0.000000 0.409370
0.976082 0.000000 0.409370
1.120000 0.000000 0.409370
0.000000 0.115000 0.409370
0.131533 0.115000 0.409370
0.268594 0.115000 0.409370
0.407822 0.115000 0.409370
0.548475 0.115000 0.409370
0.690199 0.115000 0.409370
0.832782 0.115000 0.409370
0.976082 0.115000 0.409370
1.120000 0.115000 0.409370
0.000000 0.230000 0.409370
0.131533 0.230000 0.409370
0.268594 0.230000 0.409370
0.407822 0.230000 0.409370
0.548475 0.230000 0.409370
0.690199 0.230000 0.409370
0.832782 0.230000 0.409370
0.976082 0.230000 0.409370
1.120000 0.230000 0.409370
0.000000 0.345000 0.409370
0.131533 0.345000 0.409370
0.268594 0.345000 0.409370
0.407822 0.345000 0.409370
0.548475 0.345000 0.409370
0.690199 0.345000 0.409370
0.832782 0.345000 0.409370
0.976082 0.345000 0.409370
1.120000 0.345000 0.409370
0.000000 0.460000 0.409370
0.131533 0.460000 0.409370
0.268594 0.460000 0.409370
0.407822 0.460000 0.409370
0.548475 0.460000 0.409370
0.690199 0.460000 0.409370
0.832782 0.460000 0.409370
0.976082 0.460000 0.409370
1.120000 0.460000 0.409370
0.000000 0.575000 0.409370
0.131533 0.575000 0.409370
0.268594 0.575000 0.409370
0.407822 0.575000 0.409370
0.548475 0.575000 0.409370
0.690199 0.575000 0.409370
0.832782 0.575000 0.409370
0.976082 0.575000 0.409370
1.120000 0.575000 0.409370
0.000000 0.690000 0.409370
0.131533 0.690000 0.409370
0.268594 0.690000 0.409370
0.407822 0.690000 0.409370
0.548475 0.690000 0.409370
0.690199 0.690000 0.409370
0.832782 0.690000 0.409370
0.976082 0.690000 0.409370
1.120000 0.690000 0.409370
0.000000 0.805000 0.409370
0.131533 0.805000 0.409370
0.268594 0.805000 0.409370
0.407822 0.805000 0.409370
0.548475 0.805000 0.409370
0.690199 0.805000 0.409370
0.832782 0.805000 0.409370
0.976082 0.805000 0.409370
1.120000 0.805000 0.409370
0.000000 0.920000 0.409370
0.131533 0.920000 0.409370
0.268594 0.920000 0.409370
0.407822 0.920000 0.409370
0.548475 0.920000 0.409370
0.690199 0.920000 0.409370
0.832782 0.920000 0.409370
0.976082 0.920000 0.409370
1.120000 0.920000 0.409370
0.000000 0.000000 0.541136
0.131533 0.000000 0.541136
0.268594 0.000000 0.541136
0.407822 0.000000 0.541136
0.548475 0.000000 0.541136
0.690199 0.000000 0.541136
0.832782 0.000000 0.541136
0.976082 0.000000 0.541136
1.120000 0.000000 0.541136
0.000000 0.115000 0.541136
0.131533 0.115000 0.541136
0.268594 0.115000 0.541136
0.407822 0.115000 0.541136
0.548475 0.115000 0.541136
0.690199 0.115000 0.541136
0.832782 0.115000 0.541136
0.976082 0.115000 0.541136
1.120000 0.115000 0.541136
0.000000 0.230000 0.541136
0.131533 0.230000 0.541136
0.268594 0.230000 0.541136
0.407822 0.230000 0.541136
0.548475 0.230000 0.541136
0.690199 0.230000 0.541136
0.832782 0.230000 0.541136
0.976082 0.230000 0.541136
1.120000 0.230000 0.541136
0.000000 0.345000 0.541136
0.131533 0.345000 0.541136
0.268594 0.345000 0.541136
0.407822 0.345000 0.541136
0.548475 0.345000 0.541136
0.690199 0.345000 0.541136
0.832782 0.345000 0.541136
0.976082 0.345000 0.541136
1.120000 0.345000 0.541136
0.000000 0.460000 0.541136
0.131533 0.460000 0.541136
0.268594 0.460000 0.541136
0.407822 0.460000 0.541136
0.548475 0.460000 0.541136
0.690199 0.460000 0.541136
0.832782 0.460000 0.541136
0.976082 0.460000 0.541136
1.120000 0.460000 0.541136
0.000000 0.575000 0.541136
0.131533 0.575000 0.541136
0.268594 0.575000 0.541136
0.407822 0.575000 0.541136
0.548475 0.575000 0.541136
0.690199 0.575000 0.541136
0.832782 0.575000 0.541136
0.976082 0.575000 0.541136
1.120000 0.575000 0.541136
0.000000 0.690000 0.541136
0.131533 0.690000 0.541136
0.268594 0.690000 0.541136
0.407822 0.690000 0.541136
0.548475 0.690000 0.541136
0.690199 0.690000 0.541136
0.832782 0.690000 0.541136
0.976082 0.690000 0.541136
1.120000 0.690000 0.541136
0.000000 0.805000 0.541136
0.131533 0.805000 0.541136
0.268594 0.805000 0.541136
0.407822 0.805000 0.541136
0.548475 0.805000 0.541136
0.690199 0.805000 0.541136
0.832782 0.805000 0.541136
0.976082 0.805000 0.541136
1.120000 0.805000 0.541136
0.000000 0.920000 0.541136
0.131533 0.920000 0.541136
0.268594 0.920000 0.541136
0.407822 0.920000 0.541136
0.548475 0.920000 0.541136
0.690199 0.920000 0.541136
0.832782 0.920000 0.541136
0.976082 0.920000 0.541136
1.120000 0.920000 0.541136
0.000000 0.000000 0.671907
0.131533 0.000000 0.671907
0.268594 0.000000 0.671907
0.407822 0.000000 0.671907
0.548475 0.000000 0.671907
0.690199 0.000000 0.671907
0.832782 0.000000 0.671907
0.976082 0.000000 0.671907
1.120000 0.000000 0.671907
0.000000 0.115000 0.671907
0.131533 0.115000 0.671907
0.268594 0.115000 0.671907
0.407822 0.115000 0.671907
0.548475 0.115000 0.671907
0.690199 0.115000 0.671907
0.832782 0.115000 0.671907
0.976082 0.115000 0.671907
1.120000 0.115000 0.671907
0.000000 0.230000 0.671907
0.131533 0.230000 0.671907
0.268594 0.230000 0.671907
0.407822 0.230000 0.671907
0.548475 0.230000 0.671907
0.690199 0.230000 0.671907
0.832782 0.230000 0.671907
0.976082 0.230000 0.671907
1.120000 0.230000 0.671907
0.000000 0.345000 0.671907
0.131533 0.345000 0.671907
0.268594 0.345000 0.671907
0.407822 0.345000 0.671907
0.548475 0.345000 0.671907
0.690199 0.345000 0.671907
0.832782 0.345000 0.671907
0.976082 0.345000 0.671907
1.120000 0.345000 0.671907
0.000000 0.460000 0.671907
0.131533 0.460000 0.671907
0.268594 0.460000 0.671907
0.407822 0.460000 0.671907
0.548475 0.460000 0.671907
0.690199 0.460000 0.671907
0.832782 0.460000 0.671907
0.976082 0.460000 0.671907
1.120000 0.460000 0.671907
0.000000 0.575000 0.671907
0.131533 0.575000 0.671907
0.268594 0.575000 0.671907
0.407822 0.575000 0.671907
0.548475 0.575000 0.671907
0.690199 0.575000 0.671907
0.832782 0.575000 0.671907
0.976082 0.575000 0.671907
1.120000 0.575000 0.671907
0.000000 0.690000 0.671907
0.131533 0.690000 0.671907
0.268594 0.690000 0.671907
0.407822 0.690000 0.671907
0.548475 0.690000 0.671907
0.690199 0.690000 0.671907
0.832782 0.690000 0.671907
0.976082 0.690000 0.671907
1.120000 0.690000 0.671907
0.000000 0.805000 0.671907
0.131533 0.805000 0.671907
0.268594 0.805000 0.671907
0.407822 0.805000 0.671907
0.548475 0.805000 0.671907
0.690199 0.805000 0.671907
0.832782 0.805000 0.671907
0.976082 0.805000 0.671907
1.120000 0.805000 0.671907
0.000000 0.920000 0.671907
0.131533 0.920000 0.671907
0.268594 0.920000 0.671907
0.407822 0.920000 0.671907
0.548475 0.920000 0.671907
0.690199 0.920000 0.671907
0.832782 0.920000 0.671907
0.976082 0.920000 0.671907
1.120000 0.920000 0.671907
0.000000 0.000000 0.801891
0.131533 0.000000 0.801891
0.268594 0.000000 0.801891
0.407822 0.000000 0.801891
0.548475 0.000000 0.801891
0.690199 0.000000 0.801891
0.832782 0.000000 0.801891
0.976082 0.000000 0.801891
1.120000 0.000000 0.801891
0.000000 0.115000 0.801891
0.131533 0.115000 0.801891
0.268594 0.115000 0.801891
0.407822 0.115000 0.801891
0.548475 0.115000 0.801891
0.690199 0.115000 0.801891
0.832782 0.115000 0.801891
0.976082 0.115000 0.801891
1.120000 0.115000 0.801891
0.000000 0.230000 0.801891
0.131533 0.230000 0.801891
0.268594 0.230000 0.801891
0.407822 0.230000 0.801891
0.548475 0.230000 0.801891
0.690199 0.230000 0.801891
0.832782 0.230000 0.801891
0.976082 0.230000 0.801891
1.120000 0.230000 0.801891
0.000000 0.345000 0.801891
0.131533 0.345000 0.801891
0.268594 0.345000 0.801891
0.407822 0.345000 0.801891
0.548475 0.345000 0.801891
0.690199 0.345000 0.801891
0.832782 0.345000 0.801891
0.976082 0.345000 0.801891
1.120000 0.345000 0.801891
0.000000 0.460000 0.801891
0.131533 0.460000 0.801891
0.268594 0.460000 0.801891
0.407822 0.460000 0.801891
0.548475 0.460000 0.801891
0.690199 0.460000 0.801891
0.832782 0.460000 0.801891
0.976082 0.460000 0.801891
1.120000 0.460000 0.801891
0.000000 0.575000 0.801891
0.131533 0.575000 0.801891
0.268594 0.575000 0.801891
0.407822 0.575000 0.801891
0.548475 0.575000 0.801891
0.690199 0.575000 0.801891
0.832782 0.575000 0.801891
0.976082 0.575000 0.801891
1.120000 0.575000 0.801891
0.000000 0.690000 0.801891
0.131533 0.690000 0.801891
0.268594 0.690000 0.801891
0.407822 0.690000 0.801891
0.548475 0.690000 0.801891
0.690199 0.690000 0.801891
0.832782 0.690000 0.801891
0.976082 0.690000 0.801891
1.120000 0.690000 0.801891
0.000000 0.805000 0.801891
0.131533 0.805000 0.801891
0.268594 0.805000 0.801891
0.407822 0.805000 0.801891
0.548475 0.805000 0.801891
0.690199 0.805000 0.801891
0.832782 0.805000 0.801891
0.976082 0.805000 0.801891
1.120000 0.805000 0.801891
0.000000 0.920000 0.801891
0.131533 0.920000 0.801891
0.268594 0.920000 0.801891
0.407822 0.920000 0.801891
0.548475 0.920000 0.801891
0.690199 0.920000 0.801891
0.832782 0.920000 0.801891
0.976082 0.920000 0.801891
1.120000 0.920000 0.801891
0.000000 0.000000 0.931223
0.131533 0.000000 0.931223
0.268594 0.000000 0.931223
0.407822 0.000000 0.931223
0.548475 0.000000 0.931223
0.690199 0.000000 0.931223
0.832782 0.000000 0.931223
0.976082 0.000000 0.931223
1.120000 0.000000 0.931223
0.000000 0.115000 0.931223
0.131533 0.115000 0.931223
0.268594 0.115000 0.931223
0.407822 0.115000 0.931223
0.548475 0.115000 0.931223
0.690199 0.115000 0.931223
0.832782 0.115000 0.931223
0.976082 0.115000 0.931223
1.120000 0.115000 0.931223
0.000000 0.230000 0.931223
0.131533 0.230000 0.931223
0.268594 0.230000 0.931223
0.407822 0.230000 0.931223
0.548475 0.230000 0.931223
0.690199 0.230000 0.931223
0.832782 0.230000 0.931223
0.976082 0.230000 0.931223
1.120000 0.230000 0.931223
0.000000 0.345000 0.931223
0.131533 0.345000 0.931223
0.268594 0.345000 0.931223
0.407822 0.345000 0.931223
0.548475 0.345000 0.931223
0.690199 0.345000 0.931223
0.832782 0.345000 0.931223
0.976082 0.345000 0.931223
1.120000 0.345000 0.931223
0.000000 0.460000 0.931223
0.131533 0.460000 0.931223
0.268594 0.460000 0.931223
0.407822 0.460000 0.931223
0.548475 0.460000 0.931223
0.690199 0.460000 0.931223
0.832782 0.460000 0.931223
0.976082 0.460000 0.931223
1.120000 0.460000 0.931223
0.000000 0.575000 0.931223
0.131533 0.575000 0.931223
0.268594 0.575000 0.931223
0.407822 0.575000 0.931223
0.548475 0.575000 0.931223
0.690199 0.575000 0.931223
0.832782 0.575000 0.931223
0.976082 0.575000 0.931223
1.120000 0.575000 0.931223
0.000000 0.690000 0.931223
0.131533 0.690000 0.931223
0.268594 0.690000 0.931223
0.407822 0.690000 0.931223
0.548475 0.690000 0.931223
0.690199 0.690000 0.931223
0.832782 0.690000 0.931223
0.976082 0.690000 0.931223
1.120000 0.690000 0.931223
0.000000 0.805000 0.931223
0.131533 0.805000 0.931223
0.268594 0.805000 0.931223
0.407822 0.805000 0.931223
0.548475 0.805000 0.931223
0.690199 0.805000 0.931223
0.832782 0.805000 0.931223
0.976082 0.805000 0.931223
1.120000 0.805000 0.931223
0.000000 0.920000 0.931223
0.131533 0.920000 0.931223
0.268594 0.920000 0.931223
0.407822 0.920000 0.931223
0.548475 0.920000 0.931223
0.690199 0.920000 0.931223
0.832782 0.920000 0.931223
0.976082 0.920000 0.931223
1.120000 0.920000 0.931223
0.000000 0.000000 1.060000
0.131533 0.000000 1.060000
0.268594 0.000000 1.060000
0.407822 0.000000 1.060000
0.548475 0.000000 1.060000
0.690199 0.000000 1.060000
0.832782 0.000000 1.060000
0.976082 0.000000 1.060000
1.120000 0.000000 1.060000
0.000000 0.115000 1.060000
0.131533 0.115000 1.060000
0.268594 0.115000 1.060000
0.407822 0.115000 1.060000
0.548475 0.115000 1.060000
0.690199 0.115000 1.060000
0.832782 0.115000 1.060000
0.976082 0.115000 1.060000
1.120000 0.115000 1.060000
0.000000 0.230000 1.060000
0.131533 0.230000 1.060000
0.268594 0.230000 1.060000
0.407822 0.230000 1.060000
0.548475 0.230000 1.060000
0.690199 0.230000 1.060000
0.832782 0.230000 1.060000
0.976082 0.230000 1.060000
1.120000 0.230000 1.060000
0.000000 0.345000 1.060000
0.131533 0.345000 1.060000
0.268594 0.345000 1.060000
0.407822 0.345000 1.060000
0.548475 0.345000 1.060000
0.690199 0.345000 1.060000
0.832782 0.345000 1.060000
0.976082 0.345000 1.060000
1.120000 0.345000 1.060000
0.000000 0.460000 1.060000
0.131533 0.460000 1.060000
0.268594 0.460000 1.060000
0.407822 0.460000 1.060000
0.548475 0.460000 1.060000
0.690199 0.460000 1.060000
0.832782 0.460000 1.060000
0.976082 0.460000 1.060000
1.120000 0.460000 1.060000
0.000000 0.575000 1.060000
0.131533 0.575000 1.060000
0.268594 0.575000 1.060000
0.407822 0.575000 1.060000
0.548475 0.575000 1.060000
0.690199 0.575000 1.060000
0.832782 0.575000 1.060000
0.976082 0.575000 1.060000
1.120000 0.575000 1.060000
0.000000 0.690000 1.060000
0.131533 0.690000 1.060000
0.268594 0.690000 1.060000
0.407822 0.690000 1.060000
0.548475 0.690000 1.060000
0.690199 0.690000 1.060000
0.832782 0.690000 1.060000
0.976082 0.690000 1.060000
1.120000 0.690000 1.060000
0.000000 0.805000 1.060000
0.131533 0.805000 1.060000
0.268594 0.805000 1.060000
0.407822 0.805000 1.060000
0.548475 0.805000 1.060000
0.690199 0.805000 1.060000
0.832782 0.805000 1.060000
0.976082 0.805000 1.060000
1.120000 0.805000 1.060000
0.000000 0.920000 1.060000
0.131533 0.920000 1.060000
0.268594 0.920000 1.060000
0.407822 0.920000 1.060000
0.548475 0.920000 1.060000
0.690199 0.920000 1.060000
0.832782 0.920000 1.060000
0.976082 0.920000 1.060000
1.120000 0.920000 1.060000
