public/assets/luts/b03_nightclub.cube
TITLE "b03_nightclub"
LUT_3D_SIZE 5
DOMAIN_MIN 0 0 0
DOMAIN_MAX 1 1 1
0.000000 0.000000 0.000000
0.268594 0.000000 0.000000
0.548475 0.000000 0.000000
0.832782 0.000000 0.000000
1.120000 0.000000 0.000000
0.000000 0.230000 0.000000
0.268594 0.230000 0.000000
0.548475 0.230000 0.000000
0.832782 0.230000 0.000000
1.120000 0.230000 0.000000
0.000000 0.460000 0.000000
0.268594 0.460000 0.000000
0.548475 0.460000 0.000000
0.832782 0.460000 0.000000
1.120000 0.460000 0.000000
0.000000 0.690000 0.000000
0.268594 0.690000 0.000000
0.548475 0.690000 0.000000
0.832782 0.690000 0.000000
1.120000 0.690000 0.000000
0.000000 0.920000 0.000000
0.268594 0.920000 0.000000
0.548475 0.920000 0.000000
0.832782 0.920000 0.000000
1.120000 0.920000 0.000000
0.000000 0.000000 0.276253
0.268594 0.000000 0.276253
0.548475 0.000000 0.276253
0.832782 0.000000 0.276253
1.120000 0.000000 0.276253
0.000000 0.230000 0.276253
0.268594 0.230000 0.276253
0.548475 0.230000 0.276253
0.832782 0.230000 0.276253
1.120000 0.230000 0.276253
0.000000 0.460000 0.276253
0.268594 0.460000 0.276253
0.548475 0.460000 0.276253
0.832782 0.460000 0.276253
1.120000 0.460000 0.276253
0.000000 0.690000 0.276253
0.268594 0.690000 0.276253
0.548475 0.690000 0.276253
0.832782 0.690000 0.276253
1.120000 0.690000 0.276253
0.000000 0.920000 0.276253
0.268594 0.920000 0.276253
0.548475 0.920000 0.276253
0.832782 0.920000 0.276253
1.120000 0.920000 0.276253
0.000000 0.000000 0.541136
0.268594 0.000000 0.541136
0.548475 0.000000 0.541136
0.832782 0.000000 0.541136
1.120000 0.000000 0.541136
0.000000 0.230000 0.541136
0.268594 0.230000 0.541136
0.548475 0.230000 0.541136
0.832782 0.230000 0.541136
1.120000 0.230000 0.541136
0.000000 0.460000 0.541136
0.268594 0.460000 0.541136
0.548475 0.460000 0.541136
0.832782 0.460000 0.541136
1.120000 0.460000 0.541136
0.000000 0.690000 0.541136
0.268594 0.690000 0.541136
0.548475 0.690000 0.541136
0.832782 0.690000 0.541136
1.120000 0.690000 0.541136
0.000000 0.920000 0.541136
0.268594 0.920000 0.541136
0.548475 0.920000 0.541136
0.832782 0.920000 0.541136
1.120000 0.920000 0.541136
0.000000 0.000000 0.801891
0.268594 0.000000 0.801891
0.548475 0.000000 0.801891
0.832782 0.000000 0.801891
1.120000 0.000000 0.801891
0.000000 0.230000 0.801891
0.268594 0.230000 0.801891
0.548475 0.230000 0.801891
0.832782 0.230000 0.801891
1.120000 0.230000 0.801891
0.000000 0.460000 0.801891
0.268594 0.460000 0.801891
0.548475 0.460000 0.801891
0.832782 0.460000 0.801891
1.120000 0.460000 0.801891
0.000000 0.690000 0.801891
0.268594 0.690000 0.801891
0.548475 0.690000 0.801891
0.832782 0.690000 0.801891
1.120000 0.690000 0.801891
0.000000 0.920000 0.801891
0.268594 0.920000 0.801891
0.548475 0.920000 0.801891
0.832782 0.920000 0.801891
1.120000 0.920000 0.801891
0.000000 0.000000 1.060000
0.268594 0.000000 1.060000
0.548475 0.000000 1.060000
0.832782 0.000000 1.060000
1.120000 0.000000 1.060000
0.000000 0.230000 1.060000
0.268594 0.230000 1.060000
0.548475 0.230000 1.060000
0.832782 0.230000 1.060000
1.120000 0.230000 1.060000
0.000000 0.460000 1.060000
0.268594 0.460000 1.060000
0.548475 0.460000 1.060000
0.832782 0.460000 1.060000
1.120000 0.460000 1.060000
0.000000 0.690000 1.060000
0.268594 0.690000 1.060000
0.548475 0.690000 1.060000
0.832782 0.690000 1.060000
1.120000 0.690000 1.060000
0.000000 0.920000 1.060000
0.268594 0.920000 1.060000
0.548475 0.920000 1.060000
0.832782 0.920000 1.060000
1.120000 0.920000 1.060000
