public/assets/luts/b03_nightclub.cube
TITLE "b03_nightclub"
LUT_3D_SIZE 17
DOMAIN_MIN 0 0 0
DOMAIN_MAX 1 1 1
0.000000 0.000000 0.000000
0.064413 0.000000 0.000000
0.131533 0.000000 0.000000
0.199714 0.000000 0.000000
0.268594 0.000000 0.000000
0.337998 0.000000 0.000000
0.407822 0.000000 0.000000
0.477997 0.000000 0.000000
0.548475 0.000000 0.000000
0.619219 0.000000 0.000000
0.690199 0.000000 0.000000
0.761393 0.000000 0.000000
0.832782 0.000000 0.000000
0.904349 0.000000 0.000000
0.976082 0.000000 0.000000
1.047969 0.000000 0.000000
1.120000 0.000000 0.000000
0.000000 0.057500 0.000000
0.064413 0.057500 0.000000
0.131533 0.057500 0.000000
0.199714 0.057500 0.000000
0.268594 0.057500 0.000000
0.337998 0.057500 0.000000
0.407822 0.057500 0.000000
0.477997 0.057500 0.000000
0.548475 0.057500 0.000000
0.619219 0.057500 0.000000
0.690199 0.057500 0.000000
0.761393 0.057500 0.000000
0.832782 0.057500 0.000000
0.904349 0.057500 0.000000
0.976082 0.057500 0.000000
1.047969 0.057500 0.000000
1.120000 0.057500 0.000000
0.000000 0.115000 0.000000
0.064413 0.115000 0.000000
0.131533 0.115000 0.000000
0.199714 0.115000 0.000000
0.268594 0.115000 0.000000
0.337998 0.115000 0.000000
0.407822 0.115000 0.000000
0.477997 0.115000 0.000000
0.548475 0.115000 0.000000
0.619219 0.115000 0.000000
0.690199 0.115000 0.000000
0.761393 0.115000 0.000000
0.832782 0.115000 0.000000
0.904349 0.115000 0.000000
0.976082 0.115000 0.000000
1.047969 0.115000 0.000000
1.120000 0.115000 0.000000
0.000000 0.172500 0.000000
0.064413 0.172500 0.000000
0.131533 0.172500 0.000000
0.199714 0.172500 0.000000
0.268594 0.172500 0.000000
0.337998 0.172500 0.000000
0.407822 0.172500 0.000000
0.477997 0.172500 0.000000
0.548475 0.172500 0.000000
0.619219 0.172500 0.000000
0.690199 0.172500 0.000000
0.761393 0.172500 0.000000
0.832782 0.172500 0.000000
0.904349 0.172500 0.000000
0.976082 0.172500 0.000000
1.047969 0.172500 0.000000
1.120000 0.172500 0.000000
0.000000 0.230000 0.000000
0.064413 0.230000 0.000000
0.131533 0.230000 0.000000
0.199714 0.230000 0.000000
0.268594 0.230000 0.000000
0.337998 0.230000 0.000000
0.407822 0.230000 0.000000
0.477997 0.230000 0.000000
0.548475 0.230000 0.000000
0.619219 0.230000 0.000000
0.690199 0.230000 0.000000
0.761393 0.230000 0.000000
0.832782 0.230000 0.000000
0.904349 0.230000 0.000000
0.976082 0.230000 0.000000
1.047969 0.230000 0.000000
1.120000 0.230000 0.000000
0.000000 0.287500 0.000000
0.064413 0.287500 0.000000
0.131533 0.287500 0.000000
0.199714 0.287500 0.000000
0.268594 0.287500 0.000000
0.337998 0.287500 0.000000
0.407822 0.287500 0.000000
0.477997 0.287500 0.000000
0.548475 0.287500 0.000000
0.619219 0.287500 0.000000
0.690199 0.287500 0.000000
0.761393 0.287500 0.000000
0.832782 0.287500 0.000000
0.904349 0.287500 0.000000
0.976082 0.287500 0.000000
1.047969 0.287500 0.000000
1.120000 0.287500 0.000000
0.000000 0.345000 0.000000
0.064413 0.345000 0.000000
0.131533 0.345000 0.000000
0.199714 0.345000 0.000000
0.268594 0.345000 0.000000
0.337998 0.345000 0.000000
0.407822 0.345000 0.000000
0.477997 0.345000 0.000000
0.548475 0.345000 0.000000
0.619219 0.345000 0.000000
0.690199 0.345000 0.000000
0.761393 0.345000 0.000000
0.832782 0.345000 0.000000
0.904349 0.345000 0.000000
0.976082 0.345000 0.000000
1.047969 0.345000 0.000000
1.120000 0.345000 0.000000
0.000000 0.402500 0.000000
0.064413 0.402500 0.000000
0.131533 0.402500 0.000000
0.199714 0.402500 0.000000
0.268594 0.402500 0.000000
0.337998 0.402500 0.000000
0.407822 0.402500 0.000000
0.477997 0.402500 0.000000
0.548475 0.402500 0.000000
0.619219 0.402500 0.000000
0.690199 0.402500 0.000000
0.761393 0.402500 0.000000
0.832782 0.402500 0.000000
0.904349 0.402500 0.000000
0.976082 0.402500 0.000000
1.047969 0.402500 0.000000
1.120000 0.402500 0.000000
0.000000 0.460000 0.000000
0.064413 0.460000 0.000000
0.131533 0.460000 0.000000
0.199714 0.460000 0.000000
0.268594 0.460000 0.000000
0.337998 0.460000 0.000000
0.407822 0.460000 0.000000
0.477997 0.460000 0.000000
0.548475 0.460000 0.000000
0.619219 0.460000 0.000000
0.690199 0.460000 0.000000
0.761393 0.460000 0.000000
0.832782 0.460000 0.000000
0.904349 0.460000 0.000000
0.976082 0.460000 0.000000
1.047969 0.460000 0.000000
1.120000 0.460000 0.000000
0.000000 0.517500 0.000000
0.064413 0.517500 0.000000
0.131533 0.517500 0.000000
0.199714 0.517500 0.000000
0.268594 0.517500 0.000000
0.337998 0.517500 0.000000
0.407822 0.517500 0.000000
0.477997 0.517500 0.000000
0.548475 0.517500 0.000000
0.619219 0.517500 0.000000
0.690199 0.517500 0.000000
0.761393 0.517500 0.000000
0.832782 0.517500 0.000000
0.904349 0.517500 0.000000
0.976082 0.517500 0.000000
1.047969 0.517500 0.000000
1.120000 0.517500 0.000000
0.000000 0.575000 0.000000
0.064413 0.575000 0.000000
0.131533 0.575000 0.000000
0.199714 0.575000 0.000000
0.268594 0.575000 0.000000
0.337998 0.575000 0.000000
0.407822 0.575000 0.000000
0.477997 0.575000 0.000000
0.548475 0.575000 0.000000
0.619219 0.575000 0.000000
0.690199 0.575000 0.000000
0.761393 0.575000 0.000000
0.832782 0.575000 0.000000
0.904349 0.575000 0.000000
0.976082 0.575000 0.000000
1.047969 0.575000 0.000000
1.120000 0.575000 0.000000
0.000000 0.632500 0.000000
0.064413 0.632500 0.000000
0.131533 0.632500 0.000000
0.199714 0.632500 0.000000
0.268594 0.632500 0.000000
0.337998 0.632500 0.000000
0.407822 0.632500 0.000000
0.477997 0.632500 0.000000
0.548475 0.632500 0.000000
0.619219 0.632500 0.000000
0.690199 0.632500 0.000000
0.761393 0.632500 0.000000
0.832782 0.632500 0.000000
0.904349 0.632500 0.000000
0.976082 0.632500 0.000000
1.047969 0.632500 0.000000
1.120000 0.632500 0.000000
0.000000 0.690000 0.000000
0.064413 0.690000 0.000000
0.131533 0.690000 0.000000
0.199714 0.690000 0.000000
0.268594 0.690000 0.000000
0.337998 0.690000 0.000000
0.407822 0.690000 0.000000
0.477997 0.690000 0.000000
0.548475 0.690000 0.000000
0.619219 0.690000 0.000000
0.690199 0.690000 0.000000
0.761393 0.690000 0.000000
0.832782 0.690000 0.000000
0.904349 0.690000 0.000000
0.976082 0.690000 0.000000
1.047969 0.690000 0.000000
1.120000 0.690000 0.000000
0.000000 0.747500 0.000000
0.064413 0.747500 0.000000
0.131533 0.747500 0.000000
0.199714 0.747500 0.000000
0.268594 0.747500 0.000000
0.337998 0.747500 0.000000
0.407822 0.747500 0.000000
0.477997 0.747500 0.000000
0.548475 0.747500 0.000000
0.619219 0.747500 0.000000
0.690199 0.747500 0.000000
0.761393 0.747500 0.000000
0.832782 0.747500 0.000000
0.904349 0.747500 0.000000
0.976082 0.747500 0.000000
1.047969 0.747500 0.000000
1.120000 0.747500 0.000000
0.000000 0.805000 0.000000
0.064413 0.805000 0.000000
0.131533 0.805000 0.000000
0.199714 0.805000 0.000000
0.268594 0.805000 0.000000
0.337998 0.805000 0.000000
0.407822 0.805000 0.000000
0.477997 0.805000 0.000000
0.548475 0.805000 0.000000
0.619219 0.805000 0.000000
0.690199 0.805000 0.000000
0.761393 0.805000 0.000000
0.832782 0.805000 0.000000
0.904349 0.805000 0.000000
0.976082 0.805000 0.000000
1.047969 0.805000 0.000000
1.120000 0.805000 0.000000
0.000000 0.862500 0.000000
0.064413 0.862500 0.000000
0.131533 0.862500 0.000000
0.199714 0.862500 0.000000
0.268594 0.862500 0.000000
0.337998 0.862500 0.000000
0.407822 0.862500 0.000000
0.477997 0.862500 0.000000
0.548475 0.862500 0.000000
0.619219 0.862500 0.000000
0.690199 0.862500 0.000000
0.761393 0.862500 0.000000
0.832782 0.862500 0.000000
0.904349 0.862500 0.000000
0.976082 0.862500 0.000000
1.047969 0.862500 0.000000
1.120000 0.862500 0.000000
0.000000 0.920000 0.000000
0.064413 0.920000 0.000000
0.131533 0.920000 0.000000
0.199714 0.920000 0.000000
0.268594 0.920000 0.000000
0.337998 0.920000 0.000000
0.407822 0.920000 0.000000
0.477997 0.920000 0.000000
0.548475 0.920000 0.000000
0.619219 0.920000 0.000000
0.690199 0.920000 0.000000
0.761393 0.920000 0.000000
0.832782 0.920000 0.000000
0.904349 0.920000 0.000000
0.976082 0.920000 0.000000
1.047969 0.920000 0.000000
1.120000 0.920000 0.000000
0.000000 0.000000 0.071996
0.064413 0.000000 0.071996
0.131533 0.000000 0.071996
0.199714 0.000000 0.071996
0.268594 0.000000 0.071996
0.337998 0.000000 0.071996
0.407822 0.000000 0.071996
0.477997 0.000000 0.071996
0.548475 0.000000 0.071996
0.619219 0.000000 0.071996
0.690199 0.000000 0.071996
0.761393 0.000000 0.071996
0.832782 0.000000 0.071996
0.904349 0.000000 0.071996
0.976082 0.000000 0.071996
1.047969 0.000000 0.071996
1.120000 0.000000 0.071996
0.000000 0.057500 0.071996
0.064413 0.057500 0.071996
0.131533 0.057500 0.071996
0.199714 0.057500 0.071996
0.268594 0.057500 0.071996
0.337998 0.057500 0.071996
0.407822 0.057500 0.071996
0.477997 0.057500 0.071996
0.548475 0.057500 0.071996
0.619219 0.057500 0.071996
0.690199 0.057500 0.071996
0.761393 0.057500 0.071996
0.832782 0.057500 0.071996
0.904349 0.057500 0.071996
0.976082 0.057500 0.071996
1.047969 0.057500 0.071996
1.120000 0.057500 0.071996
0.000000 0.115000 0.071996
0.064413 0.115000 0.071996
0.131533 0.115000 0.071996
0.199714 0.115000 0.071996
0.268594 0.115000 0.071996
0.337998 0.115000 0.071996
0.407822 0.115000 0.071996
0.477997 0.115000 0.071996
0.548475 0.115000 0.071996
0.619219 0.115000 0.071996
0.690199 0.115000 0.071996
0.761393 0.115000 0.071996
0.832782 0.115000 0.071996
0.904349 0.115000 0.071996
0.976082 0.115000 0.071996
1.047969 0.115000 0.071996
1.120000 0.115000 0.071996
0.000000 0.172500 0.071996
0.064413 0.172500 0.071996
0.131533 0.172500 0.071996
0.199714 0.172500 0.071996
0.268594 0.172500 0.071996
0.337998 0.172500 0.071996
0.407822 0.172500 0.071996
0.477997 0.172500 0.071996
0.548475 0.172500 0.071996
0.619219 0.172500 0.071996
0.690199 0.172500 0.071996
0.761393 0.172500 0.071996
0.832782 0.172500 0.071996
0.904349 0.172500 0.071996
0.976082 0.172500 0.071996
1.047969 0.172500 0.071996
1.120000 0.172500 0.071996
0.000000 0.230000 0.071996
0.064413 0.230000 0.071996
0.131533 0.230000 0.071996
0.199714 0.230000 0.071996
0.268594 0.230000 0.071996
0.337998 0.230000 0.071996
0.407822 0.230000 0.071996
0.477997 0.230000 0.071996
0.548475 0.230000 0.071996
0.619219 0.230000 0.071996
0.690199 0.230000 0.071996
0.761393 0.230000 0.071996
0.832782 0.230000 0.071996
0.904349 0.230000 0.071996
0.976082 0.230000 0.071996
1.047969 0.230000 0.071996
1.120000 0.230000 0.071996
0.000000 0.287500 0.071996
0.064413 0.287500 0.071996
0.131533 0.287500 0.071996
0.199714 0.287500 0.071996
0.268594 0.287500 0.071996
0.337998 0.287500 0.071996
0.407822 0.287500 0.071996
0.477997 0.287500 0.071996
0.548475 0.287500 0.071996
0.619219 0.287500 0.071996
0.690199 0.287500 0.071996
0.761393 0.287500 0.071996
0.832782 0.287500 0.071996
0.904349 0.287500 0.071996
0.976082 0.287500 0.071996
1.047969 0.287500 0.071996
1.120000 0.287500 0.071996
0.000000 0.345000 0.071996
0.064413 0.345000 0.071996
0.131533 0.345000 0.071996
0.199714 0.345000 0.071996
0.268594 0.345000 0.071996
0.337998 0.345000 0.071996
0.407822 0.345000 0.071996
0.477997 0.345000 0.071996
0.548475 0.345000 0.071996
0.619219 0.345000 0.071996
0.690199 0.345000 0.071996
0.761393 0.345000 0.071996
0.832782 0.345000 0.071996
0.904349 0.345000 0.071996
0.976082 0.345000 0.071996
1.047969 0.345000 0.071996
1.120000 0.345000 0.071996
0.000000 0.402500 0.071996
0.064413 0.402500 0.071996
0.131533 0.402500 0.071996
0.199714 0.402500 0.071996
0.268594 0.402500 0.071996
0.337998 0.402500 0.071996
0.407822 0.402500 0.071996
0.477997 0.402500 0.071996
0.548475 0.402500 0.071996
0.619219 0.402500 0.071996
0.690199 0.402500 0.071996
0.761393 0.402500 0.071996
0.832782 0.402500 0.071996
0.904349 0.402500 0.071996
0.976082 0.402500 0.071996
1.047969 0.402500 0.071996
1.120000 0.402500 0.071996
0.000000 0.460000 0.071996
0.064413 0.460000 0.071996
0.131533 0.460000 0.071996
0.199714 0.460000 0.071996
0.268594 0.460000 0.071996
0.337998 0.460000 0.071996
0.407822 0.460000 0.071996
0.477997 0.460000 0.071996
0.548475 0.460000 0.071996
0.619219 0.460000 0.071996
0.690199 0.460000 0.071996
0.761393 0.460000 0.071996
0.832782 0.460000 0.071996
0.904349 0.460000 0.071996
0.976082 0.460000 0.071996
1.047969 0.460000 0.071996
1.120000 0.460000 0.071996
0.000000 0.517500 0.071996
0.064413 0.517500 0.071996
0.131533 0.517500 0.071996
0.199714 0.517500 0.071996
0.268594 0.517500 0.071996
0.337998 0.517500 0.071996
0.407822 0.517500 0.071996
0.477997 0.517500 0.071996
0.548475 0.517500 0.071996
0.619219 0.517500 0.071996
0.690199 0.517500 0.071996
0.761393 0.517500 0.071996
0.832782 0.517500 0.071996
0.904349 0.517500 0.071996
0.976082 0.517500 0.071996
1.047969 0.517500 0.071996
1.120000 0.517500 0.071996
0.000000 0.575000 0.071996
0.064413 0.575000 0.071996
0.131533 0.575000 0.071996
0.199714 0.575000 0.071996
0.268594 0.575000 0.071996
0.337998 0.575000 0.071996
0.407822 0.575000 0.071996
0.477997 0.575000 0.071996
0.548475 0.575000 0.071996
0.619219 0.575000 0.071996
0.690199 0.575000 0.071996
0.761393 0.575000 0.071996
0.832782 0.575000 0.071996
0.904349 0.575000 0.071996
0.976082 0.575000 0.071996
1.047969 0.575000 0.071996
1.120000 0.575000 0.071996
0.000000 0.632500 0.071996
0.064413 0.632500 0.071996
0.131533 0.632500 0.071996
0.199714 0.632500 0.071996
0.268594 0.632500 0.071996
0.337998 0.632500 0.071996
0.407822 0.632500 0.071996
0.477997 0.632500 0.071996
0.548475 0.632500 0.071996
0.619219 0.632500 0.071996
0.690199 0.632500 0.071996
0.761393 0.632500 0.071996
0.832782 0.632500 0.071996
0.904349 0.632500 0.071996
0.976082 0.632500 0.071996
1.047969 0.632500 0.071996
1.120000 0.632500 0.071996
0.000000 0.690000 0.071996
0.064413 0.690000 0.071996
0.131533 0.690000 0.071996
0.199714 0.690000 0.071996
0.268594 0.690000 0.071996
0.337998 0.690000 0.071996
0.407822 0.690000 0.071996
0.477997 0.690000 0.071996
0.548475 0.690000 0.071996
0.619219 0.690000 0.071996
0.690199 0.690000 0.071996
0.761393 0.690000 0.071996
0.832782 0.690000 0.071996
0.904349 0.690000 0.071996
0.976082 0.690000 0.071996
1.047969 0.690000 0.071996
1.120000 0.690000 0.071996
0.000000 0.747500 0.071996
0.064413 0.747500 0.071996
0.131533 0.747500 0.071996
0.199714 0.747500 0.071996
0.268594 0.747500 0.071996
0.337998 0.747500 0.071996
0.407822 0.747500 0.071996
0.477997 0.747500 0.071996
0.548475 0.747500 0.071996
0.619219 0.747500 0.071996
0.690199 0.747500 0.071996
0.761393 0.747500 0.071996
0.832782 0.747500 0.071996
0.904349 0.747500 0.071996
0.976082 0.747500 0.071996
1.047969 0.747500 0.071996
1.120000 0.747500 0.071996
0.000000 0.805000 0.071996
0.064413 0.805000 0.071996
0.131533 0.805000 0.071996
0.199714 0.805000 0.071996
0.268594 0.805000 0.071996
0.337998 0.805000 0.071996
0.407822 0.805000 0.071996
0.477997 0.805000 0.071996
0.548475 0.805000 0.071996
0.619219 0.805000 0.071996
0.690199 0.805000 0.071996
0.761393 0.805000 0.071996
0.832782 0.805000 0.071996
0.904349 0.805000 0.071996
0.976082 0.805000 0.071996
1.047969 0.805000 0.071996
1.120000 0.805000 0.071996
0.000000 0.862500 0.071996
0.064413 0.862500 0.071996
0.131533 0.862500 0.071996
0.199714 0.862500 0.071996
0.268594 0.862500 0.071996
0.337998 0.862500 0.071996
0.407822 0.862500 0.071996
0.477997 0.862500 0.071996
0.548475 0.862500 0.071996
0.619219 0.862500 0.071996
0.690199 0.862500 0.071996
0.761393 0.862500 0.071996
0.832782 0.862500 0.071996
0.904349 0.862500 0.071996
0.976082 0.862500 0.071996
1.047969 0.862500 0.071996
1.120000 0.862500 0.071996
0.000000 0.920000 0.071996
0.064413 0.920000 0.071996
0.131533 0.920000 0.071996
0.199714 0.920000 0.071996
0.268594 0.920000 0.071996
0.337998 0.920000 0.071996
0.407822 0.920000 0.071996
0.477997 0.920000 0.071996
0.548475 0.920000 0.071996
0.619219 0.920000 0.071996
0.690199 0.920000 0.071996
0.761393 0.920000 0.071996
0.832782 0.920000 0.071996
0.904349 0.920000 0.071996
0.976082 0.920000 0.071996
1.047969 0.920000 0.071996
1.120000 0.920000 0.071996
0.000000 0.000000 0.141029
0.064413 0.000000 0.141029
0.131533 0.000000 0.141029
0.199714 0.000000 0.141029
0.268594 0.000000 0.141029
0.337998 0.000000 0.141029
0.407822 0.000000 0.141029
0.477997 0.000000 0.141029
0.548475 0.000000 0.141029
0.619219 0.000000 0.141029
0.690199 0.000000 0.141029
0.761393 0.000000 0.141029
0.832782 0.000000 0.141029
0.904349 0.000000 0.141029
0.976082 0.000000 0.141029
1.047969 0.000000 0.141029
1.120000 0.000000 0.141029
0.000000 0.057500 0.141029
0.064413 0.057500 0.141029
0.131533 0.057500 0.141029
0.199714 0.057500 0.141029
0.268594 0.057500 0.141029
0.337998 0.057500 0.141029
0.407822 0.057500 0.141029
0.477997 0.057500 0.141029
0.548475 0.057500 0.141029
0.619219 0.057500 0.141029
0.690199 0.057500 0.141029
0.761393 0.057500 0.141029
0.832782 0.057500 0.141029
0.904349 0.057500 0.141029
0.976082 0.057500 0.141029
1.047969 0.057500 0.141029
1.120000 0.057500 0.141029
0.000000 0.115000 0.141029
0.064413 0.115000 0.141029
0.131533 0.115000 0.141029
0.199714 0.115000 0.141029
0.268594 0.115000 0.141029
0.337998 0.115000 0.141029
0.407822 0.115000 0.141029
0.477997 0.115000 0.141029
0.548475 0.115000 0.141029
0.619219 0.115000 0.141029
0.690199 0.115000 0.141029
0.761393 0.115000 0.141029
0.832782 0.115000 0.141029
0.904349 0.115000 0.141029
0.976082 0.115000 0.141029
1.047969 0.115000 0.141029
1.120000 0.115000 0.141029
0.000000 0.172500 0.141029
0.064413 0.172500 0.141029
0.131533 0.172500 0.141029
0.199714 0.172500 0.141029
0.268594 0.172500 0.141029
0.337998 0.172500 0.141029
0.407822 0.172500 0.141029
0.477997 0.172500 0.141029
0.548475 0.172500 0.141029
0.619219 0.172500 0.141029
0.690199 0.172500 0.141029
0.761393 0.172500 0.141029
0.832782 0.172500 0.141029
0.904349 0.172500 0.141029
0.976082 0.172500 0.141029
1.047969 0.172500 0.141029
1.120000 0.172500 0.141029
0.000000 0.230000 0.141029
0.064413 0.230000 0.141029
0.131533 0.230000 0.141029
0.199714 0.230000 0.141029
0.268594 0.230000 0.141029
0.337998 0.230000 0.141029
0.407822 0.230000 0.141029
0.477997 0.230000 0.141029
0.548475 0.230000 0.141029
0.619219 0.230000 0.141029
0.690199 0.230000 0.141029
0.761393 0.230000 0.141029
0.832782 0.230000 0.141029
0.904349 0.230000 0.141029
0.976082 0.230000 0.141029
1.047969 0.230000 0.141029
1.120000 0.230000 0.141029
0.000000 0.287500 0.141029
0.064413 0.287500 0.141029
0.131533 0.287500 0.141029
0.199714 0.287500 0.141029
0.268594 0.287500 0.141029
0.337998 0.287500 0.141029
0.407822 0.287500 0.141029
0.477997 0.287500 0.141029
0.548475 0.287500 0.141029
0.619219 0.287500 0.141029
0.690199 0.287500 0.141029
0.761393 0.287500 0.141029
0.832782 0.287500 0.141029
0.904349 0.287500 0.141029
0.976082 0.287500 0.141029
1.047969 0.287500 0.141029
1.120000 0.287500 0.141029
0.000000 0.345000 0.141029
0.064413 0.345000 0.141029
0.131533 0.345000 0.141029
0.199714 0.345000 0.141029
0.268594 0.345000 0.141029
0.337998 0.345000 0.141029
0.407822 0.345000 0.141029
0.477997 0.345000 0.141029
0.548475 0.345000 0.141029
0.619219 0.345000 0.141029
0.690199 0.345000 0.141029
0.761393 0.345000 0.141029
0.832782 0.345000 0.141029
0.904349 0.345000 0.141029
0.976082 0.345000 0.141029
1.047969 0.345000 0.141029
1.120000 0.345000 0.141029
0.000000 0.402500 0.141029
0.064413 0.402500 0.141029
0.131533 0.402500 0.141029
0.199714 0.402500 0.141029
0.268594 0.402500 0.141029
0.337998 0.402500 0.141029
0.407822 0.402500 0.141029
0.477997 0.402500 0.141029
0.548475 0.402500 0.141029
0.619219 0.402500 0.141029
0.690199 0.402500 0.141029
0.761393 0.402500 0.141029
0.832782 0.402500 0.141029
0.904349 0.402500 0.141029
0.976082 0.402500 0.141029
1.047969 0.402500 0.141029
1.120000 0.402500 0.141029
0.000000 0.460000 0.141029
0.064413 0.460000 0.141029
0.131533 0.460000 0.141029
0.199714 0.460000 0.141029
0.268594 0.460000 0.141029
0.337998 0.460000 0.141029
0.407822 0.460000 0.141029
0.477997 0.460000 0.141029
0.548475 0.460000 0.141029
0.619219 0.460000 0.141029
0.690199 0.460000 0.141029
0.761393 0.460000 0.141029
0.832782 0.460000 0.141029
0.904349 0.460000 0.141029
0.976082 0.460000 0.141029
1.047969 0.460000 0.141029
1.120000 0.460000 0.141029
0.000000 0.517500 0.141029
0.064413 0.517500 0.141029
0.131533 0.517500 0.141029
0.199714 0.517500 0.141029
0.268594 0.517500 0.141029
0.337998 0.517500 0.141029
0.407822 0.517500 0.141029
0.477997 0.517500 0.141029
0.548475 0.517500 0.141029
0.619219 0.517500 0.141029
0.690199 0.517500 0.141029
0.761393 0.517500 0.141029
0.832782 0.517500 0.141029
0.904349 0.517500 0.141029
0.976082 0.517500 0.141029
1.047969 0.517500 0.141029
1.120000 0.517500 0.141029
0.000000 0.575000 0.141029
0.064413 0.575000 0.141029
0.131533 0.575000 0.141029
0.199714 0.575000 0.141029
0.268594 0.575000 0.141029
0.337998 0.575000 0.141029
0.407822 0.575000 0.141029
0.477997 0.575000 0.141029
0.548475 0.575000 0.141029
0.619219 0.575000 0.141029
0.690199 0.575000 0.141029
0.761393 0.575000 0.141029
0.832782 0.575000 0.141029
0.904349 0.575000 0.141029
0.976082 0.575000 0.141029
1.047969 0.575000 0.141029
1.120000 0.575000 0.141029
0.000000 0.632500 0.141029
0.064413 0.632500 0.141029
0.131533 0.632500 0.141029
0.199714 0.632500 0.141029
0.268594 0.632500 0.141029
0.337998 0.632500 0.141029
0.407822 0.632500 0.141029
0.477997 0.632500 0.141029
0.548475 0.632500 0.141029
0.619219 0.632500 0.141029
0.690199 0.632500 0.141029
0.761393 0.632500 0.141029
0.832782 0.632500 0.141029
0.904349 0.632500 0.141029
0.976082 0.632500 0.141029
1.047969 0.632500 0.141029
1.120000 0.632500 0.141029
0.000000 0.690000 0.141029
0.064413 0.690000 0.141029
0.131533 0.690000 0.141029
0.199714 0.690000 0.141029
0.268594 0.690000 0.141029
0.337998 0.690000 0.141029
0.407822 0.690000 0.141029
0.477997 0.690000 0.141029
0.548475 0.690000 0.141029
0.619219 0.690000 0.141029
0.690199 0.690000 0.141029
0.761393 0.690000 0.141029
0.832782 0.690000 0.141029
0.904349 0.690000 0.141029
0.976082 0.690000 0.141029
1.047969 0.690000 0.141029
1.120000 0.690000 0.141029
0.000000 0.747500 0.141029
0.064413 0.747500 0.141029
0.131533 0.747500 0.141029
0.199714 0.747500 0.141029
0.268594 0.747500 0.141029
0.337998 0.747500 0.141029
0.407822 0.747500 0.141029
0.477997 0.747500 0.141029
0.548475 0.747500 0.141029
0.619219 0.747500 0.141029
0.690199 0.747500 0.141029
0.761393 0.747500 0.141029
0.832782 0.747500 0.141029
0.904349 0.747500 0.141029
0.976082 0.747500 0.141029
1.047969 0.747500 0.141029
1.120000 0.747500 0.141029
0.000000 0.805000 0.141029
0.064413 0.805000 0.141029
0.131533 0.805000 0.141029
0.199714 0.805000 0.141029
0.268594 0.805000 0.141029
0.337998 0.805000 0.141029
0.407822 0.805000 0.141029
0.477997 0.805000 0.141029
0.548475 0.805000 0.141029
0.619219 0.805000 0.141029
0.690199 0.805000 0.141029
0.761393 0.805000 0.141029
0.832782 0.805000 0.141029
0.904349 0.805000 0.141029
0.976082 0.805000 0.141029
1.047969 0.805000 0.141029
1.120000 0.805000 0.141029
0.000000 0.862500 0.141029
0.064413 0.862500 0.141029
0.131533 0.862500 0.141029
0.199714 0.862500 0.141029
0.268594 0.862500 0.141029
0.337998 0.862500 0.141029
0.407822 0.862500 0.141029
0.477997 0.862500 0.141029
0.548475 0.862500 0.141029
0.619219 0.862500 0.141029
0.690199 0.862500 0.141029
0.761393 0.862500 0.141029
0.832782 0.862500 0.141029
0.904349 0.862500 0.141029
0.976082 0.862500 0.141029
1.047969 0.862500 0.141029
1.120000 0.862500 0.141029
0.000000 0.920000 0.141029
0.064413 0.920000 0.141029
0.131533 0.920000 0.141029
0.199714 0.920000 0.141029
0.268594 0.920000 0.141029
0.337998 0.920000 0.141029
0.407822 0.920000 0.141029
0.477997 0.920000 0.141029
0.548475 0.920000 0.141029
0.619219 0.920000 0.141029
0.690199 0.920000 0.141029
0.761393 0.920000 0.141029
0.832782 0.920000 0.141029
0.904349 0.920000 0.141029
0.976082 0.920000 0.141029
1.047969 0.920000 0.141029
1.120000 0.920000 0.141029
0.000000 0.000000 0.208986
0.064413 0.000000 0.208986
0.131533 0.000000 0.208986
0.199714 0.000000 0.208986
0.268594 0.000000 0.208986
0.337998 0.000000 0.208986
0.407822 0.000000 0.208986
0.477997 0.000000 0.208986
0.548475 0.000000 0.208986
0.619219 0.000000 0.208986
0.690199 0.000000 0.208986
0.761393 0.000000 0.208986
0.832782 0.000000 0.208986
0.904349 0.000000 0.208986
0.976082 0.000000 0.208986
1.047969 0.000000 0.208986
1.120000 0.000000 0.208986
0.000000 0.057500 0.208986
0.064413 0.057500 0.208986
