public/assets/luts/b04_penthouse.cube
TITLE "b04_penthouse"
LUT_3D_SIZE 5
DOMAIN_MIN 0 0 0
DOMAIN_MAX 1 1 1
0.000000 0.000000 0.000000
0.251807 0.000000 0.000000
0.514196 0.000000 0.000000
0.780733 0.000000 0.000000
1.050000 0.000000 0.000000
0.000000 0.245000 0.000000
0.251807 0.245000 0.000000
0.514196 0.245000 0.000000
0.780733 0.245000 0.000000
1.050000 0.245000 0.000000
0.000000 0.490000 0.000000
0.251807 0.490000 0.000000
0.514196 0.490000 0.000000
0.780733 0.490000 0.000000
1.050000 0.490000 0.000000
0.000000 0.735000 0.000000
0.251807 0.735000 0.000000
0.514196 0.735000 0.000000
0.780733 0.735000 0.000000
1.050000 0.735000 0.000000
0.000000 0.980000 0.000000
0.251807 0.980000 0.000000
0.514196 0.980000 0.000000
0.780733 0.980000 0.000000
1.050000 0.980000 0.000000
0.000000 0.000000 0.276253
0.251807 0.000000 0.276253
0.514196 0.000000 0.276253
0.780733 0.000000 0.276253
1.050000 0.000000 0.276253
0.000000 0.245000 0.276253
0.251807 0.245000 0.276253
0.514196 0.245000 0.276253
0.780733 0.245000 0.276253
1.050000 0.245000 0.276253
0.000000 0.490000 0.276253
0.251807 0.490000 0.276253
0.514196 0.490000 0.276253
0.780733 0.490000 0.276253
1.050000 0.490000 0.276253
0.000000 0.735000 0.276253
0.251807 0.735000 0.276253
0.514196 0.735000 0.276253
0.780733 0.735000 0.276253
1.050000 0.735000 0.276253
0.000000 0.980000 0.276253
0.251807 0.980000 0.276253
0.514196 0.980000 0.276253
0.780733 0.980000 0.276253
1.050000 0.980000 0.276253
0.000000 0.000000 0.541136
0.251807 0.000000 0.541136
0.514196 0.000000 0.541136
0.780733 0.000000 0.541136
1.050000 0.000000 0.541136
0.000000 0.245000 0.541136
0.251807 0.245000 0.541136
0.514196 0.245000 0.541136
0.780733 0.245000 0.541136
1.050000 0.245000 0.541136
0.000000 0.490000 0.541136
0.251807 0.490000 0.541136
0.514196 0.490000 0.541136
0.780733 0.490000 0.541136
1.050000 0.490000 0.541136
0.000000 0.735000 0.541136
0.251807 0.735000 0.541136
0.514196 0.735000 0.541136
0.780733 0.735000 0.541136
1.050000 0.735000 0.541136
0.000000 0.980000 0.541136
0.251807 0.980000 0.541136
0.514196 0.980000 0.541136
0.780733 0.980000 0.541136
1.050000 0.980000 0.541136
0.000000 0.000000 0.801891
0.251807 0.000000 0.801891
0.514196 0.000000 0.801891
0.780733 0.000000 0.801891
1.050000 0.000000 0.801891
0.000000 0.245000 0.801891
0.251807 0.245000 0.801891
0.514196 0.245000 0.801891
0.780733 0.245000 0.801891
1.050000 0.245000 0.801891
0.000000 0.490000 0.801891
0.251807 0.490000 0.801891
0.514196 0.490000 0.801891
0.780733 0.490000 0.801891
1.050000 0.490000 0.801891
0.000000 0.735000 0.801891
0.251807 0.735000 0.801891
0.514196 0.735000 0.801891
0.780733 0.735000 0.801891
1.050000 0.735000 0.801891
0.000000 0.980000 0.801891
0.251807 0.980000 0.801891
0.514196 0.980000 0.801891
0.780733 0.980000 0.801891
1.050000 0.980000 0.801891
0.000000 0.000000 1.060000
0.251807 0.000000 1.060000
0.514196 0.000000 1.060000
0.780733 0.000000 1.060000
1.050000 0.000000 1.060000
0.000000 0.245000 1.060000
0.251807 0.245000 1.060000
0.514196 0.245000 1.060000
0.780733 0.245000 1.060000
1.050000 0.245000 1.060000
0.000000 0.490000 1.060000
0.251807 0.490000 1.060000
0.514196 0.490000 1.060000
0.780733 0.490000 1.060000
1.050000 0.490000 1.060000
0.000000 0.735000 1.060000
0.251807 0.735000 1.060000
0.514196 0.735000 1.060000
0.780733 0.735000 1.060000
1.050000 0.735000 1.060000
0.000000 0.980000 1.060000
0.251807 0.980000 1.060000
0.514196 0.980000 1.060000
0.780733 0.980000 1.060000
1.050000 0.980000 1.060000
