public/assets/luts/b04_penthouse.cube
TITLE "b04_penthouse"
LUT_3D_SIZE 9
DOMAIN_MIN 0 0 0
DOMAIN_MAX 1 1 1
0.000000 0.000000 0.000000
0.123312 0.000000 0.000000
0.251807 0.000000 0.000000
0.382333 0.000000 0.000000
0.514196 0.000000 0.000000
0.647062 0.000000 0.000000
0.780733 0.000000 0.000000
0.915077 0.000000 0.000000
1.050000 0.000000 0.000000
0.000000 0.122500 0.000000
0.123312 0.122500 0.000000
0.251807 0.122500 0.000000
0.382333 0.122500 0.000000
0.514196 0.122500 0.000000
0.647062 0.122500 0.000000
0.780733 0.122500 0.000000
0.915077 0.122500 0.000000
1.050000 0.122500 0.000000
0.000000 0.245000 0.000000
0.123312 0.245000 0.000000
0.251807 0.245000 0.000000
0.382333 0.245000 0.000000
0.514196 0.245000 0.000000
0.647062 0.245000 0.000000
0.780733 0.245000 0.000000
0.915077 0.245000 0.000000
1.050000 0.245000 0.000000
0.000000 0.367500 0.000000
0.123312 0.367500 0.000000
0.251807 0.367500 0.000000
0.382333 0.367500 0.000000
0.514196 0.367500 0.000000
0.647062 0.367500 0.000000
0.780733 0.367500 0.000000
0.915077 0.367500 0.000000
1.050000 0.367500 0.000000
0.000000 0.490000 0.000000
0.123312 0.490000 0.000000
0.251807 0.490000 0.000000
0.382333 0.490000 0.000000
0.514196 0.490000 0.000000
0.647062 0.490000 0.000000
0.780733 0.490000 0.000000
0.915077 0.490000 0.000000
1.050000 0.490000 0.000000
0.000000 0.612500 0.000000
0.123312 0.612500 0.000000
0.251807 0.612500 0.000000
0.382333 0.612500 0.000000
0.514196 0.612500 0.000000
0.647062 0.612500 0.000000
0.780733 0.612500 0.000000
0.915077 0.612500 0.000000
1.050000 0.612500 0.000000
0.000000 0.735000 0.000000
0.123312 0.735000 0.000000
0.251807 0.735000 0.000000
0.382333 0.735000 0.000000
0.514196 0.735000 0.000000
0.647062 0.735000 0.000000
0.780733 0.735000 0.000000
0.915077 0.735000 0.000000
1.050000 0.735000 0.000000
0.000000 0.857500 0.000000
0.123312 0.857500 0.000000
0.251807 0.857500 0.000000
0.382333 0.857500 0.000000
0.514196 0.857500 0.000000
0.647062 0.857500 0.000000
0.780733 0.857500 0.000000
0.915077 0.857500 0.000000
1.050000 0.857500 0.000000
0.000000 0.980000 0.000000
0.123312 0.980000 0.000000
0.251807 0.980000 0.000000
0.382333 0.980000 0.000000
0.514196 0.980000 0.000000
0.647062 0.980000 0.000000
0.780733 0.980000 0.000000
0.915077 0.980000 0.000000
1.050000 0.980000 0.000000
0.000000 0.000000 0.141029
0.123312 0.000000 0.141029
0.251807 0.000000 0.141029
0.382333 0.000000 0.141029
0.514196 0.000000 0.141029
0.647062 0.000000 0.141029
0.780733 0.000000 0.141029
0.915077 0.000000 0.141029
1.050000 0.000000 0.141029
0.000000 0.122500 0.141029
0.123312 0.122500 0.141029
0.251807 0.122500 0.141029
0.382333 0.122500 0.141029
0.514196 0.122500 0.141029
0.647062 0.122500 0.141029
0.780733 0.122500 0.141029
0.915077 0.122500 0.141029
1.050000 0.122500 0.141029
0.000000 0.245000 0.141029
0.123312 0.245000 0.141029
0.251807 0.245000 0.141029
0.382333 0.245000 0.141029
0.514196 0.245000 0.141029
0.647062 0.245000 0.141029
0.780733 0.245000 0.141029
0.915077 0.245000 0.141029
1.050000 0.245000 0.141029
0.000000 0.367500 0.141029
0.123312 0.367500 0.141029
0.251807 0.367500 0.141029
0.382333 0.367500 0.141029
0.514196 0.367500 0.141029
0.647062 0.367500 0.141029
0.780733 0.367500 0.141029
0.915077 0.367500 0.141029
1.050000 0.367500 0.141029
0.000000 0.490000 0.141029
0.123312 0.490000 0.141029
0.251807 0.490000 0.141029
0.382333 0.490000 0.141029
0.514196 0.490000 0.141029
0.647062 0.490000 0.141029
0.780733 0.490000 0.141029
0.915077 0.490000 0.141029
1.050000 0.490000 0.141029
0.000000 0.612500 0.141029
0.123312 0.612500 0.141029
0.251807 0.612500 0.141029
0.382333 0.612500 0.141029
0.514196 0.612500 0.141029
0.647062 0.612500 0.141029
0.780733 0.612500 0.141029
0.915077 0.612500 0.141029
1.050000 0.612500 0.141029
0.000000 0.735000 0.141029
0.123312 0.735000 0.141029
0.251807 0.735000 0.141029
0.382333 0.735000 0.141029
0.514196 0.735000 0.141029
0.647062 0.735000 0.141029
0.780733 0.735000 0.141029
0.915077 0.735000 0.141029
1.050000 0.735000 0.141029
0.000000 0.857500 0.141029
0.123312 0.857500 0.141029
0.251807 0.857500 0.141029
0.382333 0.857500 0.141029
0.514196 0.857500 0.141029
0.647062 0.857500 0.141029
0.780733 0.857500 0.141029
0.915077 0.857500 0.141029
1.050000 0.857500 0.141029
0.000000 0.980000 0.141029
0.123312 0.980000 0.141029
0.251807 0.980000 0.141029
0.382333 0.980000 0.141029
0.514196 0.980000 0.141029
0.647062 0.980000 0.141029
0.780733 0.980000 0.141029
0.915077 0.980000 0.141029
1.050000 0.980000 0.141029
0.000000 0.000000 0.276253
0.123312 0.000000 0.276253
0.251807 0.000000 0.276253
0.382333 0.000000 0.276253
0.514196 0.000000 0.276253
0.647062 0.000000 0.276253
0.780733 0.000000 0.276253
0.915077 0.000000 0.276253
1.050000 0.000000 0.276253
0.000000 0.122500 0.276253
0.123312 0.122500 0.276253
0.251807 0.122500 0.276253
0.382333 0.122500 0.276253
0.514196 0.122500 0.276253
0.647062 0.122500 0.276253
0.780733 0.122500 0.276253
0.915077 0.122500 0.276253
1.050000 0.122500 0.276253
0.000000 0.245000 0.276253
0.123312 0.245000 0.276253
0.251807 0.245000 0.276253
0.382333 0.245000 0.276253
0.514196 0.245000 0.276253
0.647062 0.245000 0.276253
0.780733 0.245000 0.276253
0.915077 0.245000 0.276253
1.050000 0.245000 0.276253
0.000000 0.367500 0.276253
0.123312 0.367500 0.276253
0.251807 0.367500 0.276253
0.382333 0.367500 0.276253
0.514196 0.367500 0.276253
0.647062 0.367500 0.276253
0.780733 0.367500 0.276253
0.915077 0.367500 0.276253
1.050000 0.367500 0.276253
0.000000 0.490000 0.276253
0.123312 0.490000 0.276253
0.251807 0.490000 0.276253
0.382333 0.490000 0.276253
0.514196 0.490000 0.276253
0.647062 0.490000 0.276253
0.780733 0.490000 0.276253
0.915077 0.490000 0.276253
1.050000 0.490000 0.276253
0.000000 0.612500 0.276253
0.123312 0.612500 0.276253
0.251807 0.612500 0.276253
0.382333 0.612500 0.276253
0.514196 0.612500 0.276253
0.647062 0.612500 0.276253
0.780733 0.612500 0.276253
0.915077 0.612500 0.276253
1.050000 0.612500 0.276253
0.000000 0.735000 0.276253
0.123312 0.735000 0.276253
0.251807 0.735000 0.276253
0.382333 0.735000 0.276253
0.514196 0.735000 0.276253
0.647062 0.735000 0.276253
0.780733 0.735000 0.276253
0.915077 0.735000 0.276253
1.050000 0.735000 0.276253
0.000000 0.857500 0.276253
0.123312 0.857500 0.276253
0.251807 0.857500 0.276253
0.382333 0.857500 0.276253
0.514196 0.857500 0.276253
0.647062 0.857500 0.276253
0.780733 0.857500 0.276253
0.915077 0.857500 0.276253
1.050000 0.857500 0.276253
0.000000 0.980000 0.276253
0.123312 0.980000 0.276253
0.251807 0.980000 0.276253
0.382333 0.980000 0.276253
0.514196 0.980000 0.276253
0.647062 0.980000 0.276253
0.780733 0.980000 0.276253
0.915077 0.980000 0.276253
1.050000 0.980000 0.276253
0.000000 0.000000 0.409370
0.123312 0.000000 0.409370
0.251807 0.000000 0.409370
0.382333 0.000000 0.409370
0.514196 0.000000 0.409370
0.647062 0.000000 0.409370
0.780733 0.000000 0.409370
0.915077 0.000000 0.409370
1.050000 0.000000 0.409370
0.000000 0.122500 0.409370
0.123312 0.122500 0.409370
0.251807 0.122500 0.409370
0.382333 0.122500 0.409370
0.514196 0.122500 0.409370
0.647062 0.122500 0.409370
0.780733 0.122500 0.409370
0.915077 0.122500 0.409370
1.050000 0.122500 0.409370
0.000000 0.245000 0.409370
0.123312 0.245000 0.409370
0.251807 0.245000 0.409370
0.382333 0.245000 0.409370
0.514196 0.245000 0.409370
0.647062 0.245000 0.409370
0.780733 0.245000 0.409370
0.915077 0.245000 0.409370
1.050000 0.245000 0.409370
0.000000 0.367500 0.409370
0.123312 0.367500 0.409370
0.251807 0.367500 0.409370
0.382333 0.367500 0.409370
0.514196 0.367500 0.409370
0.647062 0.367500 0.409370
0.780733 0.367500 0.409370
0.915077 0.367500 0.409370
1.050000 0.367500 0.409370
0.000000 0.490000 0.409370
0.123312 0.490000 0.409370
0.251807 0.490000 0.409370
0.382333 0.490000 0.409370
0.514196 0.490000 0.409370
0.647062 0.490000 0.409370
0.780733 0.490000 0.409370
0.915077 0.490000 0.409370
1.050000 0.490000 0.409370
0.000000 0.612500 0.409370
0.123312 0.612500 0.409370
0.251807 0.612500 0.409370
0.382333 0.612500 0.409370
0.514196 0.612500 0.409370
0.647062 0.612500 0.409370
0.780733 0.612500 0.409370
0.915077 0.612500 0.409370
1.050000 0.612500 0.409370
0.000000 0.735000 0.409370
0.123312 0.735000 0.409370
0.251807 0.735000 0.409370
0.382333 0.735000 0.409370
0.514196 0.735000 0.409370
0.647062 0.735000 0.409370
0.780733 0.735000 0.409370
0.915077 0.735000 0.409370
1.050000 0.735000 0.409370
0.000000 0.857500 0.409370
0.123312 0.857500 0.409370
0.251807 0.857500 0.409370
0.382333 0.857500 0.409370
0.514196 0.857500 0.409370
0.647062 0.857500 0.409370
0.780733 0.857500 0.409370
0.915077 0.857500 0.409370
1.050000 0.857500 0.409370
0.000000 0.980000 0.409370
0.123312 0.980000 0.409370
0.251807 0.980000 0.409370
0.382333 0.980000 0.409370
0.514196 0.980000 0.409370
0.647062 0.980000 0.409370
0.780733 0.980000 0.409370
0.915077 0.980000 0.409370
1.050000 0.980000 0.409370
0.000000 0.000000 0.541136
0.123312 0.000000 0.541136
0.251807 0.000000 0.541136
0.382333 0.000000 0.541136
0.514196 0.000000 0.541136
0.647062 0.000000 0.541136
0.780733 0.000000 0.541136
0.915077 0.000000 0.541136
1.050000 0.000000 0.541136
0.000000 0.122500 0.541136
0.123312 0.122500 0.541136
0.251807 0.122500 0.541136
0.382333 0.122500 0.541136
0.514196 0.122500 0.541136
0.647062 0.122500 0.541136
0.780733 0.122500 0.541136
0.915077 0.122500 0.541136
1.050000 0.122500 0.541136
0.000000 0.245000 0.541136
0.123312 0.245000 0.541136
0.251807 0.245000 0.541136
0.382333 0.245000 0.541136
0.514196 0.245000 0.541136
0.647062 0.245000 0.541136
0.780733 0.245000 0.541136
0.915077 0.245000 0.541136
1.050000 0.245000 0.541136
0.000000 0.367500 0.541136
0.123312 0.367500 0.541136
0.251807 0.367500 0.541136
0.382333 0.367500 0.541136
0.514196 0.367500 0.541136
0.647062 0.367500 0.541136
0.780733 0.367500 0.541136
0.915077 0.367500 0.541136
1.050000 0.367500 0.541136
0.000000 0.490000 0.541136
0.123312 0.490000 0.541136
0.251807 0.490000 0.541136
0.382333 0.490000 0.541136
0.514196 0.490000 0.541136
0.647062 0.490000 0.541136
0.780733 0.490000 0.541136
0.915077 0.490000 0.541136
1.050000 0.490000 0.541136
0.000000 0.612500 0.541136
0.123312 0.612500 0.541136
0.251807 0.612500 0.541136
0.382333 0.612500 0.541136
0.514196 0.612500 0.541136
0.647062 0.612500 0.541136
0.780733 0.612500 0.541136
0.915077 0.612500 0.541136
1.050000 0.612500 0.541136
0.000000 0.735000 0.541136
0.123312 0.735000 0.541136
0.251807 0.735000 0.541136
0.382333 0.735000 0.541136
0.514196 0.735000 0.541136
0.647062 0.735000 0.541136
0.780733 0.735000 0.541136
0.915077 0.735000 0.541136
1.050000 0.735000 0.541136
0.000000 0.857500 0.541136
0.123312 0.857500 0.541136
0.251807 0.857500 0.541136
0.382333 0.857500 0.541136
0.514196 0.857500 0.541136
0.647062 0.857500 0.541136
0.780733 0.857500 0.541136
0.915077 0.857500 0.541136
1.050000 0.857500 0.541136
0.000000 0.980000 0.541136
0.123312 0.980000 0.541136
0.251807 0.980000 0.541136
0.382333 0.980000 0.541136
0.514196 0.980000 0.541136
0.647062 0.980000 0.541136
0.780733 0.980000 0.541136
0.915077 0.980000 0.541136
1.050000 0.980000 0.541136
0.000000 0.000000 0.671907
0.123312 0.000000 0.671907
0.251807 0.000000 0.671907
0.382333 0.000000 0.671907
0.514196 0.000000 0.671907
0.647062 0.000000 0.671907
0.780733 0.000000 0.671907
0.915077 0.000000 0.671907
1.050000 0.000000 0.671907
0.000000 0.122500 0.671907
0.123312 0.122500 0.671907
0.251807 0.122500 0.671907
0.382333 0.122500 0.671907
0.514196 0.122500 0.671907
0.647062 0.122500 0.671907
0.780733 0.122500 0.671907
0.915077 0.122500 0.671907
1.050000 0.122500 0.671907
0.000000 0.245000 0.671907
0.123312 0.245000 0.671907
0.251807 0.245000 0.671907
0.382333 0.245000 0.671907
0.514196 0.245000 0.671907
0.647062 0.245000 0.671907
0.780733 0.245000 0.671907
0.915077 0.245000 0.671907
1.050000 0.245000 0.671907
0.000000 0.367500 0.671907
0.123312 0.367500 0.671907
0.251807 0.367500 0.671907
0.382333 0.367500 0.671907
0.514196 0.367500 0.671907
0.647062 0.367500 0.671907
0.780733 0.367500 0.671907
0.915077 0.367500 0.671907
1.050000 0.367500 0.671907
0.000000 0.490000 0.671907
0.123312 0.490000 0.671907
0.251807 0.490000 0.671907
0.382333 0.490000 0.671907
0.514196 0.490000 0.671907
0.647062 0.490000 0.671907
0.780733 0.490000 0.671907
0.915077 0.490000 0.671907
1.050000 0.490000 0.671907
0.000000 0.612500 0.671907
0.123312 0.612500 0.671907
0.251807 0.612500 0.671907
0.382333 0.612500 0.671907
0.514196 0.612500 0.671907
0.647062 0.612500 0.671907
0.780733 0.612500 0.671907
0.915077 0.612500 0.671907
1.050000 0.612500 0.671907
0.000000 0.735000 0.671907
0.123312 0.735000 0.671907
0.251807 0.735000 0.671907
0.382333 0.735000 0.671907
0.514196 0.735000 0.671907
0.647062 0.735000 0.671907
0.780733 0.735000 0.671907
0.915077 0.735000 0.671907
1.050000 0.735000 0.671907
0.000000 0.857500 0.671907
0.123312 0.857500 0.671907
0.251807 0.857500 0.671907
0.382333 0.857500 0.671907
0.514196 0.857500 0.671907
0.647062 0.857500 0.671907
0.780733 0.857500 0.671907
0.915077 0.857500 0.671907
1.050000 0.857500 0.671907
0.000000 0.980000 0.671907
0.123312 0.980000 0.671907
0.251807 0.980000 0.671907
0.382333 0.980000 0.671907
0.514196 0.980000 0.671907
0.647062 0.980000 0.671907
0.780733 0.980000 0.671907
0.915077 0.980000 0.671907
1.050000 0.980000 0.671907
0.000000 0.000000 0.801891
0.123312 0.000000 0.801891
0.251807 0.000000 0.801891
0.382333 0.000000 0.801891
0.514196 0.000000 0.801891
0.647062 0.000000 0.801891
0.780733 0.000000 0.801891
0.915077 0.000000 0.801891
1.050000 0.000000 0.801891
0.000000 0.122500 0.801891
0.123312 0.122500 0.801891
0.251807 0.122500 0.801891
0.382333 0.122500 0.801891
0.514196 0.122500 0.801891
0.647062 0.122500 0.801891
0.780733 0.122500 0.801891
0.915077 0.122500 0.801891
1.050000 0.122500 0.801891
0.000000 0.245000 0.801891
0.123312 0.245000 0.801891
0.251807 0.245000 0.801891
0.382333 0.245000 0.801891
0.514196 0.245000 0.801891
0.647062 0.245000 0.801891
0.780733 0.245000 0.801891
0.915077 0.245000 0.801891
1.050000 0.245000 0.801891
0.000000 0.367500 0.801891
0.123312 0.367500 0.801891
0.251807 0.367500 0.801891
0.382333 0.367500 0.801891
0.514196 0.367500 0.801891
0.647062 0.367500 0.801891
0.780733 0.367500 0.801891
0.915077 0.367500 0.801891
1.050000 0.367500 0.801891
0.000000 0.490000 0.801891
0.123312 0.490000 0.801891
0.251807 0.490000 0.801891
0.382333 0.490000 0.801891
0.514196 0.490000 0.801891
0.647062 0.490000 0.801891
0.780733 0.490000 0.801891
0.915077 0.490000 0.801891
1.050000 0.490000 0.801891
0.000000 0.612500 0.801891
0.123312 0.612500 0.801891
0.251807 0.612500 0.801891
0.382333 0.612500 0.801891
0.514196 0.612500 0.801891
0.647062 0.612500 0.801891
0.780733 0.612500 0.801891
0.915077 0.612500 0.801891
1.050000 0.612500 0.801891
0.000000 0.735000 0.801891
0.123312 0.735000 0.801891
0.251807 0.735000 0.801891
0.382333 0.735000 0.801891
0.514196 0.735000 0.801891
0.647062 0.735000 0.801891
0.780733 0.735000 0.801891
0.915077 0.735000 0.801891
1.050000 0.735000 0.801891
0.000000 0.857500 0.801891
0.123312 0.857500 0.801891
0.251807 0.857500 0.801891
0.382333 0.857500 0.801891
0.514196 0.857500 0.801891
0.647062 0.857500 0.801891
0.780733 0.857500 0.801891
0.915077 0.857500 0.801891
1.050000 0.857500 0.801891
0.000000 0.980000 0.801891
0.123312 0.980000 0.801891
0.251807 0.980000 0.801891
0.382333 0.980000 0.801891
0.514196 0.980000 0.801891
0.647062 0.980000 0.801891
0.780733 0.980000 0.801891
0.915077 0.980000 0.801891
1.050000 0.980000 0.801891
0.000000 0.000000 0.931223
0.123312 0.000000 0.931223
0.251807 0.000000 0.931223
0.382333 0.000000 0.931223
0.514196 0.000000 0.931223
0.647062 0.000000 0.931223
0.780733 0.000000 0.931223
0.915077 0.000000 0.931223
1.050000 0.000000 0.931223
0.000000 0.122500 0.931223
0.123312 0.122500 0.931223
0.251807 0.122500 0.931223
0.382333 0.122500 0.931223
0.514196 0.122500 0.931223
0.647062 0.122500 0.931223
0.780733 0.122500 0.931223
0.915077 0.122500 0.931223
1.050000 0.122500 0.931223
0.000000 0.245000 0.931223
0.123312 0.245000 0.931223
0.251807 0.245000 0.931223
0.382333 0.245000 0.931223
0.514196 0.245000 0.931223
0.647062 0.245000 0.931223
0.780733 0.245000 0.931223
0.915077 0.245000 0.931223
1.050000 0.245000 0.931223
0.000000 0.367500 0.931223
0.123312 0.367500 0.931223
0.251807 0.367500 0.931223
0.382333 0.367500 0.931223
0.514196 0.367500 0.931223
0.647062 0.367500 0.931223
0.780733 0.367500 0.931223
0.915077 0.367500 0.931223
1.050000 0.367500 0.931223
0.000000 0.490000 0.931223
0.123312 0.490000 0.931223
0.251807 0.490000 0.931223
0.382333 0.490000 0.931223
0.514196 0.490000 0.931223
0.647062 0.490000 0.931223
0.780733 0.490000 0.931223
0.915077 0.490000 0.931223
1.050000 0.490000 0.931223
0.000000 0.612500 0.931223
0.123312 0.612500 0.931223
0.251807 0.612500 0.931223
0.382333 0.612500 0.931223
0.514196 0.612500 0.931223
0.647062 0.612500 0.931223
0.780733 0.612500 0.931223
0.915077 0.612500 0.931223
1.050000 0.612500 0.931223
0.000000 0.735000 0.931223
0.123312 0.735000 0.931223
0.251807 0.735000 0.931223
0.382333 0.735000 0.931223
0.514196 0.735000 0.931223
0.647062 0.735000 0.931223
0.780733 0.735000 0.931223
0.915077 0.735000 0.931223
1.050000 0.735000 0.931223
0.000000 0.857500 0.931223
0.123312 0.857500 0.931223
0.251807 0.857500 0.931223
0.382333 0.857500 0.931223
0.514196 0.857500 0.931223
0.647062 0.857500 0.931223
0.780733 0.857500 0.931223
0.915077 0.857500 0.931223
1.050000 0.857500 0.931223
0.000000 0.980000 0.931223
0.123312 0.980000 0.931223
0.251807 0.980000 0.931223
0.382333 0.980000 0.931223
0.514196 0.980000 0.931223
0.647062 0.980000 0.931223
0.780733 0.980000 0.931223
0.915077 0.980000 0.931223
1.050000 0.980000 0.931223
0.000000 0.000000 1.060000
0.123312 0.000000 1.060000
0.251807 0.000000 1.060000
0.382333 0.000000 1.060000
0.514196 0.000000 1.060000
0.647062 0.000000 1.060000
0.780733 0.000000 1.060000
0.915077 0.000000 1.060000
1.050000 0.000000 1.060000
0.000000 0.122500 1.060000
0.123312 0.122500 1.060000
0.251807 0.122500 1.060000
0.382333 0.122500 1.060000
0.514196 0.122500 1.060000
0.647062 0.122500 1.060000
0.780733 0.122500 1.060000
0.915077 0.122500 1.060000
1.050000 0.122500 1.060000
0.000000 0.245000 1.060000
0.123312 0.245000 1.060000
0.251807 0.245000 1.060000
0.382333 0.245000 1.060000
0.514196 0.245000 1.060000
0.647062 0.245000 1.060000
0.780733 0.245000 1.060000
0.915077 0.245000 1.060000
1.050000 0.245000 1.060000
0.000000 0.367500 1.060000
0.123312 0.367500 1.060000
0.251807 0.367500 1.060000
0.382333 0.367500 1.060000
0.514196 0.367500 1.060000
0.647062 0.367500 1.060000
0.780733 0.367500 1.060000
0.915077 0.367500 1.060000
1.050000 0.367500 1.060000
0.000000 0.490000 1.060000
0.123312 0.490000 1.060000
0.251807 0.490000 1.060000
0.382333 0.490000 1.060000
0.514196 0.490000 1.060000
0.647062 0.490000 1.060000
0.780733 0.490000 1.060000
0.915077 0.490000 1.060000
1.050000 0.490000 1.060000
0.000000 0.612500 1.060000
0.123312 0.612500 1.060000
0.251807 0.612500 1.060000
0.382333 0.612500 1.060000
0.514196 0.612500 1.060000
0.647062 0.612500 1.060000
0.780733 0.612500 1.060000
0.915077 0.612500 1.060000
1.050000 0.612500 1.060000
0.000000 0.735000 1.060000
0.123312 0.735000 1.060000
0.251807 0.735000 1.060000
0.382333 0.735000 1.060000
0.514196 0.735000 1.060000
0.647062 0.735000 1.060000
0.780733 0.735000 1.060000
0.915077 0.735000 1.060000
1.050000 0.735000 1.060000
0.000000 0.857500 1.060000
0.123312 0.857500 1.060000
0.251807 0.857500 1.060000
0.382333 0.857500 1.060000
0.514196 0.857500 1.060000
0.647062 0.857500 1.060000
0.780733 0.857500 1.060000
0.915077 0.857500 1.060000
1.050000 0.857500 1.060000
0.000000 0.980000 1.060000
0.123312 0.980000 1.060000
0.251807 0.980000 1.060000
0.382333 0.980000 1.060000
0.514196 0.980000 1.060000
0.647062 0.980000 1.060000
0.780733 0.980000 1.060000
0.915077 0.980000 1.060000
1.050000 0.980000 1.060000
