public/assets/luts/b04_penthouse.cube
TITLE "b04_penthouse"
LUT_3D_SIZE 17
DOMAIN_MIN 0 0 0
DOMAIN_MAX 1 1 1
0.000000 0.000000 0.000000
0.060387 0.000000 0.000000
0.123312 0.000000 0.000000
0.187232 0.000000 0.000000
0.251807 0.000000 0.000000
0.316873 0.000000 0.000000
0.382333 0.000000 0.000000
0.448122 0.000000 0.000000
0.514196 0.000000 0.000000
0.580518 0.000000 0.000000
0.647062 0.000000 0.000000
0.713806 0.000000 0.000000
0.780733 0.000000 0.000000
0.847827 0.000000 0.000000
0.915077 0.000000 0.000000
0.982471 0.000000 0.000000
1.050000 0.000000 0.000000
0.000000 0.061250 0.000000
0.060387 0.061250 0.000000
0.123312 0.061250 0.000000
0.187232 0.061250 0.000000
0.251807 0.061250 0.000000
0.316873 0.061250 0.000000
0.382333 0.061250 0.000000
0.448122 0.061250 0.000000
0.514196 0.061250 0.000000
0.580518 0.061250 0.000000
0.647062 0.061250 0.000000
0.713806 0.061250 0.000000
0.780733 0.061250 0.000000
0.847827 0.061250 0.000000
0.915077 0.061250 0.000000
0.982471 0.061250 0.000000
1.050000 0.061250 0.000000
0.000000 0.122500 0.000000
0.060387 0.122500 0.000000
0.123312 0.122500 0.000000
0.187232 0.122500 0.000000
0.251807 0.122500 0.000000
0.316873 0.122500 0.000000
0.382333 0.122500 0.000000
0.448122 0.122500 0.000000
0.514196 0.122500 0.000000
0.580518 0.122500 0.000000
0.647062 0.122500 0.000000
0.713806 0.122500 0.000000
0.780733 0.122500 0.000000
0.847827 0.122500 0.000000
0.915077 0.122500 0.000000
0.982471 0.122500 0.000000
1.050000 0.122500 0.000000
0.000000 0.183750 0.000000
0.060387 0.183750 0.000000
0.123312 0.183750 0.000000
0.187232 0.183750 0.000000
0.251807 0.183750 0.000000
0.316873 0.183750 0.000000
0.382333 0.183750 0.000000
0.448122 0.183750 0.000000
0.514196 0.183750 0.000000
0.580518 0.183750 0.000000
0.647062 0.183750 0.000000
0.713806 0.183750 0.000000
0.780733 0.183750 0.000000
0.847827 0.183750 0.000000
0.915077 0.183750 0.000000
0.982471 0.183750 0.000000
1.050000 0.183750 0.000000
0.000000 0.245000 0.000000
0.060387 0.245000 0.000000
0.123312 0.245000 0.000000
0.187232 0.245000 0.000000
0.251807 0.245000 0.000000
0.316873 0.245000 0.000000
0.382333 0.245000 0.000000
0.448122 0.245000 0.000000
0.514196 0.245000 0.000000
0.580518 0.245000 0.000000
0.647062 0.245000 0.000000
0.713806 0.245000 0.000000
0.780733 0.245000 0.000000
0.847827 0.245000 0.000000
0.915077 0.245000 0.000000
0.982471 0.245000 0.000000
1.050000 0.245000 0.000000
0.000000 0.306250 0.000000
0.060387 0.306250 0.000000
0.123312 0.306250 0.000000
0.187232 0.306250 0.000000
0.251807 0.306250 0.000000
0.316873 0.306250 0.000000
0.382333 0.306250 0.000000
0.448122 0.306250 0.000000
0.514196 0.306250 0.000000
0.580518 0.306250 0.000000
0.647062 0.306250 0.000000
0.713806 0.306250 0.000000
0.780733 0.306250 0.000000
0.847827 0.306250 0.000000
0.915077 0.306250 0.000000
0.982471 0.306250 0.000000
1.050000 0.306250 0.000000
0.000000 0.367500 0.000000
0.060387 0.367500 0.000000
0.123312 0.367500 0.000000
0.187232 0.367500 0.000000
0.251807 0.367500 0.000000
0.316873 0.367500 0.000000
0.382333 0.367500 0.000000
0.448122 0.367500 0.000000
0.514196 0.367500 0.000000
0.580518 0.367500 0.000000
0.647062 0.367500 0.000000
0.713806 0.367500 0.000000
0.780733 0.367500 0.000000
0.847827 0.367500 0.000000
0.915077 0.367500 0.000000
0.982471 0.367500 0.000000
1.050000 0.367500 0.000000
0.000000 0.428750 0.000000
0.060387 0.428750 0.000000
0.123312 0.428750 0.000000
0.187232 0.428750 0.000000
0.251807 0.428750 0.000000
0.316873 0.428750 0.000000
0.382333 0.428750 0.000000
0.448122 0.428750 0.000000
0.514196 0.428750 0.000000
0.580518 0.428750 0.000000
0.647062 0.428750 0.000000
0.713806 0.428750 0.000000
0.780733 0.428750 0.000000
0.847827 0.428750 0.000000
0.915077 0.428750 0.000000
0.982471 0.428750 0.000000
1.050000 0.428750 0.000000
0.000000 0.490000 0.000000
0.060387 0.490000 0.000000
0.123312 0.490000 0.000000
0.187232 0.490000 0.000000
0.251807 0.490000 0.000000
0.316873 0.490000 0.000000
0.382333 0.490000 0.000000
0.448122 0.490000 0.000000
0.514196 0.490000 0.000000
0.580518 0.490000 0.000000
0.647062 0.490000 0.000000
0.713806 0.490000 0.000000
0.780733 0.490000 0.000000
0.847827 0.490000 0.000000
0.915077 0.490000 0.000000
0.982471 0.490000 0.000000
1.050000 0.490000 0.000000
0.000000 0.551250 0.000000
0.060387 0.551250 0.000000
0.123312 0.551250 0.000000
0.187232 0.551250 0.000000
0.251807 0.551250 0.000000
0.316873 0.551250 0.000000
0.382333 0.551250 0.000000
0.448122 0.551250 0.000000
0.514196 0.551250 0.000000
0.580518 0.551250 0.000000
0.647062 0.551250 0.000000
0.713806 0.551250 0.000000
0.780733 0.551250 0.000000
0.847827 0.551250 0.000000
0.915077 0.551250 0.000000
0.982471 0.551250 0.000000
1.050000 0.551250 0.000000
0.000000 0.612500 0.000000
0.060387 0.612500 0.000000
0.123312 0.612500 0.000000
0.187232 0.612500 0.000000
0.251807 0.612500 0.000000
0.316873 0.612500 0.000000
0.382333 0.612500 0.000000
0.448122 0.612500 0.000000
0.514196 0.612500 0.000000
0.580518 0.612500 0.000000
0.647062 0.612500 0.000000
0.713806 0.612500 0.000000
0.780733 0.612500 0.000000
0.847827 0.612500 0.000000
0.915077 0.612500 0.000000
0.982471 0.612500 0.000000
1.050000 0.612500 0.000000
0.000000 0.673750 0.000000
0.060387 0.673750 0.000000
0.123312 0.673750 0.000000
0.187232 0.673750 0.000000
0.251807 0.673750 0.000000
0.316873 0.673750 0.000000
0.382333 0.673750 0.000000
0.448122 0.673750 0.000000
0.514196 0.673750 0.000000
0.580518 0.673750 0.000000
0.647062 0.673750 0.000000
0.713806 0.673750 0.000000
0.780733 0.673750 0.000000
0.847827 0.673750 0.000000
0.915077 0.673750 0.000000
0.982471 0.673750 0.000000
1.050000 0.673750 0.000000
0.000000 0.735000 0.000000
0.060387 0.735000 0.000000
0.123312 0.735000 0.000000
0.187232 0.735000 0.000000
0.251807 0.735000 0.000000
0.316873 0.735000 0.000000
0.382333 0.735000 0.000000
0.448122 0.735000 0.000000
0.514196 0.735000 0.000000
0.580518 0.735000 0.000000
0.647062 0.735000 0.000000
0.713806 0.735000 0.000000
0.780733 0.735000 0.000000
0.847827 0.735000 0.000000
0.915077 0.735000 0.000000
0.982471 0.735000 0.000000
1.050000 0.735000 0.000000
0.000000 0.796250 0.000000
0.060387 0.796250 0.000000
0.123312 0.796250 0.000000
0.187232 0.796250 0.000000
0.251807 0.796250 0.000000
0.316873 0.796250 0.000000
0.382333 0.796250 0.000000
0.448122 0.796250 0.000000
0.514196 0.796250 0.000000
0.580518 0.796250 0.000000
0.647062 0.796250 0.000000
0.713806 0.796250 0.000000
0.780733 0.796250 0.000000
0.847827 0.796250 0.000000
0.915077 0.796250 0.000000
0.982471 0.796250 0.000000
1.050000 0.796250 0.000000
0.000000 0.857500 0.000000
0.060387 0.857500 0.000000
0.123312 0.857500 0.000000
0.187232 0.857500 0.000000
0.251807 0.857500 0.000000
0.316873 0.857500 0.000000
0.382333 0.857500 0.000000
0.448122 0.857500 0.000000
0.514196 0.857500 0.000000
0.580518 0.857500 0.000000
0.647062 0.857500 0.000000
0.713806 0.857500 0.000000
0.780733 0.857500 0.000000
0.847827 0.857500 0.000000
0.915077 0.857500 0.000000
0.982471 0.857500 0.000000
1.050000 0.857500 0.000000
0.000000 0.918750 0.000000
0.060387 0.918750 0.000000
0.123312 0.918750 0.000000
0.187232 0.918750 0.000000
0.251807 0.918750 0.000000
0.316873 0.918750 0.000000
0.382333 0.918750 0.000000
0.448122 0.918750 0.000000
0.514196 0.918750 0.000000
0.580518 0.918750 0.000000
0.647062 0.918750 0.000000
0.713806 0.918750 0.000000
0.780733 0.918750 0.000000
0.847827 0.918750 0.000000
0.915077 0.918750 0.000000
0.982471 0.918750 0.000000
1.050000 0.918750 0.000000
0.000000 0.980000 0.000000
0.060387 0.980000 0.000000
0.123312 0.980000 0.000000
0.187232 0.980000 0.000000
0.251807 0.980000 0.000000
0.316873 0.980000 0.000000
0.382333 0.980000 0.000000
0.448122 0.980000 0.000000
0.514196 0.980000 0.000000
0.580518 0.980000 0.000000
0.647062 0.980000 0.000000
0.713806 0.980000 0.000000
0.780733 0.980000 0.000000
0.847827 0.980000 0.000000
0.915077 0.980000 0.000000
0.982471 0.980000 0.000000
1.050000 0.980000 0.000000
0.000000 0.000000 0.071996
0.060387 0.000000 0.071996
0.123312 0.000000 0.071996
0.187232 0.000000 0.071996
0.251807 0.000000 0.071996
0.316873 0.000000 0.071996
0.382333 0.000000 0.071996
0.448122 0.000000 0.071996
0.514196 0.000000 0.071996
0.580518 0.000000 0.071996
0.647062 0.000000 0.071996
0.713806 0.000000 0.071996
0.780733 0.000000 0.071996
0.847827 0.000000 0.071996
0.915077 0.000000 0.071996
0.982471 0.000000 0.071996
1.050000 0.000000 0.071996
0.000000 0.061250 0.071996
0.060387 0.061250 0.071996
0.123312 0.061250 0.071996
0.187232 0.061250 0.071996
0.251807 0.061250 0.071996
0.316873 0.061250 0.071996
0.382333 0.061250 0.071996
0.448122 0.061250 0.071996
0.514196 0.061250 0.071996
0.580518 0.061250 0.071996
0.647062 0.061250 0.071996
0.713806 0.061250 0.071996
0.780733 0.061250 0.071996
0.847827 0.061250 0.071996
0.915077 0.061250 0.071996
0.982471 0.061250 0.071996
1.050000 0.061250 0.071996
0.000000 0.122500 0.071996
0.060387 0.122500 0.071996
0.123312 0.122500 0.071996
0.187232 0.122500 0.071996
0.251807 0.122500 0.071996
0.316873 0.122500 0.071996
0.382333 0.122500 0.071996
0.448122 0.122500 0.071996
0.514196 0.122500 0.071996
0.580518 0.122500 0.071996
0.647062 0.122500 0.071996
0.713806 0.122500 0.071996
0.780733 0.122500 0.071996
0.847827 0.122500 0.071996
0.915077 0.122500 0.071996
0.982471 0.122500 0.071996
1.050000 0.122500 0.071996
0.000000 0.183750 0.071996
0.060387 0.183750 0.071996
0.123312 0.183750 0.071996
0.187232 0.183750 0.071996
0.251807 0.183750 0.071996
0.316873 0.183750 0.071996
0.382333 0.183750 0.071996
0.448122 0.183750 0.071996
0.514196 0.183750 0.071996
0.580518 0.183750 0.071996
0.647062 0.183750 0.071996
0.713806 0.183750 0.071996
0.780733 0.183750 0.071996
0.847827 0.183750 0.071996
0.915077 0.183750 0.071996
0.982471 0.183750 0.071996
1.050000 0.183750 0.071996
0.000000 0.245000 0.071996
0.060387 0.245000 0.071996
0.123312 0.245000 0.071996
0.187232 0.245000 0.071996
0.251807 0.245000 0.071996
0.316873 0.245000 0.071996
0.382333 0.245000 0.071996
0.448122 0.245000 0.071996
0.514196 0.245000 0.071996
0.580518 0.245000 0.071996
0.647062 0.245000 0.071996
0.713806 0.245000 0.071996
0.780733 0.245000 0.071996
0.847827 0.245000 0.071996
0.915077 0.245000 0.071996
0.982471 0.245000 0.071996
1.050000 0.245000 0.071996
0.000000 0.306250 0.071996
0.060387 0.306250 0.071996
0.123312 0.306250 0.071996
0.187232 0.306250 0.071996
0.251807 0.306250 0.071996
0.316873 0.306250 0.071996
0.382333 0.306250 0.071996
0.448122 0.306250 0.071996
0.514196 0.306250 0.071996
0.580518 0.306250 0.071996
0.647062 0.306250 0.071996
0.713806 0.306250 0.071996
0.780733 0.306250 0.071996
0.847827 0.306250 0.071996
0.915077 0.306250 0.071996
0.982471 0.306250 0.071996
1.050000 0.306250 0.071996
0.000000 0.367500 0.071996
0.060387 0.367500 0.071996
0.123312 0.367500 0.071996
0.187232 0.367500 0.071996
0.251807 0.367500 0.071996
0.316873 0.367500 0.071996
0.382333 0.367500 0.071996
0.448122 0.367500 0.071996
0.514196 0.367500 0.071996
0.580518 0.367500 0.071996
0.647062 0.367500 0.071996
0.713806 0.367500 0.071996
0.780733 0.367500 0.071996
0.847827 0.367500 0.071996
0.915077 0.367500 0.071996
0.982471 0.367500 0.071996
1.050000 0.367500 0.071996
0.000000 0.428750 0.071996
0.060387 0.428750 0.071996
0.123312 0.428750 0.071996
0.187232 0.428750 0.071996
0.251807 0.428750 0.071996
0.316873 0.428750 0.071996
0.382333 0.428750 0.071996
0.448122 0.428750 0.071996
0.514196 0.428750 0.071996
0.580518 0.428750 0.071996
0.647062 0.428750 0.071996
0.713806 0.428750 0.071996
0.780733 0.428750 0.071996
0.847827 0.428750 0.071996
0.915077 0.428750 0.071996
0.982471 0.428750 0.071996
1.050000 0.428750 0.071996
0.000000 0.490000 0.071996
0.060387 0.490000 0.071996
0.123312 0.490000 0.071996
0.187232 0.490000 0.071996
0.251807 0.490000 0.071996
0.316873 0.490000 0.071996
0.382333 0.490000 0.071996
0.448122 0.490000 0.071996
0.514196 0.490000 0.071996
0.580518 0.490000 0.071996
0.647062 0.490000 0.071996
0.713806 0.490000 0.071996
0.780733 0.490000 0.071996
0.847827 0.490000 0.071996
0.915077 0.490000 0.071996
0.982471 0.490000 0.071996
1.050000 0.490000 0.071996
0.000000 0.551250 0.071996
0.060387 0.551250 0.071996
0.123312 0.551250 0.071996
0.187232 0.551250 0.071996
0.251807 0.551250 0.071996
0.316873 0.551250 0.071996
0.382333 0.551250 0.071996
0.448122 0.551250 0.071996
0.514196 0.551250 0.071996
0.580518 0.551250 0.071996
0.647062 0.551250 0.071996
0.713806 0.551250 0.071996
0.780733 0.551250 0.071996
0.847827 0.551250 0.071996
0.915077 0.551250 0.071996
0.982471 0.551250 0.071996
1.050000 0.551250 0.071996
0.000000 0.612500 0.071996
0.060387 0.612500 0.071996
0.123312 0.612500 0.071996
0.187232 0.612500 0.071996
0.251807 0.612500 0.071996
0.316873 0.612500 0.071996
0.382333 0.612500 0.071996
0.448122 0.612500 0.071996
0.514196 0.612500 0.071996
0.580518 0.612500 0.071996
0.647062 0.612500 0.071996
0.713806 0.612500 0.071996
0.780733 0.612500 0.071996
0.847827 0.612500 0.071996
0.915077 0.612500 0.071996
0.982471 0.612500 0.071996
1.050000 0.612500 0.071996
0.000000 0.673750 0.071996
0.060387 0.673750 0.071996
0.123312 0.673750 0.071996
0.187232 0.673750 0.071996
0.251807 0.673750 0.071996
0.316873 0.673750 0.071996
0.382333 0.673750 0.071996
0.448122 0.673750 0.071996
0.514196 0.673750 0.071996
0.580518 0.673750 0.071996
0.647062 0.673750 0.071996
0.713806 0.673750 0.071996
0.780733 0.673750 0.071996
0.847827 0.673750 0.071996
0.915077 0.673750 0.071996
0.982471 0.673750 0.071996
1.050000 0.673750 0.071996
0.000000 0.735000 0.071996
0.060387 0.735000 0.071996
0.123312 0.735000 0.071996
0.187232 0.735000 0.071996
0.251807 0.735000 0.071996
0.316873 0.735000 0.071996
0.382333 0.735000 0.071996
0.448122 0.735000 0.071996
0.514196 0.735000 0.071996
0.580518 0.735000 0.071996
0.647062 0.735000 0.071996
0.713806 0.735000 0.071996
0.780733 0.735000 0.071996
0.847827 0.735000 0.071996
0.915077 0.735000 0.071996
0.982471 0.735000 0.071996
1.050000 0.735000 0.071996
0.000000 0.796250 0.071996
0.060387 0.796250 0.071996
0.123312 0.796250 0.071996
0.187232 0.796250 0.071996
0.251807 0.796250 0.071996
0.316873 0.796250 0.071996
0.382333 0.796250 0.071996
0.448122 0.796250 0.071996
0.514196 0.796250 0.071996
0.580518 0.796250 0.071996
0.647062 0.796250 0.071996
0.713806 0.796250 0.071996
0.780733 0.796250 0.071996
0.847827 0.796250 0.071996
0.915077 0.796250 0.071996
0.982471 0.796250 0.071996
1.050000 0.796250 0.071996
0.000000 0.857500 0.071996
0.060387 0.857500 0.071996
0.123312 0.857500 0.071996
0.187232 0.857500 0.071996
0.251807 0.857500 0.071996
0.316873 0.857500 0.071996
0.382333 0.857500 0.071996
0.448122 0.857500 0.071996
0.514196 0.857500 0.071996
0.580518 0.857500 0.071996
0.647062 0.857500 0.071996
0.713806 0.857500 0.071996
0.780733 0.857500 0.071996
0.847827 0.857500 0.071996
0.915077 0.857500 0.071996
0.982471 0.857500 0.071996
1.050000 0.857500 0.071996
0.000000 0.918750 0.071996
0.060387 0.918750 0.071996
0.123312 0.918750 0.071996
0.187232 0.918750 0.071996
0.251807 0.918750 0.071996
0.316873 0.918750 0.071996
0.382333 0.918750 0.071996
0.448122 0.918750 0.071996
0.514196 0.918750 0.071996
0.580518 0.918750 0.071996
0.647062 0.918750 0.071996
0.713806 0.918750 0.071996
0.780733 0.918750 0.071996
0.847827 0.918750 0.071996
0.915077 0.918750 0.071996
0.982471 0.918750 0.071996
1.050000 0.918750 0.071996
0.000000 0.980000 0.071996
0.060387 0.980000 0.071996
0.123312 0.980000 0.071996
0.187232 0.980000 0.071996
0.251807 0.980000 0.071996
0.316873 0.980000 0.071996
0.382333 0.980000 0.071996
0.448122 0.980000 0.071996
0.514196 0.980000 0.071996
0.580518 0.980000 0.071996
0.647062 0.980000 0.071996
0.713806 0.980000 0.071996
0.780733 0.980000 0.071996
0.847827 0.980000 0.071996
0.915077 0.980000 0.071996
0.982471 0.980000 0.071996
1.050000 0.980000 0.071996
0.000000 0.000000 0.141029
0.060387 0.000000 0.141029
0.123312 0.000000 0.141029
0.187232 0.000000 0.141029
0.251807 0.000000 0.141029
0.316873 0.000000 0.141029
0.382333 0.000000 0.141029
0.448122 0.000000 0.141029
0.514196 0.000000 0.141029
0.580518 0.000000 0.141029
0.647062 0.000000 0.141029
0.713806 0.000000 0.141029
0.780733 0.000000 0.141029
0.847827 0.000000 0.141029
0.915077 0.000000 0.141029
0.982471 0.000000 0.141029
1.050000 0.000000 0.141029
0.000000 0.061250 0.141029
0.060387 0.061250 0.141029
0.123312 0.061250 0.141029
0.187232 0.061250 0.141029
0.251807 0.061250 0.141029
0.316873 0.061250 0.141029
0.382333 0.061250 0.141029
0.448122 0.061250 0.141029
0.514196 0.061250 0.141029
0.580518 0.061250 0.141029
0.647062 0.061250 0.141029
0.713806 0.061250 0.141029
0.780733 0.061250 0.141029
0.847827 0.061250 0.141029
0.915077 0.061250 0.141029
0.982471 0.061250 0.141029
1.050000 0.061250 0.141029
0.000000 0.122500 0.141029
0.060387 0.122500 0.141029
0.123312 0.122500 0.141029
0.187232 0.122500 0.141029
0.251807 0.122500 0.141029
0.316873 0.122500 0.141029
0.382333 0.122500 0.141029
0.448122 0.122500 0.141029
0.514196 0.122500 0.141029
0.580518 0.122500 0.141029
0.647062 0.122500 0.141029
0.713806 0.122500 0.141029
0.780733 0.122500 0.141029
0.847827 0.122500 0.141029
0.915077 0.122500 0.141029
0.982471 0.122500 0.141029
1.050000 0.122500 0.141029
0.000000 0.183750 0.141029
0.060387 0.183750 0.141029
0.123312 0.183750 0.141029
0.187232 0.183750 0.141029
0.251807 0.183750 0.141029
0.316873 0.183750 0.141029
0.382333 0.183750 0.141029
0.448122 0.183750 0.141029
0.514196 0.183750 0.141029
0.580518 0.183750 0.141029
0.647062 0.183750 0.141029
0.713806 0.183750 0.141029
0.780733 0.183750 0.141029
0.847827 0.183750 0.141029
0.915077 0.183750 0.141029
0.982471 0.183750 0.141029
1.050000 0.183750 0.141029
0.000000 0.245000 0.141029
0.060387 0.245000 0.141029
0.123312 0.245000 0.141029
0.187232 0.245000 0.141029
0.251807 0.245000 0.141029
0.316873 0.245000 0.141029
0.382333 0.245000 0.141029
0.448122 0.245000 0.141029
0.514196 0.245000 0.141029
0.580518 0.245000 0.141029
0.647062 0.245000 0.141029
0.713806 0.245000 0.141029
0.780733 0.245000 0.141029
0.847827 0.245000 0.141029
0.915077 0.245000 0.141029
0.982471 0.245000 0.141029
1.050000 0.245000 0.141029
0.000000 0.306250 0.141029
0.060387 0.306250 0.141029
0.123312 0.306250 0.141029
0.187232 0.306250 0.141029
0.251807 0.306250 0.141029
0.316873 0.306250 0.141029
0.382333 0.306250 0.141029
0.448122 0.306250 0.141029
0.514196 0.306250 0.141029
0.580518 0.306250 0.141029
0.647062 0.306250 0.141029
0.713806 0.306250 0.141029
0.780733 0.306250 0.141029
0.847827 0.306250 0.141029
0.915077 0.306250 0.141029
0.982471 0.306250 0.141029
1.050000 0.306250 0.141029
0.000000 0.367500 0.141029
0.060387 0.367500 0.141029
0.123312 0.367500 0.141029
0.187232 0.367500 0.141029
0.251807 0.367500 0.141029
0.316873 0.367500 0.141029
0.382333 0.367500 0.141029
0.448122 0.367500 0.141029
0.514196 0.367500 0.141029
0.580518 0.367500 0.141029
0.647062 0.367500 0.141029
0.713806 0.367500 0.141029
0.780733 0.367500 0.141029
0.847827 0.367500 0.141029
0.915077 0.367500 0.141029
0.982471 0.367500 0.141029
1.050000 0.367500 0.141029
0.000000 0.428750 0.141029
0.060387 0.428750 0.141029
0.123312 0.428750 0.141029
0.187232 0.428750 0.141029
0.251807 0.428750 0.141029
0.316873 0.428750 0.141029
0.382333 0.428750 0.141029
0.448122 0.428750 0.141029
0.514196 0.428750 0.141029
0.580518 0.428750 0.141029
0.647062 0.428750 0.141029
0.713806 0.428750 0.141029
0.780733 0.428750 0.141029
0.847827 0.428750 0.141029
0.915077 0.428750 0.141029
0.982471 0.428750 0.141029
1.050000 0.428750 0.141029
0.000000 0.490000 0.141029
0.060387 0.490000 0.141029
0.123312 0.490000 0.141029
0.187232 0.490000 0.141029
0.251807 0.490000 0.141029
0.316873 0.490000 0.141029
0.382333 0.490000 0.141029
0.448122 0.490000 0.141029
0.514196 0.490000 0.141029
0.580518 0.490000 0.141029
0.647062 0.490000 0.141029
0.713806 0.490000 0.141029
0.780733 0.490000 0.141029
0.847827 0.490000 0.141029
0.915077 0.490000 0.141029
0.982471 0.490000 0.141029
1.050000 0.490000 0.141029
0.000000 0.551250 0.141029
0.060387 0.551250 0.141029
0.123312 0.551250 0.141029
0.187232 0.551250 0.141029
0.251807 0.551250 0.141029
0.316873 0.551250 0.141029
0.382333 0.551250 0.141029
0.448122 0.551250 0.141029
0.514196 0.551250 0.141029
0.580518 0.551250 0.141029
0.647062 0.551250 0.141029
0.713806 0.551250 0.141029
0.780733 0.551250 0.141029
0.847827 0.551250 0.141029
0.915077 0.551250 0.141029
0.982471 0.551250 0.141029
1.050000 0.551250 0.141029
0.000000 0.612500 0.141029
0.060387 0.612500 0.141029
0.123312 0.612500 0.141029
0.187232 0.612500 0.141029
0.251807 0.612500 0.141029
0.316873 0.612500 0.141029
0.382333 0.612500 0.141029
0.448122 0.612500 0.141029
0.514196 0.612500 0.141029
0.580518 0.612500 0.141029
0.647062 0.612500 0.141029
0.713806 0.612500 0.141029
0.780733 0.612500 0.141029
0.847827 0.612500 0.141029
0.915077 0.612500 0.141029
0.982471 0.612500 0.141029
1.050000 0.612500 0.141029
0.000000 0.673750 0.141029
0.060387 0.673750 0.141029
0.123312 0.673750 0.141029
0.187232 0.673750 0.141029
0.251807 0.673750 0.141029
0.316873 0.673750 0.141029
0.382333 0.673750 0.141029
0.448122 0.673750 0.141029
0.514196 0.673750 0.141029
0.580518 0.673750 0.141029
0.647062 0.673750 0.141029
0.713806 0.673750 0.141029
0.780733 0.673750 0.141029
0.847827 0.673750 0.141029
0.915077 0.673750 0.141029
0.982471 0.673750 0.141029
1.050000 0.673750 0.141029
0.000000 0.735000 0.141029
0.060387 0.735000 0.141029
0.123312 0.735000 0.141029
0.187232 0.735000 0.141029
0.251807 0.735000 0.141029
0.316873 0.735000 0.141029
0.382333 0.735000 0.141029
0.448122 0.735000 0.141029
0.514196 0.735000 0.141029
0.580518 0.735000 0.141029
0.647062 0.735000 0.141029
0.713806 0.735000 0.141029
0.780733 0.735000 0.141029
0.847827 0.735000 0.141029
0.915077 0.735000 0.141029
0.982471 0.735000 0.141029
1.050000 0.735000 0.141029
0.000000 0.796250 0.141029
0.060387 0.796250 0.141029
0.123312 0.796250 0.141029
0.187232 0.796250 0.141029
0.251807 0.796250 0.141029
0.316873 0.796250 0.141029
0.382333 0.796250 0.141029
0.448122 0.796250 0.141029
0.514196 0.796250 0.141029
0.580518 0.796250 0.141029
0.647062 0.796250 0.141029
0.713806 0.796250 0.141029
0.780733 0.796250 0.141029
0.847827 0.796250 0.141029
0.915077 0.796250 0.141029
0.982471 0.796250 0.141029
1.050000 0.796250 0.141029
0.000000 0.857500 0.141029
0.060387 0.857500 0.141029
0.123312 0.857500 0.141029
0.187232 0.857500 0.141029
0.251807 0.857500 0.141029
0.316873 0.857500 0.141029
0.382333 0.857500 0.141029
0.448122 0.857500 0.141029
0.514196 0.857500 0.141029
0.580518 0.857500 0.141029
0.647062 0.857500 0.141029
0.713806 0.857500 0.141029
0.780733 0.857500 0.141029
0.847827 0.857500 0.141029
0.915077 0.857500 0.141029
0.982471 0.857500 0.141029
1.050000 0.857500 0.141029
0.000000 0.918750 0.141029
0.060387 0.918750 0.141029
0.123312 0.918750 0.141029
0.187232 0.918750 0.141029
0.251807 0.918750 0.141029
0.316873 0.918750 0.141029
0.382333 0.918750 0.141029
0.448122 0.918750 0.141029
0.514196 0.918750 0.141029
0.580518 0.918750 0.141029
0.647062 0.918750 0.141029
0.713806 0.918750 0.141029
0.780733 0.918750 0.141029
0.847827 0.918750 0.141029
0.915077 0.918750 0.141029
0.982471 0.918750 0.141029
1.050000 0.918750 0.141029
0.000000 0.980000 0.141029
0.060387 0.980000 0.141029
0.123312 0.980000 0.141029
0.187232 0.980000 0.141029
0.251807 0.980000 0.141029
0.316873 0.980000 0.141029
0.382333 0.980000 0.141029
0.448122 0.980000 0.141029
0.514196 0.980000 0.141029
0.580518 0.980000 0.141029
0.647062 0.980000 0.141029
0.713806 0.980000 0.141029
0.780733 0.980000 0.141029
0.847827 0.980000 0.141029
0.915077 0.980000 0.141029
0.982471 0.980000 0.141029
1.050000 0.980000 0.141029
0.000000 0.000000 0.208986
0.060387 0.000000 0.208986
0.123312 0.000000 0.208986
0.187232 0.000000 0.208986
0.251807 0.000000 0.208986
0.316873 0.000000 0.208986
0.382333 0.000000 0.208986
0.448122 0.000000 0.208986
0.514196 0.000000 0.208986
0.580518 0.000000 0.208986
0.647062 0.000000 0.208986
0.713806 0.000000 0.208986
0.780733 0.000000 0.208986
0.847827 0.000000 0.208986
0.915077 0.000000 0.208986
0.982471 0.000000 0.208986
1.050000 0.000000 0.208986
0.000000 0.061250 0.208986
0.060387 0.061250 0.208986
