public/assets/luts/b05_hospital.cube
TITLE "b05_hospital"
LUT_3D_SIZE 17
DOMAIN_MIN 0 0 0
DOMAIN_MAX 1 1 1
0.000000 0.000000 0.000000
0.056361 0.000000 0.000000
0.115092 0.000000 0.000000
0.174750 0.000000 0.000000
0.235020 0.000000 0.000000
0.295748 0.000000 0.000000
0.356844 0.000000 0.000000
0.418248 0.000000 0.000000
0.479916 0.000000 0.000000
0.541817 0.000000 0.000000
0.603924 0.000000 0.000000
0.666219 0.000000 0.000000
0.728684 0.000000 0.000000
0.791305 0.000000 0.000000
0.854072 0.000000 0.000000
0.916973 0.000000 0.000000
0.980000 0.000000 0.000000
0.000000 0.064375 0.000000
0.056361 0.064375 0.000000
0.115092 0.064375 0.000000
0.174750 0.064375 0.000000
0.235020 0.064375 0.000000
0.295748 0.064375 0.000000
0.356844 0.064375 0.000000
0.418248 0.064375 0.000000
0.479916 0.064375 0.000000
0.541817 0.064375 0.000000
0.603924 0.064375 0.000000
0.666219 0.064375 0.000000
0.728684 0.064375 0.000000
0.791305 0.064375 0.000000
0.854072 0.064375 0.000000
0.916973 0.064375 0.000000
0.980000 0.064375 0.000000
0.000000 0.128750 0.000000
0.056361 0.128750 0.000000
0.115092 0.128750 0.000000
0.174750 0.128750 0.000000
0.235020 0.128750 0.000000
0.295748 0.128750 0.000000
0.356844 0.128750 0.000000
0.418248 0.128750 0.000000
0.479916 0.128750 0.000000
0.541817 0.128750 0.000000
0.603924 0.128750 0.000000
0.666219 0.128750 0.000000
0.728684 0.128750 0.000000
0.791305 0.128750 0.000000
0.854072 0.128750 0.000000
0.916973 0.128750 0.000000
0.980000 0.128750 0.000000
0.000000 0.193125 0.000000
0.056361 0.193125 0.000000
0.115092 0.193125 0.000000
0.174750 0.193125 0.000000
0.235020 0.193125 0.000000
0.295748 0.193125 0.000000
0.356844 0.193125 0.000000
0.418248 0.193125 0.000000
0.479916 0.193125 0.000000
0.541817 0.193125 0.000000
0.603924 0.193125 0.000000
0.666219 0.193125 0.000000
0.728684 0.193125 0.000000
0.791305 0.193125 0.000000
0.854072 0.193125 0.000000
0.916973 0.193125 0.000000
0.980000 0.193125 0.000000
0.000000 0.257500 0.000000
0.056361 0.257500 0.000000
0.115092 0.257500 0.000000
0.174750 0.257500 0.000000
0.235020 0.257500 0.000000
0.295748 0.257500 0.000000
0.356844 0.257500 0.000000
0.418248 0.257500 0.000000
0.479916 0.257500 0.000000
0.541817 0.257500 0.000000
0.603924 0.257500 0.000000
0.666219 0.257500 0.000000
0.728684 0.257500 0.000000
0.791305 0.257500 0.000000
0.854072 0.257500 0.000000
0.916973 0.257500 0.000000
0.980000 0.257500 0.000000
0.000000 0.321875 0.000000
0.056361 0.321875 0.000000
0.115092 0.321875 0.000000
0.174750 0.321875 0.000000
0.235020 0.321875 0.000000
0.295748 0.321875 0.000000
0.356844 0.321875 0.000000
0.418248 0.321875 0.000000
0.479916 0.321875 0.000000
0.541817 0.321875 0.000000
0.603924 0.321875 0.000000
0.666219 0.321875 0.000000
0.728684 0.321875 0.000000
0.791305 0.321875 0.000000
0.854072 0.321875 0.000000
0.916973 0.321875 0.000000
0.980000 0.321875 0.000000
0.000000 0.386250 0.000000
0.056361 0.386250 0.000000
0.115092 0.386250 0.000000
0.174750 0.386250 0.000000
0.235020 0.386250 0.000000
0.295748 0.386250 0.000000
0.356844 0.386250 0.000000
0.418248 0.386250 0.000000
0.479916 0.386250 0.000000
0.541817 0.386250 0.000000
0.603924 0.386250 0.000000
0.666219 0.386250 0.000000
0.728684 0.386250 0.000000
0.791305 0.386250 0.000000
0.854072 0.386250 0.000000
0.916973 0.386250 0.000000
0.980000 0.386250 0.000000
0.000000 0.450625 0.000000
0.056361 0.450625 0.000000
0.115092 0.450625 0.000000
0.174750 0.450625 0.000000
0.235020 0.450625 0.000000
0.295748 0.450625 0.000000
0.356844 0.450625 0.000000
0.418248 0.450625 0.000000
0.479916 0.450625 0.000000
0.541817 0.450625 0.000000
0.603924 0.450625 0.000000
0.666219 0.450625 0.000000
0.728684 0.450625 0.000000
0.791305 0.450625 0.000000
0.854072 0.450625 0.000000
0.916973 0.450625 0.000000
0.980000 0.450625 0.000000
0.000000 0.515000 0.000000
0.056361 0.515000 0.000000
0.115092 0.515000 0.000000
0.174750 0.515000 0.000000
0.235020 0.515000 0.000000
0.295748 0.515000 0.000000
0.356844 0.515000 0.000000
0.418248 0.515000 0.000000
0.479916 0.515000 0.000000
0.541817 0.515000 0.000000
0.603924 0.515000 0.000000
0.666219 0.515000 0.000000
0.728684 0.515000 0.000000
0.791305 0.515000 0.000000
0.854072 0.515000 0.000000
0.916973 0.515000 0.000000
0.980000 0.515000 0.000000
0.000000 0.579375 0.000000
0.056361 0.579375 0.000000
0.115092 0.579375 0.000000
0.174750 0.579375 0.000000
0.235020 0.579375 0.000000
0.295748 0.579375 0.000000
0.356844 0.579375 0.000000
0.418248 0.579375 0.000000
0.479916 0.579375 0.000000
0.541817 0.579375 0.000000
0.603924 0.579375 0.000000
0.666219 0.579375 0.000000
0.728684 0.579375 0.000000
0.791305 0.579375 0.000000
0.854072 0.579375 0.000000
0.916973 0.579375 0.000000
0.980000 0.579375 0.000000
0.000000 0.643750 0.000000
0.056361 0.643750 0.000000
0.115092 0.643750 0.000000
0.174750 0.643750 0.000000
0.235020 0.643750 0.000000
0.295748 0.643750 0.000000
0.356844 0.643750 0.000000
0.418248 0.643750 0.000000
0.479916 0.643750 0.000000
0.541817 0.643750 0.000000
0.603924 0.643750 0.000000
0.666219 0.643750 0.000000
0.728684 0.643750 0.000000
0.791305 0.643750 0.000000
0.854072 0.643750 0.000000
0.916973 0.643750 0.000000
0.980000 0.643750 0.000000
0.000000 0.708125 0.000000
0.056361 0.708125 0.000000
0.115092 0.708125 0.000000
0.174750 0.708125 0.000000
0.235020 0.708125 0.000000
0.295748 0.708125 0.000000
0.356844 0.708125 0.000000
0.418248 0.708125 0.000000
0.479916 0.708125 0.000000
0.541817 0.708125 0.000000
0.603924 0.708125 0.000000
0.666219 0.708125 0.000000
0.728684 0.708125 0.000000
0.791305 0.708125 0.000000
0.854072 0.708125 0.000000
0.916973 0.708125 0.000000
0.980000 0.708125 0.000000
0.000000 0.772500 0.000000
0.056361 0.772500 0.000000
0.115092 0.772500 0.000000
0.174750 0.772500 0.000000
0.235020 0.772500 0.000000
0.295748 0.772500 0.000000
0.356844 0.772500 0.000000
0.418248 0.772500 0.000000
0.479916 0.772500 0.000000
0.541817 0.772500 0.000000
0.603924 0.772500 0.000000
0.666219 0.772500 0.000000
0.728684 0.772500 0.000000
0.791305 0.772500 0.000000
0.854072 0.772500 0.000000
0.916973 0.772500 0.000000
0.980000 0.772500 0.000000
0.000000 0.836875 0.000000
0.056361 0.836875 0.000000
0.115092 0.836875 0.000000
0.174750 0.836875 0.000000
0.235020 0.836875 0.000000
0.295748 0.836875 0.000000
0.356844 0.836875 0.000000
0.418248 0.836875 0.000000
0.479916 0.836875 0.000000
0.541817 0.836875 0.000000
0.603924 0.836875 0.000000
0.666219 0.836875 0.000000
0.728684 0.836875 0.000000
0.791305 0.836875 0.000000
0.854072 0.836875 0.000000
0.916973 0.836875 0.000000
0.980000 0.836875 0.000000
0.000000 0.901250 0.000000
0.056361 0.901250 0.000000
0.115092 0.901250 0.000000
0.174750 0.901250 0.000000
0.235020 0.901250 0.000000
0.295748 0.901250 0.000000
0.356844 0.901250 0.000000
0.418248 0.901250 0.000000
0.479916 0.901250 0.000000
0.541817 0.901250 0.000000
0.603924 0.901250 0.000000
0.666219 0.901250 0.000000
0.728684 0.901250 0.000000
0.791305 0.901250 0.000000
0.854072 0.901250 0.000000
0.916973 0.901250 0.000000
0.980000 0.901250 0.000000
0.000000 0.965625 0.000000
0.056361 0.965625 0.000000
0.115092 0.965625 0.000000
0.174750 0.965625 0.000000
0.235020 0.965625 0.000000
0.295748 0.965625 0.000000
0.356844 0.965625 0.000000
0.418248 0.965625 0.000000
0.479916 0.965625 0.000000
0.541817 0.965625 0.000000
0.603924 0.965625 0.000000
0.666219 0.965625 0.000000
0.728684 0.965625 0.000000
0.791305 0.965625 0.000000
0.854072 0.965625 0.000000
0.916973 0.965625 0.000000
0.980000 0.965625 0.000000
0.000000 1.030000 0.000000
0.056361 1.030000 0.000000
0.115092 1.030000 0.000000
0.174750 1.030000 0.000000
0.235020 1.030000 0.000000
0.295748 1.030000 0.000000
0.356844 1.030000 0.000000
0.418248 1.030000 0.000000
0.479916 1.030000 0.000000
0.541817 1.030000 0.000000
0.603924 1.030000 0.000000
0.666219 1.030000 0.000000
0.728684 1.030000 0.000000
0.791305 1.030000 0.000000
0.854072 1.030000 0.000000
0.916973 1.030000 0.000000
0.980000 1.030000 0.000000
0.000000 0.000000 0.071317
0.056361 0.000000 0.071317
0.115092 0.000000 0.071317
0.174750 0.000000 0.071317
0.235020 0.000000 0.071317
0.295748 0.000000 0.071317
0.356844 0.000000 0.071317
0.418248 0.000000 0.071317
0.479916 0.000000 0.071317
0.541817 0.000000 0.071317
0.603924 0.000000 0.071317
0.666219 0.000000 0.071317
0.728684 0.000000 0.071317
0.791305 0.000000 0.071317
0.854072 0.000000 0.071317
0.916973 0.000000 0.071317
0.980000 0.000000 0.071317
0.000000 0.064375 0.071317
0.056361 0.064375 0.071317
0.115092 0.064375 0.071317
0.174750 0.064375 0.071317
0.235020 0.064375 0.071317
0.295748 0.064375 0.071317
0.356844 0.064375 0.071317
0.418248 0.064375 0.071317
0.479916 0.064375 0.071317
0.541817 0.064375 0.071317
0.603924 0.064375 0.071317
0.666219 0.064375 0.071317
0.728684 0.064375 0.071317
0.791305 0.064375 0.071317
0.854072 0.064375 0.071317
0.916973 0.064375 0.071317
0.980000 0.064375 0.071317
0.000000 0.128750 0.071317
0.056361 0.128750 0.071317
0.115092 0.128750 0.071317
0.174750 0.128750 0.071317
0.235020 0.128750 0.071317
0.295748 0.128750 0.071317
0.356844 0.128750 0.071317
0.418248 0.128750 0.071317
0.479916 0.128750 0.071317
0.541817 0.128750 0.071317
0.603924 0.128750 0.071317
0.666219 0.128750 0.071317
0.728684 0.128750 0.071317
0.791305 0.128750 0.071317
0.854072 0.128750 0.071317
0.916973 0.128750 0.071317
0.980000 0.128750 0.071317
0.000000 0.193125 0.071317
0.056361 0.193125 0.071317
0.115092 0.193125 0.071317
0.174750 0.193125 0.071317
0.235020 0.193125 0.071317
0.295748 0.193125 0.071317
0.356844 0.193125 0.071317
0.418248 0.193125 0.071317
0.479916 0.193125 0.071317
0.541817 0.193125 0.071317
0.603924 0.193125 0.071317
0.666219 0.193125 0.071317
0.728684 0.193125 0.071317
0.791305 0.193125 0.071317
0.854072 0.193125 0.071317
0.916973 0.193125 0.071317
0.980000 0.193125 0.071317
0.000000 0.257500 0.071317
0.056361 0.257500 0.071317
0.115092 0.257500 0.071317
0.174750 0.257500 0.071317
0.235020 0.257500 0.071317
0.295748 0.257500 0.071317
0.356844 0.257500 0.071317
0.418248 0.257500 0.071317
0.479916 0.257500 0.071317
0.541817 0.257500 0.071317
0.603924 0.257500 0.071317
0.666219 0.257500 0.071317
0.728684 0.257500 0.071317
0.791305 0.257500 0.071317
0.854072 0.257500 0.071317
0.916973 0.257500 0.071317
0.980000 0.257500 0.071317
0.000000 0.321875 0.071317
0.056361 0.321875 0.071317
0.115092 0.321875 0.071317
0.174750 0.321875 0.071317
0.235020 0.321875 0.071317
0.295748 0.321875 0.071317
0.356844 0.321875 0.071317
0.418248 0.321875 0.071317
0.479916 0.321875 0.071317
0.541817 0.321875 0.071317
0.603924 0.321875 0.071317
0.666219 0.321875 0.071317
0.728684 0.321875 0.071317
0.791305 0.321875 0.071317
0.854072 0.321875 0.071317
0.916973 0.321875 0.071317
0.980000 0.321875 0.071317
0.000000 0.386250 0.071317
0.056361 0.386250 0.071317
0.115092 0.386250 0.071317
0.174750 0.386250 0.071317
0.235020 0.386250 0.071317
0.295748 0.386250 0.071317
0.356844 0.386250 0.071317
0.418248 0.386250 0.071317
0.479916 0.386250 0.071317
0.541817 0.386250 0.071317
0.603924 0.386250 0.071317
0.666219 0.386250 0.071317
0.728684 0.386250 0.071317
0.791305 0.386250 0.071317
0.854072 0.386250 0.071317
0.916973 0.386250 0.071317
0.980000 0.386250 0.071317
0.000000 0.450625 0.071317
0.056361 0.450625 0.071317
0.115092 0.450625 0.071317
0.174750 0.450625 0.071317
0.235020 0.450625 0.071317
0.295748 0.450625 0.071317
0.356844 0.450625 0.071317
0.418248 0.450625 0.071317
0.479916 0.450625 0.071317
0.541817 0.450625 0.071317
0.603924 0.450625 0.071317
0.666219 0.450625 0.071317
0.728684 0.450625 0.071317
0.791305 0.450625 0.071317
0.854072 0.450625 0.071317
0.916973 0.450625 0.071317
0.980000 0.450625 0.071317
0.000000 0.515000 0.071317
0.056361 0.515000 0.071317
0.115092 0.515000 0.071317
0.174750 0.515000 0.071317
0.235020 0.515000 0.071317
0.295748 0.515000 0.071317
0.356844 0.515000 0.071317
0.418248 0.515000 0.071317
0.479916 0.515000 0.071317
0.541817 0.515000 0.071317
0.603924 0.515000 0.071317
0.666219 0.515000 0.071317
0.728684 0.515000 0.071317
0.791305 0.515000 0.071317
0.854072 0.515000 0.071317
0.916973 0.515000 0.071317
0.980000 0.515000 0.071317
0.000000 0.579375 0.071317
0.056361 0.579375 0.071317
0.115092 0.579375 0.071317
0.174750 0.579375 0.071317
0.235020 0.579375 0.071317
0.295748 0.579375 0.071317
0.356844 0.579375 0.071317
0.418248 0.579375 0.071317
0.479916 0.579375 0.071317
0.541817 0.579375 0.071317
0.603924 0.579375 0.071317
0.666219 0.579375 0.071317
0.728684 0.579375 0.071317
0.791305 0.579375 0.071317
0.854072 0.579375 0.071317
0.916973 0.579375 0.071317
0.980000 0.579375 0.071317
0.000000 0.643750 0.071317
0.056361 0.643750 0.071317
0.115092 0.643750 0.071317
0.174750 0.643750 0.071317
0.235020 0.643750 0.071317
0.295748 0.643750 0.071317
0.356844 0.643750 0.071317
0.418248 0.643750 0.071317
0.479916 0.643750 0.071317
0.541817 0.643750 0.071317
0.603924 0.643750 0.071317
0.666219 0.643750 0.071317
0.728684 0.643750 0.071317
0.791305 0.643750 0.071317
0.854072 0.643750 0.071317
0.916973 0.643750 0.071317
0.980000 0.643750 0.071317
0.000000 0.708125 0.071317
0.056361 0.708125 0.071317
0.115092 0.708125 0.071317
0.174750 0.708125 0.071317
0.235020 0.708125 0.071317
0.295748 0.708125 0.071317
0.356844 0.708125 0.071317
0.418248 0.708125 0.071317
0.479916 0.708125 0.071317
0.541817 0.708125 0.071317
0.603924 0.708125 0.071317
0.666219 0.708125 0.071317
0.728684 0.708125 0.071317
0.791305 0.708125 0.071317
0.854072 0.708125 0.071317
0.916973 0.708125 0.071317
0.980000 0.708125 0.071317
0.000000 0.772500 0.071317
0.056361 0.772500 0.071317
0.115092 0.772500 0.071317
0.174750 0.772500 0.071317
0.235020 0.772500 0.071317
0.295748 0.772500 0.071317
0.356844 0.772500 0.071317
0.418248 0.772500 0.071317
0.479916 0.772500 0.071317
0.541817 0.772500 0.071317
0.603924 0.772500 0.071317
0.666219 0.772500 0.071317
0.728684 0.772500 0.071317
0.791305 0.772500 0.071317
0.854072 0.772500 0.071317
0.916973 0.772500 0.071317
0.980000 0.772500 0.071317
0.000000 0.836875 0.071317
0.056361 0.836875 0.071317
0.115092 0.836875 0.071317
0.174750 0.836875 0.071317
0.235020 0.836875 0.071317
0.295748 0.836875 0.071317
0.356844 0.836875 0.071317
0.418248 0.836875 0.071317
0.479916 0.836875 0.071317
0.541817 0.836875 0.071317
0.603924 0.836875 0.071317
0.666219 0.836875 0.071317
0.728684 0.836875 0.071317
0.791305 0.836875 0.071317
0.854072 0.836875 0.071317
0.916973 0.836875 0.071317
0.980000 0.836875 0.071317
0.000000 0.901250 0.071317
0.056361 0.901250 0.071317
0.115092 0.901250 0.071317
0.174750 0.901250 0.071317
0.235020 0.901250 0.071317
0.295748 0.901250 0.071317
0.356844 0.901250 0.071317
0.418248 0.901250 0.071317
0.479916 0.901250 0.071317
0.541817 0.901250 0.071317
0.603924 0.901250 0.071317
0.666219 0.901250 0.071317
0.728684 0.901250 0.071317
0.791305 0.901250 0.071317
0.854072 0.901250 0.071317
0.916973 0.901250 0.071317
0.980000 0.901250 0.071317
0.000000 0.965625 0.071317
0.056361 0.965625 0.071317
0.115092 0.965625 0.071317
0.174750 0.965625 0.071317
0.235020 0.965625 0.071317
0.295748 0.965625 0.071317
0.356844 0.965625 0.071317
0.418248 0.965625 0.071317
0.479916 0.965625 0.071317
0.541817 0.965625 0.071317
0.603924 0.965625 0.071317
0.666219 0.965625 0.071317
0.728684 0.965625 0.071317
0.791305 0.965625 0.071317
0.854072 0.965625 0.071317
0.916973 0.965625 0.071317
0.980000 0.965625 0.071317
0.000000 1.030000 0.071317
0.056361 1.030000 0.071317
0.115092 1.030000 0.071317
0.174750 1.030000 0.071317
0.235020 1.030000 0.071317
0.295748 1.030000 0.071317
0.356844 1.030000 0.071317
0.418248 1.030000 0.071317
0.479916 1.030000 0.071317
0.541817 1.030000 0.071317
0.603924 1.030000 0.071317
0.666219 1.030000 0.071317
0.728684 1.030000 0.071317
0.791305 1.030000 0.071317
0.854072 1.030000 0.071317
0.916973 1.030000 0.071317
0.980000 1.030000 0.071317
0.000000 0.000000 0.139699
0.056361 0.000000 0.139699
0.115092 0.000000 0.139699
0.174750 0.000000 0.139699
0.235020 0.000000 0.139699
0.295748 0.000000 0.139699
0.356844 0.000000 0.139699
0.418248 0.000000 0.139699
0.479916 0.000000 0.139699
0.541817 0.000000 0.139699
0.603924 0.000000 0.139699
0.666219 0.000000 0.139699
0.728684 0.000000 0.139699
0.791305 0.000000 0.139699
0.854072 0.000000 0.139699
0.916973 0.000000 0.139699
0.980000 0.000000 0.139699
0.000000 0.064375 0.139699
0.056361 0.064375 0.139699
0.115092 0.064375 0.139699
0.174750 0.064375 0.139699
0.235020 0.064375 0.139699
0.295748 0.064375 0.139699
0.356844 0.064375 0.139699
0.418248 0.064375 0.139699
0.479916 0.064375 0.139699
0.541817 0.064375 0.139699
0.603924 0.064375 0.139699
0.666219 0.064375 0.139699
0.728684 0.064375 0.139699
0.791305 0.064375 0.139699
0.854072 0.064375 0.139699
0.916973 0.064375 0.139699
0.980000 0.064375 0.139699
0.000000 0.128750 0.139699
0.056361 0.128750 0.139699
0.115092 0.128750 0.139699
0.174750 0.128750 0.139699
0.235020 0.128750 0.139699
0.295748 0.128750 0.139699
0.356844 0.128750 0.139699
0.418248 0.128750 0.139699
0.479916 0.128750 0.139699
0.541817 0.128750 0.139699
0.603924 0.128750 0.139699
0.666219 0.128750 0.139699
0.728684 0.128750 0.139699
0.791305 0.128750 0.139699
0.854072 0.128750 0.139699
0.916973 0.128750 0.139699
0.980000 0.128750 0.139699
0.000000 0.193125 0.139699
0.056361 0.193125 0.139699
0.115092 0.193125 0.139699
0.174750 0.193125 0.139699
0.235020 0.193125 0.139699
0.295748 0.193125 0.139699
0.356844 0.193125 0.139699
0.418248 0.193125 0.139699
0.479916 0.193125 0.139699
0.541817 0.193125 0.139699
0.603924 0.193125 0.139699
0.666219 0.193125 0.139699
0.728684 0.193125 0.139699
0.791305 0.193125 0.139699
0.854072 0.193125 0.139699
0.916973 0.193125 0.139699
0.980000 0.193125 0.139699
0.000000 0.257500 0.139699
0.056361 0.257500 0.139699
0.115092 0.257500 0.139699
0.174750 0.257500 0.139699
0.235020 0.257500 0.139699
0.295748 0.257500 0.139699
0.356844 0.257500 0.139699
0.418248 0.257500 0.139699
0.479916 0.257500 0.139699
0.541817 0.257500 0.139699
0.603924 0.257500 0.139699
0.666219 0.257500 0.139699
0.728684 0.257500 0.139699
0.791305 0.257500 0.139699
0.854072 0.257500 0.139699
0.916973 0.257500 0.139699
0.980000 0.257500 0.139699
0.000000 0.321875 0.139699
0.056361 0.321875 0.139699
0.115092 0.321875 0.139699
0.174750 0.321875 0.139699
0.235020 0.321875 0.139699
0.295748 0.321875 0.139699
0.356844 0.321875 0.139699
0.418248 0.321875 0.139699
0.479916 0.321875 0.139699
0.541817 0.321875 0.139699
0.603924 0.321875 0.139699
0.666219 0.321875 0.139699
0.728684 0.321875 0.139699
0.791305 0.321875 0.139699
0.854072 0.321875 0.139699
0.916973 0.321875 0.139699
0.980000 0.321875 0.139699
0.000000 0.386250 0.139699
0.056361 0.386250 0.139699
0.115092 0.386250 0.139699
0.174750 0.386250 0.139699
0.235020 0.386250 0.139699
0.295748 0.386250 0.139699
0.356844 0.386250 0.139699
0.418248 0.386250 0.139699
0.479916 0.386250 0.139699
0.541817 0.386250 0.139699
0.603924 0.386250 0.139699
0.666219 0.386250 0.139699
0.728684 0.386250 0.139699
0.791305 0.386250 0.139699
0.854072 0.386250 0.139699
0.916973 0.386250 0.139699
0.980000 0.386250 0.139699
0.000000 0.450625 0.139699
0.056361 0.450625 0.139699
0.115092 0.450625 0.139699
0.174750 0.450625 0.139699
0.235020 0.450625 0.139699
0.295748 0.450625 0.139699
0.356844 0.450625 0.139699
0.418248 0.450625 0.139699
0.479916 0.450625 0.139699
0.541817 0.450625 0.139699
0.603924 0.450625 0.139699
0.666219 0.450625 0.139699
0.728684 0.450625 0.139699
0.791305 0.450625 0.139699
0.854072 0.450625 0.139699
0.916973 0.450625 0.139699
0.980000 0.450625 0.139699
0.000000 0.515000 0.139699
0.056361 0.515000 0.139699
0.115092 0.515000 0.139699
0.174750 0.515000 0.139699
0.235020 0.515000 0.139699
0.295748 0.515000 0.139699
0.356844 0.515000 0.139699
0.418248 0.515000 0.139699
0.479916 0.515000 0.139699
0.541817 0.515000 0.139699
0.603924 0.515000 0.139699
0.666219 0.515000 0.139699
0.728684 0.515000 0.139699
0.791305 0.515000 0.139699
0.854072 0.515000 0.139699
0.916973 0.515000 0.139699
0.980000 0.515000 0.139699
0.000000 0.579375 0.139699
0.056361 0.579375 0.139699
0.115092 0.579375 0.139699
0.174750 0.579375 0.139699
0.235020 0.579375 0.139699
0.295748 0.579375 0.139699
0.356844 0.579375 0.139699
0.418248 0.579375 0.139699
0.479916 0.579375 0.139699
0.541817 0.579375 0.139699
0.603924 0.579375 0.139699
0.666219 0.579375 0.139699
0.728684 0.579375 0.139699
0.791305 0.579375 0.139699
0.854072 0.579375 0.139699
0.916973 0.579375 0.139699
0.980000 0.579375 0.139699
0.000000 0.643750 0.139699
0.056361 0.643750 0.139699
0.115092 0.643750 0.139699
0.174750 0.643750 0.139699
0.235020 0.643750 0.139699
0.295748 0.643750 0.139699
0.356844 0.643750 0.139699
0.418248 0.643750 0.139699
0.479916 0.643750 0.139699
0.541817 0.643750 0.139699
0.603924 0.643750 0.139699
0.666219 0.643750 0.139699
0.728684 0.643750 0.139699
0.791305 0.643750 0.139699
0.854072 0.643750 0.139699
0.916973 0.643750 0.139699
0.980000 0.643750 0.139699
0.000000 0.708125 0.139699
0.056361 0.708125 0.139699
0.115092 0.708125 0.139699
0.174750 0.708125 0.139699
0.235020 0.708125 0.139699
0.295748 0.708125 0.139699
0.356844 0.708125 0.139699
0.418248 0.708125 0.139699
0.479916 0.708125 0.139699
0.541817 0.708125 0.139699
0.603924 0.708125 0.139699
0.666219 0.708125 0.139699
0.728684 0.708125 0.139699
0.791305 0.708125 0.139699
0.854072 0.708125 0.139699
0.916973 0.708125 0.139699
0.980000 0.708125 0.139699
0.000000 0.772500 0.139699
0.056361 0.772500 0.139699
0.115092 0.772500 0.139699
0.174750 0.772500 0.139699
0.235020 0.772500 0.139699
0.295748 0.772500 0.139699
0.356844 0.772500 0.139699
0.418248 0.772500 0.139699
0.479916 0.772500 0.139699
0.541817 0.772500 0.139699
0.603924 0.772500 0.139699
0.666219 0.772500 0.139699
0.728684 0.772500 0.139699
0.791305 0.772500 0.139699
0.854072 0.772500 0.139699
0.916973 0.772500 0.139699
0.980000 0.772500 0.139699
0.000000 0.836875 0.139699
0.056361 0.836875 0.139699
0.115092 0.836875 0.139699
0.174750 0.836875 0.139699
0.235020 0.836875 0.139699
0.295748 0.836875 0.139699
0.356844 0.836875 0.139699
0.418248 0.836875 0.139699
0.479916 0.836875 0.139699
0.541817 0.836875 0.139699
0.603924 0.836875 0.139699
0.666219 0.836875 0.139699
0.728684 0.836875 0.139699
0.791305 0.836875 0.139699
0.854072 0.836875 0.139699
0.916973 0.836875 0.139699
0.980000 0.836875 0.139699
0.000000 0.901250 0.139699
0.056361 0.901250 0.139699
0.115092 0.901250 0.139699
0.174750 0.901250 0.139699
0.235020 0.901250 0.139699
0.295748 0.901250 0.139699
0.356844 0.901250 0.139699
0.418248 0.901250 0.139699
0.479916 0.901250 0.139699
0.541817 0.901250 0.139699
0.603924 0.901250 0.139699
0.666219 0.901250 0.139699
0.728684 0.901250 0.139699
0.791305 0.901250 0.139699
0.854072 0.901250 0.139699
0.916973 0.901250 0.139699
0.980000 0.901250 0.139699
0.000000 0.965625 0.139699
0.056361 0.965625 0.139699
0.115092 0.965625 0.139699
0.174750 0.965625 0.139699
0.235020 0.965625 0.139699
0.295748 0.965625 0.139699
0.356844 0.965625 0.139699
0.418248 0.965625 0.139699
0.479916 0.965625 0.139699
0.541817 0.965625 0.139699
0.603924 0.965625 0.139699
0.666219 0.965625 0.139699
0.728684 0.965625 0.139699
0.791305 0.965625 0.139699
0.854072 0.965625 0.139699
0.916973 0.965625 0.139699
0.980000 0.965625 0.139699
0.000000 1.030000 0.139699
0.056361 1.030000 0.139699
0.115092 1.030000 0.139699
0.174750 1.030000 0.139699
0.235020 1.030000 0.139699
0.295748 1.030000 0.139699
0.356844 1.030000 0.139699
0.418248 1.030000 0.139699
0.479916 1.030000 0.139699
0.541817 1.030000 0.139699
0.603924 1.030000 0.139699
0.666219 1.030000 0.139699
0.728684 1.030000 0.139699
0.791305 1.030000 0.139699
0.854072 1.030000 0.139699
0.916973 1.030000 0.139699
0.980000 1.030000 0.139699
0.000000 0.000000 0.207014
0.056361 0.000000 0.207014
0.115092 0.000000 0.207014
0.174750 0.000000 0.207014
0.235020 0.000000 0.207014
0.295748 0.000000 0.207014
0.356844 0.000000 0.207014
0.418248 0.000000 0.207014
0.479916 0.000000 0.207014
0.541817 0.000000 0.207014
0.603924 0.000000 0.207014
0.666219 0.000000 0.207014
0.728684 0.000000 0.207014
0.791305 0.000000 0.207014
0.854072 0.000000 0.207014
0.916973 0.000000 0.207014
0.980000 0.000000 0.207014
0.000000 0.064375 0.207014
0.056361 0.064375 0.207014
