public/assets/luts/b05_hospital.cube
TITLE "b05_hospital"
LUT_3D_SIZE 9
DOMAIN_MIN 0 0 0
DOMAIN_MAX 1 1 1
0.000000 0.000000 0.000000
0.115092 0.000000 0.000000
0.235020 0.000000 0.000000
0.356844 0.000000 0.000000
0.479916 0.000000 0.000000
0.603924 0.000000 0.000000
0.728684 0.000000 0.000000
0.854072 0.000000 0.000000
0.980000 0.000000 0.000000
0.000000 0.128750 0.000000
0.115092 0.128750 0.000000
0.235020 0.128750 0.000000
0.356844 0.128750 0.000000
0.479916 0.128750 0.000000
0.603924 0.128750 0.000000
0.728684 0.128750 0.000000
0.854072 0.128750 0.000000
0.980000 0.128750 0.000000
0.000000 0.257500 0.000000
0.115092 0.257500 0.000000
0.235020 0.257500 0.000000
0.356844 0.257500 0.000000
0.479916 0.257500 0.000000
0.603924 0.257500 0.000000
0.728684 0.257500 0.000000
0.854072 0.257500 0.000000
0.980000 0.257500 0.000000
0.000000 0.386250 0.000000
0.115092 0.386250 0.000000
0.235020 0.386250 0.000000
0.356844 0.386250 0.000000
0.479916 0.386250 0.000000
0.603924 0.386250 0.000000
0.728684 0.386250 0.000000
0.854072 0.386250 0.000000
0.980000 0.386250 0.000000
0.000000 0.515000 0.000000
0.115092 0.515000 0.000000
0.235020 0.515000 0.000000
0.356844 0.515000 0.000000
0.479916 0.515000 0.000000
0.603924 0.515000 0.000000
0.728684 0.515000 0.000000
0.854072 0.515000 0.000000
0.980000 0.515000 0.000000
0.000000 0.643750 0.000000
0.115092 0.643750 0.000000
0.235020 0.643750 0.000000
0.356844 0.643750 0.000000
0.479916 0.643750 0.000000
0.603924 0.643750 0.000000
0.728684 0.643750 0.000000
0.854072 0.643750 0.000000
0.980000 0.643750 0.000000
0.000000 0.772500 0.000000
0.115092 0.772500 0.000000
0.235020 0.772500 0.000000
0.356844 0.772500 0.000000
0.479916 0.772500 0.000000
0.603924 0.772500 0.000000
0.728684 0.772500 0.000000
0.854072 0.772500 0.000000
0.980000 0.772500 0.000000
0.000000 0.901250 0.000000
0.115092 0.901250 0.000000
0.235020 0.901250 0.000000
0.356844 0.901250 0.000000
0.479916 0.901250 0.000000
0.603924 0.901250 0.000000
0.728684 0.901250 0.000000
0.854072 0.901250 0.000000
0.980000 0.901250 0.000000
0.000000 1.030000 0.000000
0.115092 1.030000 0.000000
0.235020 1.030000 0.000000
0.356844 1.030000 0.000000
0.479916 1.030000 0.000000
0.603924 1.030000 0.000000
0.728684 1.030000 0.000000
0.854072 1.030000 0.000000
0.980000 1.030000 0.000000
0.000000 0.000000 0.139699
0.115092 0.000000 0.139699
0.235020 0.000000 0.139699
0.356844 0.000000 0.139699
0.479916 0.000000 0.139699
0.603924 0.000000 0.139699
0.728684 0.000000 0.139699
0.854072 0.000000 0.139699
0.980000 0.000000 0.139699
0.000000 0.128750 0.139699
0.115092 0.128750 0.139699
0.235020 0.128750 0.139699
0.356844 0.128750 0.139699
0.479916 0.128750 0.139699
0.603924 0.128750 0.139699
0.728684 0.128750 0.139699
0.854072 0.128750 0.139699
0.980000 0.128750 0.139699
0.000000 0.257500 0.139699
0.115092 0.257500 0.139699
0.235020 0.257500 0.139699
0.356844 0.257500 0.139699
0.479916 0.257500 0.139699
0.603924 0.257500 0.139699
0.728684 0.257500 0.139699
0.854072 0.257500 0.139699
0.980000 0.257500 0.139699
0.000000 0.386250 0.139699
0.115092 0.386250 0.139699
0.235020 0.386250 0.139699
0.356844 0.386250 0.139699
0.479916 0.386250 0.139699
0.603924 0.386250 0.139699
0.728684 0.386250 0.139699
0.854072 0.386250 0.139699
0.980000 0.386250 0.139699
0.000000 0.515000 0.139699
0.115092 0.515000 0.139699
0.235020 0.515000 0.139699
0.356844 0.515000 0.139699
0.479916 0.515000 0.139699
0.603924 0.515000 0.139699
0.728684 0.515000 0.139699
0.854072 0.515000 0.139699
0.980000 0.515000 0.139699
0.000000 0.643750 0.139699
0.115092 0.643750 0.139699
0.235020 0.643750 0.139699
0.356844 0.643750 0.139699
0.479916 0.643750 0.139699
0.603924 0.643750 0.139699
0.728684 0.643750 0.139699
0.854072 0.643750 0.139699
0.980000 0.643750 0.139699
0.000000 0.772500 0.139699
0.115092 0.772500 0.139699
0.235020 0.772500 0.139699
0.356844 0.772500 0.139699
0.479916 0.772500 0.139699
0.603924 0.772500 0.139699
0.728684 0.772500 0.139699
0.854072 0.772500 0.139699
0.980000 0.772500 0.139699
0.000000 0.901250 0.139699
0.115092 0.901250 0.139699
0.235020 0.901250 0.139699
0.356844 0.901250 0.139699
0.479916 0.901250 0.139699
0.603924 0.901250 0.139699
0.728684 0.901250 0.139699
0.854072 0.901250 0.139699
0.980000 0.901250 0.139699
0.000000 1.030000 0.139699
0.115092 1.030000 0.139699
0.235020 1.030000 0.139699
0.356844 1.030000 0.139699
0.479916 1.030000 0.139699
0.603924 1.030000 0.139699
0.728684 1.030000 0.139699
0.854072 1.030000 0.139699
0.980000 1.030000 0.139699
0.000000 0.000000 0.273647
0.115092 0.000000 0.273647
0.235020 0.000000 0.273647
0.356844 0.000000 0.273647
0.479916 0.000000 0.273647
0.603924 0.000000 0.273647
0.728684 0.000000 0.273647
0.854072 0.000000 0.273647
0.980000 0.000000 0.273647
0.000000 0.128750 0.273647
0.115092 0.128750 0.273647
0.235020 0.128750 0.273647
0.356844 0.128750 0.273647
0.479916 0.128750 0.273647
0.603924 0.128750 0.273647
0.728684 0.128750 0.273647
0.854072 0.128750 0.273647
0.980000 0.128750 0.273647
0.000000 0.257500 0.273647
0.115092 0.257500 0.273647
0.235020 0.257500 0.273647
0.356844 0.257500 0.273647
0.479916 0.257500 0.273647
0.603924 0.257500 0.273647
0.728684 0.257500 0.273647
0.854072 0.257500 0.273647
0.980000 0.257500 0.273647
0.000000 0.386250 0.273647
0.115092 0.386250 0.273647
0.235020 0.386250 0.273647
0.356844 0.386250 0.273647
0.479916 0.386250 0.273647
0.603924 0.386250 0.273647
0.728684 0.386250 0.273647
0.854072 0.386250 0.273647
0.980000 0.386250 0.273647
0.000000 0.515000 0.273647
0.115092 0.515000 0.273647
0.235020 0.515000 0.273647
0.356844 0.515000 0.273647
0.479916 0.515000 0.273647
0.603924 0.515000 0.273647
0.728684 0.515000 0.273647
0.854072 0.515000 0.273647
0.980000 0.515000 0.273647
0.000000 0.643750 0.273647
0.115092 0.643750 0.273647
0.235020 0.643750 0.273647
0.356844 0.643750 0.273647
0.479916 0.643750 0.273647
0.603924 0.643750 0.273647
0.728684 0.643750 0.273647
0.854072 0.643750 0.273647
0.980000 0.643750 0.273647
0.000000 0.772500 0.273647
0.115092 0.772500 0.273647
0.235020 0.772500 0.273647
0.356844 0.772500 0.273647
0.479916 0.772500 0.273647
0.603924 0.772500 0.273647
0.728684 0.772500 0.273647
0.854072 0.772500 0.273647
0.980000 0.772500 0.273647
0.000000 0.901250 0.273647
0.115092 0.901250 0.273647
0.235020 0.901250 0.273647
0.356844 0.901250 0.273647
0.479916 0.901250 0.273647
0.603924 0.901250 0.273647
0.728684 0.901250 0.273647
0.854072 0.901250 0.273647
0.980000 0.901250 0.273647
0.000000 1.030000 0.273647
0.115092 1.030000 0.273647
0.235020 1.030000 0.273647
0.356844 1.030000 0.273647
0.479916 1.030000 0.273647
0.603924 1.030000 0.273647
0.728684 1.030000 0.273647
0.854072 1.030000 0.273647
0.980000 1.030000 0.273647
0.000000 0.000000 0.405508
0.115092 0.000000 0.405508
0.235020 0.000000 0.405508
0.356844 0.000000 0.405508
0.479916 0.000000 0.405508
0.603924 0.000000 0.405508
0.728684 0.000000 0.405508
0.854072 0.000000 0.405508
0.980000 0.000000 0.405508
0.000000 0.128750 0.405508
0.115092 0.128750 0.405508
0.235020 0.128750 0.405508
0.356844 0.128750 0.405508
0.479916 0.128750 0.405508
0.603924 0.128750 0.405508
0.728684 0.128750 0.405508
0.854072 0.128750 0.405508
0.980000 0.128750 0.405508
0.000000 0.257500 0.405508
0.115092 0.257500 0.405508
0.235020 0.257500 0.405508
0.356844 0.257500 0.405508
0.479916 0.257500 0.405508
0.603924 0.257500 0.405508
0.728684 0.257500 0.405508
0.854072 0.257500 0.405508
0.980000 0.257500 0.405508
0.000000 0.386250 0.405508
0.115092 0.386250 0.405508
0.235020 0.386250 0.405508
0.356844 0.386250 0.405508
0.479916 0.386250 0.405508
0.603924 0.386250 0.405508
0.728684 0.386250 0.405508
0.854072 0.386250 0.405508
0.980000 0.386250 0.405508
0.000000 0.515000 0.405508
0.115092 0.515000 0.405508
0.235020 0.515000 0.405508
0.356844 0.515000 0.405508
0.479916 0.515000 0.405508
0.603924 0.515000 0.405508
0.728684 0.515000 0.405508
0.854072 0.515000 0.405508
0.980000 0.515000 0.405508
0.000000 0.643750 0.405508
0.115092 0.643750 0.405508
0.235020 0.643750 0.405508
0.356844 0.643750 0.405508
0.479916 0.643750 0.405508
0.603924 0.643750 0.405508
0.728684 0.643750 0.405508
0.854072 0.643750 0.405508
0.980000 0.643750 0.405508
0.000000 0.772500 0.405508
0.115092 0.772500 0.405508
0.235020 0.772500 0.405508
0.356844 0.772500 0.405508
0.479916 0.772500 0.405508
0.603924 0.772500 0.405508
0.728684 0.772500 0.405508
0.854072 0.772500 0.405508
0.980000 0.772500 0.405508
0.000000 0.901250 0.405508
0.115092 0.901250 0.405508
0.235020 0.901250 0.405508
0.356844 0.901250 0.405508
0.479916 0.901250 0.405508
0.603924 0.901250 0.405508
0.728684 0.901250 0.405508
0.854072 0.901250 0.405508
0.980000 0.901250 0.405508
0.000000 1.030000 0.405508
0.115092 1.030000 0.405508
0.235020 1.030000 0.405508
0.356844 1.030000 0.405508
0.479916 1.030000 0.405508
0.603924 1.030000 0.405508
0.728684 1.030000 0.405508
0.854072 1.030000 0.405508
0.980000 1.030000 0.405508
0.000000 0.000000 0.536031
0.115092 0.000000 0.536031
0.235020 0.000000 0.536031
0.356844 0.000000 0.536031
0.479916 0.000000 0.536031
0.603924 0.000000 0.536031
0.728684 0.000000 0.536031
0.854072 0.000000 0.536031
0.980000 0.000000 0.536031
0.000000 0.128750 0.536031
0.115092 0.128750 0.536031
0.235020 0.128750 0.536031
0.356844 0.128750 0.536031
0.479916 0.128750 0.536031
0.603924 0.128750 0.536031
0.728684 0.128750 0.536031
0.854072 0.128750 0.536031
0.980000 0.128750 0.536031
0.000000 0.257500 0.536031
0.115092 0.257500 0.536031
0.235020 0.257500 0.536031
0.356844 0.257500 0.536031
0.479916 0.257500 0.536031
0.603924 0.257500 0.536031
0.728684 0.257500 0.536031
0.854072 0.257500 0.536031
0.980000 0.257500 0.536031
0.000000 0.386250 0.536031
0.115092 0.386250 0.536031
0.235020 0.386250 0.536031
0.356844 0.386250 0.536031
0.479916 0.386250 0.536031
0.603924 0.386250 0.536031
0.728684 0.386250 0.536031
0.854072 0.386250 0.536031
0.980000 0.386250 0.536031
0.000000 0.515000 0.536031
0.115092 0.515000 0.536031
0.235020 0.515000 0.536031
0.356844 0.515000 0.536031
0.479916 0.515000 0.536031
0.603924 0.515000 0.536031
0.728684 0.515000 0.536031
0.854072 0.515000 0.536031
0.980000 0.515000 0.536031
0.000000 0.643750 0.536031
0.115092 0.643750 0.536031
0.235020 0.643750 0.536031
0.356844 0.643750 0.536031
0.479916 0.643750 0.536031
0.603924 0.643750 0.536031
0.728684 0.643750 0.536031
0.854072 0.643750 0.536031
0.980000 0.643750 0.536031
0.000000 0.772500 0.536031
0.115092 0.772500 0.536031
0.235020 0.772500 0.536031
0.356844 0.772500 0.536031
0.479916 0.772500 0.536031
0.603924 0.772500 0.536031
0.728684 0.772500 0.536031
0.854072 0.772500 0.536031
0.980000 0.772500 0.536031
0.000000 0.901250 0.536031
0.115092 0.901250 0.536031
0.235020 0.901250 0.536031
0.356844 0.901250 0.536031
0.479916 0.901250 0.536031
0.603924 0.901250 0.536031
0.728684 0.901250 0.536031
0.854072 0.901250 0.536031
0.980000 0.901250 0.536031
0.000000 1.030000 0.536031
0.115092 1.030000 0.536031
0.235020 1.030000 0.536031
0.356844 1.030000 0.536031
0.479916 1.030000 0.536031
0.603924 1.030000 0.536031
0.728684 1.030000 0.536031
0.854072 1.030000 0.536031
0.980000 1.030000 0.536031
0.000000 0.000000 0.665569
0.115092 0.000000 0.665569
0.235020 0.000000 0.665569
0.356844 0.000000 0.665569
0.479916 0.000000 0.665569
0.603924 0.000000 0.665569
0.728684 0.000000 0.665569
0.854072 0.000000 0.665569
0.980000 0.000000 0.665569
0.000000 0.128750 0.665569
0.115092 0.128750 0.665569
0.235020 0.128750 0.665569
0.356844 0.128750 0.665569
0.479916 0.128750 0.665569
0.603924 0.128750 0.665569
0.728684 0.128750 0.665569
0.854072 0.128750 0.665569
0.980000 0.128750 0.665569
0.000000 0.257500 0.665569
0.115092 0.257500 0.665569
0.235020 0.257500 0.665569
0.356844 0.257500 0.665569
0.479916 0.257500 0.665569
0.603924 0.257500 0.665569
0.728684 0.257500 0.665569
0.854072 0.257500 0.665569
0.980000 0.257500 0.665569
0.000000 0.386250 0.665569
0.115092 0.386250 0.665569
0.235020 0.386250 0.665569
0.356844 0.386250 0.665569
0.479916 0.386250 0.665569
0.603924 0.386250 0.665569
0.728684 0.386250 0.665569
0.854072 0.386250 0.665569
0.980000 0.386250 0.665569
0.000000 0.515000 0.665569
0.115092 0.515000 0.665569
0.235020 0.515000 0.665569
0.356844 0.515000 0.665569
0.479916 0.515000 0.665569
0.603924 0.515000 0.665569
0.728684 0.515000 0.665569
0.854072 0.515000 0.665569
0.980000 0.515000 0.665569
0.000000 0.643750 0.665569
0.115092 0.643750 0.665569
0.235020 0.643750 0.665569
0.356844 0.643750 0.665569
0.479916 0.643750 0.665569
0.603924 0.643750 0.665569
0.728684 0.643750 0.665569
0.854072 0.643750 0.665569
0.980000 0.643750 0.665569
0.000000 0.772500 0.665569
0.115092 0.772500 0.665569
0.235020 0.772500 0.665569
0.356844 0.772500 0.665569
0.479916 0.772500 0.665569
0.603924 0.772500 0.665569
0.728684 0.772500 0.665569
0.854072 0.772500 0.665569
0.980000 0.772500 0.665569
0.000000 0.901250 0.665569
0.115092 0.901250 0.665569
0.235020 0.901250 0.665569
0.356844 0.901250 0.665569
0.479916 0.901250 0.665569
0.603924 0.901250 0.665569
0.728684 0.901250 0.665569
0.854072 0.901250 0.665569
0.980000 0.901250 0.665569
0.000000 1.030000 0.665569
0.115092 1.030000 0.665569
0.235020 1.030000 0.665569
0.356844 1.030000 0.665569
0.479916 1.030000 0.665569
0.603924 1.030000 0.665569
0.728684 1.030000 0.665569
0.854072 1.030000 0.665569
0.980000 1.030000 0.665569
0.000000 0.000000 0.794326
0.115092 0.000000 0.794326
0.235020 0.000000 0.794326
0.356844 0.000000 0.794326
0.479916 0.000000 0.794326
0.603924 0.000000 0.794326
0.728684 0.000000 0.794326
0.854072 0.000000 0.794326
0.980000 0.000000 0.794326
0.000000 0.128750 0.794326
0.115092 0.128750 0.794326
0.235020 0.128750 0.794326
0.356844 0.128750 0.794326
0.479916 0.128750 0.794326
0.603924 0.128750 0.794326
0.728684 0.128750 0.794326
0.854072 0.128750 0.794326
0.980000 0.128750 0.794326
0.000000 0.257500 0.794326
0.115092 0.257500 0.794326
0.235020 0.257500 0.794326
0.356844 0.257500 0.794326
0.479916 0.257500 0.794326
0.603924 0.257500 0.794326
0.728684 0.257500 0.794326
0.854072 0.257500 0.794326
0.980000 0.257500 0.794326
0.000000 0.386250 0.794326
0.115092 0.386250 0.794326
0.235020 0.386250 0.794326
0.356844 0.386250 0.794326
0.479916 0.386250 0.794326
0.603924 0.386250 0.794326
0.728684 0.386250 0.794326
0.854072 0.386250 0.794326
0.980000 0.386250 0.794326
0.000000 0.515000 0.794326
0.115092 0.515000 0.794326
0.235020 0.515000 0.794326
0.356844 0.515000 0.794326
0.479916 0.515000 0.794326
0.603924 0.515000 0.794326
0.728684 0.515000 0.794326
0.854072 0.515000 0.794326
0.980000 0.515000 0.794326
0.000000 0.643750 0.794326
0.115092 0.643750 0.794326
0.235020 0.643750 0.794326
0.356844 0.643750 0.794326
0.479916 0.643750 0.794326
0.603924 0.643750 0.794326
0.728684 0.643750 0.794326
0.854072 0.643750 0.794326
0.980000 0.643750 0.794326
0.000000 0.772500 0.794326
0.115092 0.772500 0.794326
0.235020 0.772500 0.794326
0.356844 0.772500 0.794326
0.479916 0.772500 0.794326
0.603924 0.772500 0.794326
0.728684 0.772500 0.794326
0.854072 0.772500 0.794326
0.980000 0.772500 0.794326
0.000000 0.901250 0.794326
0.115092 0.901250 0.794326
0.235020 0.901250 0.794326
0.356844 0.901250 0.794326
0.479916 0.901250 0.794326
0.603924 0.901250 0.794326
0.728684 0.901250 0.794326
0.854072 0.901250 0.794326
0.980000 0.901250 0.794326
0.000000 1.030000 0.794326
0.115092 1.030000 0.794326
0.235020 1.030000 0.794326
0.356844 1.030000 0.794326
0.479916 1.030000 0.794326
0.603924 1.030000 0.794326
0.728684 1.030000 0.794326
0.854072 1.030000 0.794326
0.980000 1.030000 0.794326
0.000000 0.000000 0.922438
0.115092 0.000000 0.922438
0.235020 0.000000 0.922438
0.356844 0.000000 0.922438
0.479916 0.000000 0.922438
0.603924 0.000000 0.922438
0.728684 0.000000 0.922438
0.854072 0.000000 0.922438
0.980000 0.000000 0.922438
0.000000 0.128750 0.922438
0.115092 0.128750 0.922438
0.235020 0.128750 0.922438
0.356844 0.128750 0.922438
0.479916 0.128750 0.922438
0.603924 0.128750 0.922438
0.728684 0.128750 0.922438
0.854072 0.128750 0.922438
0.980000 0.128750 0.922438
0.000000 0.257500 0.922438
0.115092 0.257500 0.922438
0.235020 0.257500 0.922438
0.356844 0.257500 0.922438
0.479916 0.257500 0.922438
0.603924 0.257500 0.922438
0.728684 0.257500 0.922438
0.854072 0.257500 0.922438
0.980000 0.257500 0.922438
0.000000 0.386250 0.922438
0.115092 0.386250 0.922438
0.235020 0.386250 0.922438
0.356844 0.386250 0.922438
0.479916 0.386250 0.922438
0.603924 0.386250 0.922438
0.728684 0.386250 0.922438
0.854072 0.386250 0.922438
0.980000 0.386250 0.922438
0.000000 0.515000 0.922438
0.115092 0.515000 0.922438
0.235020 0.515000 0.922438
0.356844 0.515000 0.922438
0.479916 0.515000 0.922438
0.603924 0.515000 0.922438
0.728684 0.515000 0.922438
0.854072 0.515000 0.922438
0.980000 0.515000 0.922438
0.000000 0.643750 0.922438
0.115092 0.643750 0.922438
0.235020 0.643750 0.922438
0.356844 0.643750 0.922438
0.479916 0.643750 0.922438
0.603924 0.643750 0.922438
0.728684 0.643750 0.922438
0.854072 0.643750 0.922438
0.980000 0.643750 0.922438
0.000000 0.772500 0.922438
0.115092 0.772500 0.922438
0.235020 0.772500 0.922438
0.356844 0.772500 0.922438
0.479916 0.772500 0.922438
0.603924 0.772500 0.922438
0.728684 0.772500 0.922438
0.854072 0.772500 0.922438
0.980000 0.772500 0.922438
0.000000 0.901250 0.922438
0.115092 0.901250 0.922438
0.235020 0.901250 0.922438
0.356844 0.901250 0.922438
0.479916 0.901250 0.922438
0.603924 0.901250 0.922438
0.728684 0.901250 0.922438
0.854072 0.901250 0.922438
0.980000 0.901250 0.922438
0.000000 1.030000 0.922438
0.115092 1.030000 0.922438
0.235020 1.030000 0.922438
0.356844 1.030000 0.922438
0.479916 1.030000 0.922438
0.603924 1.030000 0.922438
0.728684 1.030000 0.922438
0.854072 1.030000 0.922438
0.980000 1.030000 0.922438
0.000000 0.000000 1.050000
0.115092 0.000000 1.050000
0.235020 0.000000 1.050000
0.356844 0.000000 1.050000
0.479916 0.000000 1.050000
0.603924 0.000000 1.050000
0.728684 0.000000 1.050000
0.854072 0.000000 1.050000
0.980000 0.000000 1.050000
0.000000 0.128750 1.050000
0.115092 0.128750 1.050000
0.235020 0.128750 1.050000
0.356844 0.128750 1.050000
0.479916 0.128750 1.050000
0.603924 0.128750 1.050000
0.728684 0.128750 1.050000
0.854072 0.128750 1.050000
0.980000 0.128750 1.050000
0.000000 0.257500 1.050000
0.115092 0.257500 1.050000
0.235020 0.257500 1.050000
0.356844 0.257500 1.050000
0.479916 0.257500 1.050000
0.603924 0.257500 1.050000
0.728684 0.257500 1.050000
0.854072 0.257500 1.050000
0.980000 0.257500 1.050000
0.000000 0.386250 1.050000
0.115092 0.386250 1.050000
0.235020 0.386250 1.050000
0.356844 0.386250 1.050000
0.479916 0.386250 1.050000
0.603924 0.386250 1.050000
0.728684 0.386250 1.050000
0.854072 0.386250 1.050000
0.980000 0.386250 1.050000
0.000000 0.515000 1.050000
0.115092 0.515000 1.050000
0.235020 0.515000 1.050000
0.356844 0.515000 1.050000
0.479916 0.515000 1.050000
0.603924 0.515000 1.050000
0.728684 0.515000 1.050000
0.854072 0.515000 1.050000
0.980000 0.515000 1.050000
0.000000 0.643750 1.050000
0.115092 0.643750 1.050000
0.235020 0.643750 1.050000
0.356844 0.643750 1.050000
0.479916 0.643750 1.050000
0.603924 0.643750 1.050000
0.728684 0.643750 1.050000
0.854072 0.643750 1.050000
0.980000 0.643750 1.050000
0.000000 0.772500 1.050000
0.115092 0.772500 1.050000
0.235020 0.772500 1.050000
0.356844 0.772500 1.050000
0.479916 0.772500 1.050000
0.603924 0.772500 1.050000
0.728684 0.772500 1.050000
0.854072 0.772500 1.050000
0.980000 0.772500 1.050000
0.000000 0.901250 1.050000
0.115092 0.901250 1.050000
0.235020 0.901250 1.050000
0.356844 0.901250 1.050000
0.479916 0.901250 1.050000
0.603924 0.901250 1.050000
0.728684 0.901250 1.050000
0.854072 0.901250 1.050000
0.980000 0.901250 1.050000
0.000000 1.030000 1.050000
0.115092 1.030000 1.050000
0.235020 1.030000 1.050000
0.356844 1.030000 1.050000
0.479916 1.030000 1.050000
0.603924 1.030000 1.050000
0.728684 1.030000 1.050000
0.854072 1.030000 1.050000
0.980000 1.030000 1.050000
