public/assets/luts/b05_hospital.cube
TITLE "b05_hospital"
LUT_3D_SIZE 5
DOMAIN_MIN 0 0 0
DOMAIN_MAX 1 1 1
0.000000 0.000000 0.000000
0.235020 0.000000 0.000000
0.479916 0.000000 0.000000
0.728684 0.000000 0.000000
0.980000 0.000000 0.000000
0.000000 0.257500 0.000000
0.235020 0.257500 0.000000
0.479916 0.257500 0.000000
0.728684 0.257500 0.000000
0.980000 0.257500 0.000000
0.000000 0.515000 0.000000
0.235020 0.515000 0.000000
0.479916 0.515000 0.000000
0.728684 0.515000 0.000000
0.980000 0.515000 0.000000
0.000000 0.772500 0.000000
0.235020 0.772500 0.000000
0.479916 0.772500 0.000000
0.728684 0.772500 0.000000
0.980000 0.772500 0.000000
0.000000 1.030000 0.000000
0.235020 1.030000 0.000000
0.479916 1.030000 0.000000
0.728684 1.030000 0.000000
0.980000 1.030000 0.000000
0.000000 0.000000 0.273647
0.235020 0.000000 0.273647
0.479916 0.000000 0.273647
0.728684 0.000000 0.273647
0.980000 0.000000 0.273647
0.000000 0.257500 0.273647
0.235020 0.257500 0.273647
0.479916 0.257500 0.273647
0.728684 0.257500 0.273647
0.980000 0.257500 0.273647
0.000000 0.515000 0.273647
0.235020 0.515000 0.273647
0.479916 0.515000 0.273647
0.728684 0.515000 0.273647
0.980000 0.515000 0.273647
0.000000 0.772500 0.273647
0.235020 0.772500 0.273647
0.479916 0.772500 0.273647
0.728684 0.772500 0.273647
0.980000 0.772500 0.273647
0.000000 1.030000 0.273647
0.235020 1.030000 0.273647
0.479916 1.030000 0.273647
0.728684 1.030000 0.273647
0.980000 1.030000 0.273647
0.000000 0.000000 0.536031
0.235020 0.000000 0.536031
0.479916 0.000000 0.536031
0.728684 0.000000 0.536031
0.980000 0.000000 0.536031
0.000000 0.257500 0.536031
0.235020 0.257500 0.536031
0.479916 0.257500 0.536031
0.728684 0.257500 0.536031
0.980000 0.257500 0.536031
0.000000 0.515000 0.536031
0.235020 0.515000 0.536031
0.479916 0.515000 0.536031
0.728684 0.515000 0.536031
0.980000 0.515000 0.536031
0.000000 0.772500 0.536031
0.235020 0.772500 0.536031
0.479916 0.772500 0.536031
0.728684 0.772500 0.536031
0.980000 0.772500 0.536031
0.000000 1.030000 0.536031
0.235020 1.030000 0.536031
0.479916 1.030000 0.536031
0.728684 1.030000 0.536031
0.980000 1.030000 0.536031
0.000000 0.000000 0.794326
0.235020 0.000000 0.794326
0.479916 0.000000 0.794326
0.728684 0.000000 0.794326
0.980000 0.000000 0.794326
0.000000 0.257500 0.794326
0.235020 0.257500 0.794326
0.479916 0.257500 0.794326
0.728684 0.257500 0.794326
0.980000 0.257500 0.794326
0.000000 0.515000 0.794326
0.235020 0.515000 0.794326
0.479916 0.515000 0.794326
0.728684 0.515000 0.794326
0.980000 0.515000 0.794326
0.000000 0.772500 0.794326
0.235020 0.772500 0.794326
0.479916 0.772500 0.794326
0.728684 0.772500 0.794326
0.980000 0.772500 0.794326
0.000000 1.030000 0.794326
0.235020 1.030000 0.794326
0.479916 1.030000 0.794326
0.728684 1.030000 0.794326
0.980000 1.030000 0.794326
0.000000 0.000000 1.050000
0.235020 0.000000 1.050000
0.479916 0.000000 1.050000
0.728684 0.000000 1.050000
0.980000 0.000000 1.050000
0.000000 0.257500 1.050000
0.235020 0.257500 1.050000
0.479916 0.257500 1.050000
0.728684 0.257500 1.050000
0.980000 0.257500 1.050000
0.000000 0.515000 1.050000
0.235020 0.515000 1.050000
0.479916 0.515000 1.050000
0.728684 0.515000 1.050000
0.980000 0.515000 1.050000
0.000000 0.772500 1.050000
0.235020 0.772500 1.050000
0.479916 0.772500 1.050000
0.728684 0.772500 1.050000
0.980000 0.772500 1.050000
0.000000 1.030000 1.050000
0.235020 1.030000 1.050000
0.479916 1.030000 1.050000
0.728684 1.030000 1.050000
0.980000 1.030000 1.050000
