public/assets/luts/b06_subway.cube
TITLE "b06_subway"
LUT_3D_SIZE 9
DOMAIN_MIN 0 0 0
DOMAIN_MAX 1 1 1
0.000000 0.000000 0.000000
0.119789 0.000000 0.000000
0.244612 0.000000 0.000000
0.371409 0.000000 0.000000
0.499504 0.000000 0.000000
0.628574 0.000000 0.000000
0.758426 0.000000 0.000000
0.888932 0.000000 0.000000
1.020000 0.000000 0.000000
0.000000 0.120000 0.000000
0.119789 0.120000 0.000000
0.244612 0.120000 0.000000
0.371409 0.120000 0.000000
0.499504 0.120000 0.000000
0.628574 0.120000 0.000000
0.758426 0.120000 0.000000
0.888932 0.120000 0.000000
1.020000 0.120000 0.000000
0.000000 0.240000 0.000000
0.119789 0.240000 0.000000
0.244612 0.240000 0.000000
0.371409 0.240000 0.000000
0.499504 0.240000 0.000000
0.628574 0.240000 0.000000
0.758426 0.240000 0.000000
0.888932 0.240000 0.000000
1.020000 0.240000 0.000000
0.000000 0.360000 0.000000
0.119789 0.360000 0.000000
0.244612 0.360000 0.000000
0.371409 0.360000 0.000000
0.499504 0.360000 0.000000
0.628574 0.360000 0.000000
0.758426 0.360000 0.000000
0.888932 0.360000 0.000000
1.020000 0.360000 0.000000
0.000000 0.480000 0.000000
0.119789 0.480000 0.000000
0.244612 0.480000 0.000000
0.371409 0.480000 0.000000
0.499504 0.480000 0.000000
0.628574 0.480000 0.000000
0.758426 0.480000 0.000000
0.888932 0.480000 0.000000
1.020000 0.480000 0.000000
0.000000 0.600000 0.000000
0.119789 0.600000 0.000000
0.244612 0.600000 0.000000
0.371409 0.600000 0.000000
0.499504 0.600000 0.000000
0.628574 0.600000 0.000000
0.758426 0.600000 0.000000
0.888932 0.600000 0.000000
1.020000 0.600000 0.000000
0.000000 0.720000 0.000000
0.119789 0.720000 0.000000
0.244612 0.720000 0.000000
0.371409 0.720000 0.000000
0.499504 0.720000 0.000000
0.628574 0.720000 0.000000
0.758426 0.720000 0.000000
0.888932 0.720000 0.000000
1.020000 0.720000 0.000000
0.000000 0.840000 0.000000
0.119789 0.840000 0.000000
0.244612 0.840000 0.000000
0.371409 0.840000 0.000000
0.499504 0.840000 0.000000
0.628574 0.840000 0.000000
0.758426 0.840000 0.000000
0.888932 0.840000 0.000000
1.020000 0.840000 0.000000
0.000000 0.960000 0.000000
0.119789 0.960000 0.000000
0.244612 0.960000 0.000000
0.371409 0.960000 0.000000
0.499504 0.960000 0.000000
0.628574 0.960000 0.000000
0.758426 0.960000 0.000000
0.888932 0.960000 0.000000
1.020000 0.960000 0.000000
0.000000 0.000000 0.125063
0.119789 0.000000 0.125063
0.244612 0.000000 0.125063
0.371409 0.000000 0.125063
0.499504 0.000000 0.125063
0.628574 0.000000 0.125063
0.758426 0.000000 0.125063
0.888932 0.000000 0.125063
1.020000 0.000000 0.125063
0.000000 0.120000 0.125063
0.119789 0.120000 0.125063
0.244612 0.120000 0.125063
0.371409 0.120000 0.125063
0.499504 0.120000 0.125063
0.628574 0.120000 0.125063
0.758426 0.120000 0.125063
0.888932 0.120000 0.125063
1.020000 0.120000 0.125063
0.000000 0.240000 0.125063
0.119789 0.240000 0.125063
0.244612 0.240000 0.125063
0.371409 0.240000 0.125063
0.499504 0.240000 0.125063
0.628574 0.240000 0.125063
0.758426 0.240000 0.125063
0.888932 0.240000 0.125063
1.020000 0.240000 0.125063
0.000000 0.360000 0.125063
0.119789 0.360000 0.125063
0.244612 0.360000 0.125063
0.371409 0.360000 0.125063
0.499504 0.360000 0.125063
0.628574 0.360000 0.125063
0.758426 0.360000 0.125063
0.888932 0.360000 0.125063
1.020000 0.360000 0.125063
0.000000 0.480000 0.125063
0.119789 0.480000 0.125063
0.244612 0.480000 0.125063
0.371409 0.480000 0.125063
0.499504 0.480000 0.125063
0.628574 0.480000 0.125063
0.758426 0.480000 0.125063
0.888932 0.480000 0.125063
1.020000 0.480000 0.125063
0.000000 0.600000 0.125063
0.119789 0.600000 0.125063
0.244612 0.600000 0.125063
0.371409 0.600000 0.125063
0.499504 0.600000 0.125063
0.628574 0.600000 0.125063
0.758426 0.600000 0.125063
0.888932 0.600000 0.125063
1.020000 0.600000 0.125063
0.000000 0.720000 0.125063
0.119789 0.720000 0.125063
0.244612 0.720000 0.125063
0.371409 0.720000 0.125063
0.499504 0.720000 0.125063
0.628574 0.720000 0.125063
0.758426 0.720000 0.125063
0.888932 0.720000 0.125063
1.020000 0.720000 0.125063
0.000000 0.840000 0.125063
0.119789 0.840000 0.125063
0.244612 0.840000 0.125063
0.371409 0.840000 0.125063
0.499504 0.840000 0.125063
0.628574 0.840000 0.125063
0.758426 0.840000 0.125063
0.888932 0.840000 0.125063
1.020000 0.840000 0.125063
0.000000 0.960000 0.125063
0.119789 0.960000 0.125063
0.244612 0.960000 0.125063
0.371409 0.960000 0.125063
0.499504 0.960000 0.125063
0.628574 0.960000 0.125063
0.758426 0.960000 0.125063
0.888932 0.960000 0.125063
1.020000 0.960000 0.125063
0.000000 0.000000 0.244979
0.119789 0.000000 0.244979
0.244612 0.000000 0.244979
0.371409 0.000000 0.244979
0.499504 0.000000 0.244979
0.628574 0.000000 0.244979
0.758426 0.000000 0.244979
0.888932 0.000000 0.244979
1.020000 0.000000 0.244979
0.000000 0.120000 0.244979
0.119789 0.120000 0.244979
0.244612 0.120000 0.244979
0.371409 0.120000 0.244979
0.499504 0.120000 0.244979
0.628574 0.120000 0.244979
0.758426 0.120000 0.244979
0.888932 0.120000 0.244979
1.020000 0.120000 0.244979
0.000000 0.240000 0.244979
0.119789 0.240000 0.244979
0.244612 0.240000 0.244979
0.371409 0.240000 0.244979
0.499504 0.240000 0.244979
0.628574 0.240000 0.244979
0.758426 0.240000 0.244979
0.888932 0.240000 0.244979
1.020000 0.240000 0.244979
0.000000 0.360000 0.244979
0.119789 0.360000 0.244979
0.244612 0.360000 0.244979
0.371409 0.360000 0.244979
0.499504 0.360000 0.244979
0.628574 0.360000 0.244979
0.758426 0.360000 0.244979
0.888932 0.360000 0.244979
1.020000 0.360000 0.244979
0.000000 0.480000 0.244979
0.119789 0.480000 0.244979
0.244612 0.480000 0.244979
0.371409 0.480000 0.244979
0.499504 0.480000 0.244979
0.628574 0.480000 0.244979
0.758426 0.480000 0.244979
0.888932 0.480000 0.244979
1.020000 0.480000 0.244979
0.000000 0.600000 0.244979
0.119789 0.600000 0.244979
0.244612 0.600000 0.244979
0.371409 0.600000 0.244979
0.499504 0.600000 0.244979
0.628574 0.600000 0.244979
0.758426 0.600000 0.244979
0.888932 0.600000 0.244979
1.020000 0.600000 0.244979
0.000000 0.720000 0.244979
0.119789 0.720000 0.244979
0.244612 0.720000 0.244979
0.371409 0.720000 0.244979
0.499504 0.720000 0.244979
0.628574 0.720000 0.244979
0.758426 0.720000 0.244979
0.888932 0.720000 0.244979
1.020000 0.720000 0.244979
0.000000 0.840000 0.244979
0.119789 0.840000 0.244979
0.244612 0.840000 0.244979
0.371409 0.840000 0.244979
0.499504 0.840000 0.244979
0.628574 0.840000 0.244979
0.758426 0.840000 0.244979
0.888932 0.840000 0.244979
1.020000 0.840000 0.244979
0.000000 0.960000 0.244979
0.119789 0.960000 0.244979
0.244612 0.960000 0.244979
0.371409 0.960000 0.244979
0.499504 0.960000 0.244979
0.628574 0.960000 0.244979
0.758426 0.960000 0.244979
0.888932 0.960000 0.244979
1.020000 0.960000 0.244979
0.000000 0.000000 0.363026
0.119789 0.000000 0.363026
0.244612 0.000000 0.363026
0.371409 0.000000 0.363026
0.499504 0.000000 0.363026
0.628574 0.000000 0.363026
0.758426 0.000000 0.363026
0.888932 0.000000 0.363026
1.020000 0.000000 0.363026
0.000000 0.120000 0.363026
0.119789 0.120000 0.363026
0.244612 0.120000 0.363026
0.371409 0.120000 0.363026
0.499504 0.120000 0.363026
0.628574 0.120000 0.363026
0.758426 0.120000 0.363026
0.888932 0.120000 0.363026
1.020000 0.120000 0.363026
0.000000 0.240000 0.363026
0.119789 0.240000 0.363026
0.244612 0.240000 0.363026
0.371409 0.240000 0.363026
0.499504 0.240000 0.363026
0.628574 0.240000 0.363026
0.758426 0.240000 0.363026
0.888932 0.240000 0.363026
1.020000 0.240000 0.363026
0.000000 0.360000 0.363026
0.119789 0.360000 0.363026
0.244612 0.360000 0.363026
0.371409 0.360000 0.363026
0.499504 0.360000 0.363026
0.628574 0.360000 0.363026
0.758426 0.360000 0.363026
0.888932 0.360000 0.363026
1.020000 0.360000 0.363026
0.000000 0.480000 0.363026
0.119789 0.480000 0.363026
0.244612 0.480000 0.363026
0.371409 0.480000 0.363026
0.499504 0.480000 0.363026
0.628574 0.480000 0.363026
0.758426 0.480000 0.363026
0.888932 0.480000 0.363026
1.020000 0.480000 0.363026
0.000000 0.600000 0.363026
0.119789 0.600000 0.363026
0.244612 0.600000 0.363026
0.371409 0.600000 0.363026
0.499504 0.600000 0.363026
0.628574 0.600000 0.363026
0.758426 0.600000 0.363026
0.888932 0.600000 0.363026
1.020000 0.600000 0.363026
0.000000 0.720000 0.363026
0.119789 0.720000 0.363026
0.244612 0.720000 0.363026
0.371409 0.720000 0.363026
0.499504 0.720000 0.363026
0.628574 0.720000 0.363026
0.758426 0.720000 0.363026
0.888932 0.720000 0.363026
1.020000 0.720000 0.363026
0.000000 0.840000 0.363026
0.119789 0.840000 0.363026
0.244612 0.840000 0.363026
0.371409 0.840000 0.363026
0.499504 0.840000 0.363026
0.628574 0.840000 0.363026
0.758426 0.840000 0.363026
0.888932 0.840000 0.363026
1.020000 0.840000 0.363026
0.000000 0.960000 0.363026
0.119789 0.960000 0.363026
0.244612 0.960000 0.363026
0.371409 0.960000 0.363026
0.499504 0.960000 0.363026
0.628574 0.960000 0.363026
0.758426 0.960000 0.363026
0.888932 0.960000 0.363026
1.020000 0.960000 0.363026
0.000000 0.000000 0.479876
0.119789 0.000000 0.479876
0.244612 0.000000 0.479876
0.371409 0.000000 0.479876
0.499504 0.000000 0.479876
0.628574 0.000000 0.479876
0.758426 0.000000 0.479876
0.888932 0.000000 0.479876
1.020000 0.000000 0.479876
0.000000 0.120000 0.479876
0.119789 0.120000 0.479876
0.244612 0.120000 0.479876
0.371409 0.120000 0.479876
0.499504 0.120000 0.479876
0.628574 0.120000 0.479876
0.758426 0.120000 0.479876
0.888932 0.120000 0.479876
1.020000 0.120000 0.479876
0.000000 0.240000 0.479876
0.119789 0.240000 0.479876
0.244612 0.240000 0.479876
0.371409 0.240000 0.479876
0.499504 0.240000 0.479876
0.628574 0.240000 0.479876
0.758426 0.240000 0.479876
0.888932 0.240000 0.479876
1.020000 0.240000 0.479876
0.000000 0.360000 0.479876
0.119789 0.360000 0.479876
0.244612 0.360000 0.479876
0.371409 0.360000 0.479876
0.499504 0.360000 0.479876
0.628574 0.360000 0.479876
0.758426 0.360000 0.479876
0.888932 0.360000 0.479876
1.020000 0.360000 0.479876
0.000000 0.480000 0.479876
0.119789 0.480000 0.479876
0.244612 0.480000 0.479876
0.371409 0.480000 0.479876
0.499504 0.480000 0.479876
0.628574 0.480000 0.479876
0.758426 0.480000 0.479876
0.888932 0.480000 0.479876
1.020000 0.480000 0.479876
0.000000 0.600000 0.479876
0.119789 0.600000 0.479876
0.244612 0.600000 0.479876
0.371409 0.600000 0.479876
0.499504 0.600000 0.479876
0.628574 0.600000 0.479876
0.758426 0.600000 0.479876
0.888932 0.600000 0.479876
1.020000 0.600000 0.479876
0.000000 0.720000 0.479876
0.119789 0.720000 0.479876
0.244612 0.720000 0.479876
0.371409 0.720000 0.479876
0.499504 0.720000 0.479876
0.628574 0.720000 0.479876
0.758426 0.720000 0.479876
0.888932 0.720000 0.479876
1.020000 0.720000 0.479876
0.000000 0.840000 0.479876
0.119789 0.840000 0.479876
0.244612 0.840000 0.479876
0.371409 0.840000 0.479876
0.499504 0.840000 0.479876
0.628574 0.840000 0.479876
0.758426 0.840000 0.479876
0.888932 0.840000 0.479876
1.020000 0.840000 0.479876
0.000000 0.960000 0.479876
0.119789 0.960000 0.479876
0.244612 0.960000 0.479876
0.371409 0.960000 0.479876
0.499504 0.960000 0.479876
0.628574 0.960000 0.479876
0.758426 0.960000 0.479876
0.888932 0.960000 0.479876
1.020000 0.960000 0.479876
0.000000 0.000000 0.595842
0.119789 0.000000 0.595842
0.244612 0.000000 0.595842
0.371409 0.000000 0.595842
0.499504 0.000000 0.595842
0.628574 0.000000 0.595842
0.758426 0.000000 0.595842
0.888932 0.000000 0.595842
1.020000 0.000000 0.595842
0.000000 0.120000 0.595842
0.119789 0.120000 0.595842
0.244612 0.120000 0.595842
0.371409 0.120000 0.595842
0.499504 0.120000 0.595842
0.628574 0.120000 0.595842
0.758426 0.120000 0.595842
0.888932 0.120000 0.595842
1.020000 0.120000 0.595842
0.000000 0.240000 0.595842
0.119789 0.240000 0.595842
0.244612 0.240000 0.595842
0.371409 0.240000 0.595842
0.499504 0.240000 0.595842
0.628574 0.240000 0.595842
0.758426 0.240000 0.595842
0.888932 0.240000 0.595842
1.020000 0.240000 0.595842
0.000000 0.360000 0.595842
0.119789 0.360000 0.595842
0.244612 0.360000 0.595842
0.371409 0.360000 0.595842
0.499504 0.360000 0.595842
0.628574 0.360000 0.595842
0.758426 0.360000 0.595842
0.888932 0.360000 0.595842
1.020000 0.360000 0.595842
0.000000 0.480000 0.595842
0.119789 0.480000 0.595842
0.244612 0.480000 0.595842
0.371409 0.480000 0.595842
0.499504 0.480000 0.595842
0.628574 0.480000 0.595842
0.758426 0.480000 0.595842
0.888932 0.480000 0.595842
1.020000 0.480000 0.595842
0.000000 0.600000 0.595842
0.119789 0.600000 0.595842
0.244612 0.600000 0.595842
0.371409 0.600000 0.595842
0.499504 0.600000 0.595842
0.628574 0.600000 0.595842
0.758426 0.600000 0.595842
0.888932 0.600000 0.595842
1.020000 0.600000 0.595842
0.000000 0.720000 0.595842
0.119789 0.720000 0.595842
0.244612 0.720000 0.595842
0.371409 0.720000 0.595842
0.499504 0.720000 0.595842
0.628574 0.720000 0.595842
0.758426 0.720000 0.595842
0.888932 0.720000 0.595842
1.020000 0.720000 0.595842
0.000000 0.840000 0.595842
0.119789 0.840000 0.595842
0.244612 0.840000 0.595842
0.371409 0.840000 0.595842
0.499504 0.840000 0.595842
0.628574 0.840000 0.595842
0.758426 0.840000 0.595842
0.888932 0.840000 0.595842
1.020000 0.840000 0.595842
0.000000 0.960000 0.595842
0.119789 0.960000 0.595842
0.244612 0.960000 0.595842
0.371409 0.960000 0.595842
0.499504 0.960000 0.595842
0.628574 0.960000 0.595842
0.758426 0.960000 0.595842
0.888932 0.960000 0.595842
1.020000 0.960000 0.595842
0.000000 0.000000 0.711111
0.119789 0.000000 0.711111
0.244612 0.000000 0.711111
0.371409 0.000000 0.711111
0.499504 0.000000 0.711111
0.628574 0.000000 0.711111
0.758426 0.000000 0.711111
0.888932 0.000000 0.711111
1.020000 0.000000 0.711111
0.000000 0.120000 0.711111
0.119789 0.120000 0.711111
0.244612 0.120000 0.711111
0.371409 0.120000 0.711111
0.499504 0.120000 0.711111
0.628574 0.120000 0.711111
0.758426 0.120000 0.711111
0.888932 0.120000 0.711111
1.020000 0.120000 0.711111
0.000000 0.240000 0.711111
0.119789 0.240000 0.711111
0.244612 0.240000 0.711111
0.371409 0.240000 0.711111
0.499504 0.240000 0.711111
0.628574 0.240000 0.711111
0.758426 0.240000 0.711111
0.888932 0.240000 0.711111
1.020000 0.240000 0.711111
0.000000 0.360000 0.711111
0.119789 0.360000 0.711111
0.244612 0.360000 0.711111
0.371409 0.360000 0.711111
0.499504 0.360000 0.711111
0.628574 0.360000 0.711111
0.758426 0.360000 0.711111
0.888932 0.360000 0.711111
1.020000 0.360000 0.711111
0.000000 0.480000 0.711111
0.119789 0.480000 0.711111
0.244612 0.480000 0.711111
0.371409 0.480000 0.711111
0.499504 0.480000 0.711111
0.628574 0.480000 0.711111
0.758426 0.480000 0.711111
0.888932 0.480000 0.711111
1.020000 0.480000 0.711111
0.000000 0.600000 0.711111
0.119789 0.600000 0.711111
0.244612 0.600000 0.711111
0.371409 0.600000 0.711111
0.499504 0.600000 0.711111
0.628574 0.600000 0.711111
0.758426 0.600000 0.711111
0.888932 0.600000 0.711111
1.020000 0.600000 0.711111
0.000000 0.720000 0.711111
0.119789 0.720000 0.711111
0.244612 0.720000 0.711111
0.371409 0.720000 0.711111
0.499504 0.720000 0.711111
0.628574 0.720000 0.711111
0.758426 0.720000 0.711111
0.888932 0.720000 0.711111
1.020000 0.720000 0.711111
0.000000 0.840000 0.711111
0.119789 0.840000 0.711111
0.244612 0.840000 0.711111
0.371409 0.840000 0.711111
0.499504 0.840000 0.711111
0.628574 0.840000 0.711111
0.758426 0.840000 0.711111
0.888932 0.840000 0.711111
1.020000 0.840000 0.711111
0.000000 0.960000 0.711111
0.119789 0.960000 0.711111
0.244612 0.960000 0.711111
0.371409 0.960000 0.711111
0.499504 0.960000 0.711111
0.628574 0.960000 0.711111
0.758426 0.960000 0.711111
0.888932 0.960000 0.711111
1.020000 0.960000 0.711111
0.000000 0.000000 0.825801
0.119789 0.000000 0.825801
0.244612 0.000000 0.825801
0.371409 0.000000 0.825801
0.499504 0.000000 0.825801
0.628574 0.000000 0.825801
0.758426 0.000000 0.825801
0.888932 0.000000 0.825801
1.020000 0.000000 0.825801
0.000000 0.120000 0.825801
0.119789 0.120000 0.825801
0.244612 0.120000 0.825801
0.371409 0.120000 0.825801
0.499504 0.120000 0.825801
0.628574 0.120000 0.825801
0.758426 0.120000 0.825801
0.888932 0.120000 0.825801
1.020000 0.120000 0.825801
0.000000 0.240000 0.825801
0.119789 0.240000 0.825801
0.244612 0.240000 0.825801
0.371409 0.240000 0.825801
0.499504 0.240000 0.825801
0.628574 0.240000 0.825801
0.758426 0.240000 0.825801
0.888932 0.240000 0.825801
1.020000 0.240000 0.825801
0.000000 0.360000 0.825801
0.119789 0.360000 0.825801
0.244612 0.360000 0.825801
0.371409 0.360000 0.825801
0.499504 0.360000 0.825801
0.628574 0.360000 0.825801
0.758426 0.360000 0.825801
0.888932 0.360000 0.825801
1.020000 0.360000 0.825801
0.000000 0.480000 0.825801
0.119789 0.480000 0.825801
0.244612 0.480000 0.825801
0.371409 0.480000 0.825801
0.499504 0.480000 0.825801
0.628574 0.480000 0.825801
0.758426 0.480000 0.825801
0.888932 0.480000 0.825801
1.020000 0.480000 0.825801
0.000000 0.600000 0.825801
0.119789 0.600000 0.825801
0.244612 0.600000 0.825801
0.371409 0.600000 0.825801
0.499504 0.600000 0.825801
0.628574 0.600000 0.825801
0.758426 0.600000 0.825801
0.888932 0.600000 0.825801
1.020000 0.600000 0.825801
0.000000 0.720000 0.825801
0.119789 0.720000 0.825801
0.244612 0.720000 0.825801
0.371409 0.720000 0.825801
0.499504 0.720000 0.825801
0.628574 0.720000 0.825801
0.758426 0.720000 0.825801
0.888932 0.720000 0.825801
1.020000 0.720000 0.825801
0.000000 0.840000 0.825801
0.119789 0.840000 0.825801
0.244612 0.840000 0.825801
0.371409 0.840000 0.825801
0.499504 0.840000 0.825801
0.628574 0.840000 0.825801
0.758426 0.840000 0.825801
0.888932 0.840000 0.825801
1.020000 0.840000 0.825801
0.000000 0.960000 0.825801
0.119789 0.960000 0.825801
0.244612 0.960000 0.825801
0.371409 0.960000 0.825801
0.499504 0.960000 0.825801
0.628574 0.960000 0.825801
0.758426 0.960000 0.825801
0.888932 0.960000 0.825801
1.020000 0.960000 0.825801
0.000000 0.000000 0.940000
0.119789 0.000000 0.940000
0.244612 0.000000 0.940000
0.371409 0.000000 0.940000
0.499504 0.000000 0.940000
0.628574 0.000000 0.940000
0.758426 0.000000 0.940000
0.888932 0.000000 0.940000
1.020000 0.000000 0.940000
0.000000 0.120000 0.940000
0.119789 0.120000 0.940000
0.244612 0.120000 0.940000
0.371409 0.120000 0.940000
0.499504 0.120000 0.940000
0.628574 0.120000 0.940000
0.758426 0.120000 0.940000
0.888932 0.120000 0.940000
1.020000 0.120000 0.940000
0.000000 0.240000 0.940000
0.119789 0.240000 0.940000
0.244612 0.240000 0.940000
0.371409 0.240000 0.940000
0.499504 0.240000 0.940000
0.628574 0.240000 0.940000
0.758426 0.240000 0.940000
0.888932 0.240000 0.940000
1.020000 0.240000 0.940000
0.000000 0.360000 0.940000
0.119789 0.360000 0.940000
0.244612 0.360000 0.940000
0.371409 0.360000 0.940000
0.499504 0.360000 0.940000
0.628574 0.360000 0.940000
0.758426 0.360000 0.940000
0.888932 0.360000 0.940000
1.020000 0.360000 0.940000
0.000000 0.480000 0.940000
0.119789 0.480000 0.940000
0.244612 0.480000 0.940000
0.371409 0.480000 0.940000
0.499504 0.480000 0.940000
0.628574 0.480000 0.940000
0.758426 0.480000 0.940000
0.888932 0.480000 0.940000
1.020000 0.480000 0.940000
0.000000 0.600000 0.940000
0.119789 0.600000 0.940000
0.244612 0.600000 0.940000
0.371409 0.600000 0.940000
0.499504 0.600000 0.940000
0.628574 0.600000 0.940000
0.758426 0.600000 0.940000
0.888932 0.600000 0.940000
1.020000 0.600000 0.940000
0.000000 0.720000 0.940000
0.119789 0.720000 0.940000
0.244612 0.720000 0.940000
0.371409 0.720000 0.940000
0.499504 0.720000 0.940000
0.628574 0.720000 0.940000
0.758426 0.720000 0.940000
0.888932 0.720000 0.940000
1.020000 0.720000 0.940000
0.000000 0.840000 0.940000
0.119789 0.840000 0.940000
0.244612 0.840000 0.940000
0.371409 0.840000 0.940000
0.499504 0.840000 0.940000
0.628574 0.840000 0.940000
0.758426 0.840000 0.940000
0.888932 0.840000 0.940000
1.020000 0.840000 0.940000
0.000000 0.960000 0.940000
0.119789 0.960000 0.940000
0.244612 0.960000 0.940000
0.371409 0.960000 0.940000
0.499504 0.960000 0.940000
0.628574 0.960000 0.940000
0.758426 0.960000 0.940000
0.888932 0.960000 0.940000
1.020000 0.960000 0.940000
