public/assets/luts/b06_subway.cube
TITLE "b06_subway"
LUT_3D_SIZE 17
DOMAIN_MIN 0 0 0
DOMAIN_MAX 1 1 1
0.000000 0.000000 0.000000
0.058662 0.000000 0.000000
0.119789 0.000000 0.000000
0.181883 0.000000 0.000000
0.244612 0.000000 0.000000
0.307819 0.000000 0.000000
0.371409 0.000000 0.000000
0.435319 0.000000 0.000000
0.499504 0.000000 0.000000
0.563932 0.000000 0.000000
0.628574 0.000000 0.000000
0.693412 0.000000 0.000000
0.758426 0.000000 0.000000
0.823604 0.000000 0.000000
0.888932 0.000000 0.000000
0.954400 0.000000 0.000000
1.020000 0.000000 0.000000
0.000000 0.060000 0.000000
0.058662 0.060000 0.000000
0.119789 0.060000 0.000000
0.181883 0.060000 0.000000
0.244612 0.060000 0.000000
0.307819 0.060000 0.000000
0.371409 0.060000 0.000000
0.435319 0.060000 0.000000
0.499504 0.060000 0.000000
0.563932 0.060000 0.000000
0.628574 0.060000 0.000000
0.693412 0.060000 0.000000
0.758426 0.060000 0.000000
0.823604 0.060000 0.000000
0.888932 0.060000 0.000000
0.954400 0.060000 0.000000
1.020000 0.060000 0.000000
0.000000 0.120000 0.000000
0.058662 0.120000 0.000000
0.119789 0.120000 0.000000
0.181883 0.120000 0.000000
0.244612 0.120000 0.000000
0.307819 0.120000 0.000000
0.371409 0.120000 0.000000
0.435319 0.120000 0.000000
0.499504 0.120000 0.000000
0.563932 0.120000 0.000000
0.628574 0.120000 0.000000
0.693412 0.120000 0.000000
0.758426 0.120000 0.000000
0.823604 0.120000 0.000000
0.888932 0.120000 0.000000
0.954400 0.120000 0.000000
1.020000 0.120000 0.000000
0.000000 0.180000 0.000000
0.058662 0.180000 0.000000
0.119789 0.180000 0.000000
0.181883 0.180000 0.000000
0.244612 0.180000 0.000000
0.307819 0.180000 0.000000
0.371409 0.180000 0.000000
0.435319 0.180000 0.000000
0.499504 0.180000 0.000000
0.563932 0.180000 0.000000
0.628574 0.180000 0.000000
0.693412 0.180000 0.000000
0.758426 0.180000 0.000000
0.823604 0.180000 0.000000
0.888932 0.180000 0.000000
0.954400 0.180000 0.000000
1.020000 0.180000 0.000000
0.000000 0.240000 0.000000
0.058662 0.240000 0.000000
0.119789 0.240000 0.000000
0.181883 0.240000 0.000000
0.244612 0.240000 0.000000
0.307819 0.240000 0.000000
0.371409 0.240000 0.000000
0.435319 0.240000 0.000000
0.499504 0.240000 0.000000
0.563932 0.240000 0.000000
0.628574 0.240000 0.000000
0.693412 0.240000 0.000000
0.758426 0.240000 0.000000
0.823604 0.240000 0.000000
0.888932 0.240000 0.000000
0.954400 0.240000 0.000000
1.020000 0.240000 0.000000
0.000000 0.300000 0.000000
0.058662 0.300000 0.000000
0.119789 0.300000 0.000000
0.181883 0.300000 0.000000
0.244612 0.300000 0.000000
0.307819 0.300000 0.000000
0.371409 0.300000 0.000000
0.435319 0.300000 0.000000
0.499504 0.300000 0.000000
0.563932 0.300000 0.000000
0.628574 0.300000 0.000000
0.693412 0.300000 0.000000
0.758426 0.300000 0.000000
0.823604 0.300000 0.000000
0.888932 0.300000 0.000000
0.954400 0.300000 0.000000
1.020000 0.300000 0.000000
0.000000 0.360000 0.000000
0.058662 0.360000 0.000000
0.119789 0.360000 0.000000
0.181883 0.360000 0.000000
0.244612 0.360000 0.000000
0.307819 0.360000 0.000000
0.371409 0.360000 0.000000
0.435319 0.360000 0.000000
0.499504 0.360000 0.000000
0.563932 0.360000 0.000000
0.628574 0.360000 0.000000
0.693412 0.360000 0.000000
0.758426 0.360000 0.000000
0.823604 0.360000 0.000000
0.888932 0.360000 0.000000
0.954400 0.360000 0.000000
1.020000 0.360000 0.000000
0.000000 0.420000 0.000000
0.058662 0.420000 0.000000
0.119789 0.420000 0.000000
0.181883 0.420000 0.000000
0.244612 0.420000 0.000000
0.307819 0.420000 0.000000
0.371409 0.420000 0.000000
0.435319 0.420000 0.000000
0.499504 0.420000 0.000000
0.563932 0.420000 0.000000
0.628574 0.420000 0.000000
0.693412 0.420000 0.000000
0.758426 0.420000 0.000000
0.823604 0.420000 0.000000
0.888932 0.420000 0.000000
0.954400 0.420000 0.000000
1.020000 0.420000 0.000000
0.000000 0.480000 0.000000
0.058662 0.480000 0.000000
0.119789 0.480000 0.000000
0.181883 0.480000 0.000000
0.244612 0.480000 0.000000
0.307819 0.480000 0.000000
0.371409 0.480000 0.000000
0.435319 0.480000 0.000000
0.499504 0.480000 0.000000
0.563932 0.480000 0.000000
0.628574 0.480000 0.000000
0.693412 0.480000 0.000000
0.758426 0.480000 0.000000
0.823604 0.480000 0.000000
0.888932 0.480000 0.000000
0.954400 0.480000 0.000000
1.020000 0.480000 0.000000
0.000000 0.540000 0.000000
0.058662 0.540000 0.000000
0.119789 0.540000 0.000000
0.181883 0.540000 0.000000
0.244612 0.540000 0.000000
0.307819 0.540000 0.000000
0.371409 0.540000 0.000000
0.435319 0.540000 0.000000
0.499504 0.540000 0.000000
0.563932 0.540000 0.000000
0.628574 0.540000 0.000000
0.693412 0.540000 0.000000
0.758426 0.540000 0.000000
0.823604 0.540000 0.000000
0.888932 0.540000 0.000000
0.954400 0.540000 0.000000
1.020000 0.540000 0.000000
0.000000 0.600000 0.000000
0.058662 0.600000 0.000000
0.119789 0.600000 0.000000
0.181883 0.600000 0.000000
0.244612 0.600000 0.000000
0.307819 0.600000 0.000000
0.371409 0.600000 0.000000
0.435319 0.600000 0.000000
0.499504 0.600000 0.000000
0.563932 0.600000 0.000000
0.628574 0.600000 0.000000
0.693412 0.600000 0.000000
0.758426 0.600000 0.000000
0.823604 0.600000 0.000000
0.888932 0.600000 0.000000
0.954400 0.600000 0.000000
1.020000 0.600000 0.000000
0.000000 0.660000 0.000000
0.058662 0.660000 0.000000
0.119789 0.660000 0.000000
0.181883 0.660000 0.000000
0.244612 0.660000 0.000000
0.307819 0.660000 0.000000
0.371409 0.660000 0.000000
0.435319 0.660000 0.000000
0.499504 0.660000 0.000000
0.563932 0.660000 0.000000
0.628574 0.660000 0.000000
0.693412 0.660000 0.000000
0.758426 0.660000 0.000000
0.823604 0.660000 0.000000
0.888932 0.660000 0.000000
0.954400 0.660000 0.000000
1.020000 0.660000 0.000000
0.000000 0.720000 0.000000
0.058662 0.720000 0.000000
0.119789 0.720000 0.000000
0.181883 0.720000 0.000000
0.244612 0.720000 0.000000
0.307819 0.720000 0.000000
0.371409 0.720000 0.000000
0.435319 0.720000 0.000000
0.499504 0.720000 0.000000
0.563932 0.720000 0.000000
0.628574 0.720000 0.000000
0.693412 0.720000 0.000000
0.758426 0.720000 0.000000
0.823604 0.720000 0.000000
0.888932 0.720000 0.000000
0.954400 0.720000 0.000000
1.020000 0.720000 0.000000
0.000000 0.780000 0.000000
0.058662 0.780000 0.000000
0.119789 0.780000 0.000000
0.181883 0.780000 0.000000
0.244612 0.780000 0.000000
0.307819 0.780000 0.000000
0.371409 0.780000 0.000000
0.435319 0.780000 0.000000
0.499504 0.780000 0.000000
0.563932 0.780000 0.000000
0.628574 0.780000 0.000000
0.693412 0.780000 0.000000
0.758426 0.780000 0.000000
0.823604 0.780000 0.000000
0.888932 0.780000 0.000000
0.954400 0.780000 0.000000
1.020000 0.780000 0.000000
0.000000 0.840000 0.000000
0.058662 0.840000 0.000000
0.119789 0.840000 0.000000
0.181883 0.840000 0.000000
0.244612 0.840000 0.000000
0.307819 0.840000 0.000000
0.371409 0.840000 0.000000
0.435319 0.840000 0.000000
0.499504 0.840000 0.000000
0.563932 0.840000 0.000000
0.628574 0.840000 0.000000
0.693412 0.840000 0.000000
0.758426 0.840000 0.000000
0.823604 0.840000 0.000000
0.888932 0.840000 0.000000
0.954400 0.840000 0.000000
1.020000 0.840000 0.000000
0.000000 0.900000 0.000000
0.058662 0.900000 0.000000
0.119789 0.900000 0.000000
0.181883 0.900000 0.000000
0.244612 0.900000 0.000000
0.307819 0.900000 0.000000
0.371409 0.900000 0.000000
0.435319 0.900000 0.000000
0.499504 0.900000 0.000000
0.563932 0.900000 0.000000
0.628574 0.900000 0.000000
0.693412 0.900000 0.000000
0.758426 0.900000 0.000000
0.823604 0.900000 0.000000
0.888932 0.900000 0.000000
0.954400 0.900000 0.000000
1.020000 0.900000 0.000000
0.000000 0.960000 0.000000
0.058662 0.960000 0.000000
0.119789 0.960000 0.000000
0.181883 0.960000 0.000000
0.244612 0.960000 0.000000
0.307819 0.960000 0.000000
0.371409 0.960000 0.000000
0.435319 0.960000 0.000000
0.499504 0.960000 0.000000
0.563932 0.960000 0.000000
0.628574 0.960000 0.000000
0.693412 0.960000 0.000000
0.758426 0.960000 0.000000
0.823604 0.960000 0.000000
0.888932 0.960000 0.000000
0.954400 0.960000 0.000000
1.020000 0.960000 0.000000
0.000000 0.000000 0.063846
0.058662 0.000000 0.063846
0.119789 0.000000 0.063846
0.181883 0.000000 0.063846
0.244612 0.000000 0.063846
0.307819 0.000000 0.063846
0.371409 0.000000 0.063846
0.435319 0.000000 0.063846
0.499504 0.000000 0.063846
0.563932 0.000000 0.063846
0.628574 0.000000 0.063846
0.693412 0.000000 0.063846
0.758426 0.000000 0.063846
0.823604 0.000000 0.063846
0.888932 0.000000 0.063846
0.954400 0.000000 0.063846
1.020000 0.000000 0.063846
0.000000 0.060000 0.063846
0.058662 0.060000 0.063846
0.119789 0.060000 0.063846
0.181883 0.060000 0.063846
0.244612 0.060000 0.063846
0.307819 0.060000 0.063846
0.371409 0.060000 0.063846
0.435319 0.060000 0.063846
0.499504 0.060000 0.063846
0.563932 0.060000 0.063846
0.628574 0.060000 0.063846
0.693412 0.060000 0.063846
0.758426 0.060000 0.063846
0.823604 0.060000 0.063846
0.888932 0.060000 0.063846
0.954400 0.060000 0.063846
1.020000 0.060000 0.063846
0.000000 0.120000 0.063846
0.058662 0.120000 0.063846
0.119789 0.120000 0.063846
0.181883 0.120000 0.063846
0.244612 0.120000 0.063846
0.307819 0.120000 0.063846
0.371409 0.120000 0.063846
0.435319 0.120000 0.063846
0.499504 0.120000 0.063846
0.563932 0.120000 0.063846
0.628574 0.120000 0.063846
0.693412 0.120000 0.063846
0.758426 0.120000 0.063846
0.823604 0.120000 0.063846
0.888932 0.120000 0.063846
0.954400 0.120000 0.063846
1.020000 0.120000 0.063846
0.000000 0.180000 0.063846
0.058662 0.180000 0.063846
0.119789 0.180000 0.063846
0.181883 0.180000 0.063846
0.244612 0.180000 0.063846
0.307819 0.180000 0.063846
0.371409 0.180000 0.063846
0.435319 0.180000 0.063846
0.499504 0.180000 0.063846
0.563932 0.180000 0.063846
0.628574 0.180000 0.063846
0.693412 0.180000 0.063846
0.758426 0.180000 0.063846
0.823604 0.180000 0.063846
0.888932 0.180000 0.063846
0.954400 0.180000 0.063846
1.020000 0.180000 0.063846
0.000000 0.240000 0.063846
0.058662 0.240000 0.063846
0.119789 0.240000 0.063846
0.181883 0.240000 0.063846
0.244612 0.240000 0.063846
0.307819 0.240000 0.063846
0.371409 0.240000 0.063846
0.435319 0.240000 0.063846
0.499504 0.240000 0.063846
0.563932 0.240000 0.063846
0.628574 0.240000 0.063846
0.693412 0.240000 0.063846
0.758426 0.240000 0.063846
0.823604 0.240000 0.063846
0.888932 0.240000 0.063846
0.954400 0.240000 0.063846
1.020000 0.240000 0.063846
0.000000 0.300000 0.063846
0.058662 0.300000 0.063846
0.119789 0.300000 0.063846
0.181883 0.300000 0.063846
0.244612 0.300000 0.063846
0.307819 0.300000 0.063846
0.371409 0.300000 0.063846
0.435319 0.300000 0.063846
0.499504 0.300000 0.063846
0.563932 0.300000 0.063846
0.628574 0.300000 0.063846
0.693412 0.300000 0.063846
0.758426 0.300000 0.063846
0.823604 0.300000 0.063846
0.888932 0.300000 0.063846
0.954400 0.300000 0.063846
1.020000 0.300000 0.063846
0.000000 0.360000 0.063846
0.058662 0.360000 0.063846
0.119789 0.360000 0.063846
0.181883 0.360000 0.063846
0.244612 0.360000 0.063846
0.307819 0.360000 0.063846
0.371409 0.360000 0.063846
0.435319 0.360000 0.063846
0.499504 0.360000 0.063846
0.563932 0.360000 0.063846
0.628574 0.360000 0.063846
0.693412 0.360000 0.063846
0.758426 0.360000 0.063846
0.823604 0.360000 0.063846
0.888932 0.360000 0.063846
0.954400 0.360000 0.063846
1.020000 0.360000 0.063846
0.000000 0.420000 0.063846
0.058662 0.420000 0.063846
0.119789 0.420000 0.063846
0.181883 0.420000 0.063846
0.244612 0.420000 0.063846
0.307819 0.420000 0.063846
0.371409 0.420000 0.063846
0.435319 0.420000 0.063846
0.499504 0.420000 0.063846
0.563932 0.420000 0.063846
0.628574 0.420000 0.063846
0.693412 0.420000 0.063846
0.758426 0.420000 0.063846
0.823604 0.420000 0.063846
0.888932 0.420000 0.063846
0.954400 0.420000 0.063846
1.020000 0.420000 0.063846
0.000000 0.480000 0.063846
0.058662 0.480000 0.063846
0.119789 0.480000 0.063846
0.181883 0.480000 0.063846
0.244612 0.480000 0.063846
0.307819 0.480000 0.063846
0.371409 0.480000 0.063846
0.435319 0.480000 0.063846
0.499504 0.480000 0.063846
0.563932 0.480000 0.063846
0.628574 0.480000 0.063846
0.693412 0.480000 0.063846
0.758426 0.480000 0.063846
0.823604 0.480000 0.063846
0.888932 0.480000 0.063846
0.954400 0.480000 0.063846
1.020000 0.480000 0.063846
0.000000 0.540000 0.063846
0.058662 0.540000 0.063846
0.119789 0.540000 0.063846
0.181883 0.540000 0.063846
0.244612 0.540000 0.063846
0.307819 0.540000 0.063846
0.371409 0.540000 0.063846
0.435319 0.540000 0.063846
0.499504 0.540000 0.063846
0.563932 0.540000 0.063846
0.628574 0.540000 0.063846
0.693412 0.540000 0.063846
0.758426 0.540000 0.063846
0.823604 0.540000 0.063846
0.888932 0.540000 0.063846
0.954400 0.540000 0.063846
1.020000 0.540000 0.063846
0.000000 0.600000 0.063846
0.058662 0.600000 0.063846
0.119789 0.600000 0.063846
0.181883 0.600000 0.063846
0.244612 0.600000 0.063846
0.307819 0.600000 0.063846
0.371409 0.600000 0.063846
0.435319 0.600000 0.063846
0.499504 0.600000 0.063846
0.563932 0.600000 0.063846
0.628574 0.600000 0.063846
0.693412 0.600000 0.063846
0.758426 0.600000 0.063846
0.823604 0.600000 0.063846
0.888932 0.600000 0.063846
0.954400 0.600000 0.063846
1.020000 0.600000 0.063846
0.000000 0.660000 0.063846
0.058662 0.660000 0.063846
0.119789 0.660000 0.063846
0.181883 0.660000 0.063846
0.244612 0.660000 0.063846
0.307819 0.660000 0.063846
0.371409 0.660000 0.063846
0.435319 0.660000 0.063846
0.499504 0.660000 0.063846
0.563932 0.660000 0.063846
0.628574 0.660000 0.063846
0.693412 0.660000 0.063846
0.758426 0.660000 0.063846
0.823604 0.660000 0.063846
0.888932 0.660000 0.063846
0.954400 0.660000 0.063846
1.020000 0.660000 0.063846
0.000000 0.720000 0.063846
0.058662 0.720000 0.063846
0.119789 0.720000 0.063846
0.181883 0.720000 0.063846
0.244612 0.720000 0.063846
0.307819 0.720000 0.063846
0.371409 0.720000 0.063846
0.435319 0.720000 0.063846
0.499504 0.720000 0.063846
0.563932 0.720000 0.063846
0.628574 0.720000 0.063846
0.693412 0.720000 0.063846
0.758426 0.720000 0.063846
0.823604 0.720000 0.063846
0.888932 0.720000 0.063846
0.954400 0.720000 0.063846
1.020000 0.720000 0.063846
0.000000 0.780000 0.063846
0.058662 0.780000 0.063846
0.119789 0.780000 0.063846
0.181883 0.780000 0.063846
0.244612 0.780000 0.063846
0.307819 0.780000 0.063846
0.371409 0.780000 0.063846
0.435319 0.780000 0.063846
0.499504 0.780000 0.063846
0.563932 0.780000 0.063846
0.628574 0.780000 0.063846
0.693412 0.780000 0.063846
0.758426 0.780000 0.063846
0.823604 0.780000 0.063846
0.888932 0.780000 0.063846
0.954400 0.780000 0.063846
1.020000 0.780000 0.063846
0.000000 0.840000 0.063846
0.058662 0.840000 0.063846
0.119789 0.840000 0.063846
0.181883 0.840000 0.063846
0.244612 0.840000 0.063846
0.307819 0.840000 0.063846
0.371409 0.840000 0.063846
0.435319 0.840000 0.063846
0.499504 0.840000 0.063846
0.563932 0.840000 0.063846
0.628574 0.840000 0.063846
0.693412 0.840000 0.063846
0.758426 0.840000 0.063846
0.823604 0.840000 0.063846
0.888932 0.840000 0.063846
0.954400 0.840000 0.063846
1.020000 0.840000 0.063846
0.000000 0.900000 0.063846
0.058662 0.900000 0.063846
0.119789 0.900000 0.063846
0.181883 0.900000 0.063846
0.244612 0.900000 0.063846
0.307819 0.900000 0.063846
0.371409 0.900000 0.063846
0.435319 0.900000 0.063846
0.499504 0.900000 0.063846
0.563932 0.900000 0.063846
0.628574 0.900000 0.063846
0.693412 0.900000 0.063846
0.758426 0.900000 0.063846
0.823604 0.900000 0.063846
0.888932 0.900000 0.063846
0.954400 0.900000 0.063846
1.020000 0.900000 0.063846
0.000000 0.960000 0.063846
0.058662 0.960000 0.063846
0.119789 0.960000 0.063846
0.181883 0.960000 0.063846
0.244612 0.960000 0.063846
0.307819 0.960000 0.063846
0.371409 0.960000 0.063846
0.435319 0.960000 0.063846
0.499504 0.960000 0.063846
0.563932 0.960000 0.063846
0.628574 0.960000 0.063846
0.693412 0.960000 0.063846
0.758426 0.960000 0.063846
0.823604 0.960000 0.063846
0.888932 0.960000 0.063846
0.954400 0.960000 0.063846
1.020000 0.960000 0.063846
0.000000 0.000000 0.125063
0.058662 0.000000 0.125063
0.119789 0.000000 0.125063
0.181883 0.000000 0.125063
0.244612 0.000000 0.125063
0.307819 0.000000 0.125063
0.371409 0.000000 0.125063
0.435319 0.000000 0.125063
0.499504 0.000000 0.125063
0.563932 0.000000 0.125063
0.628574 0.000000 0.125063
0.693412 0.000000 0.125063
0.758426 0.000000 0.125063
0.823604 0.000000 0.125063
0.888932 0.000000 0.125063
0.954400 0.000000 0.125063
1.020000 0.000000 0.125063
0.000000 0.060000 0.125063
0.058662 0.060000 0.125063
0.119789 0.060000 0.125063
0.181883 0.060000 0.125063
0.244612 0.060000 0.125063
0.307819 0.060000 0.125063
0.371409 0.060000 0.125063
0.435319 0.060000 0.125063
0.499504 0.060000 0.125063
0.563932 0.060000 0.125063
0.628574 0.060000 0.125063
0.693412 0.060000 0.125063
0.758426 0.060000 0.125063
0.823604 0.060000 0.125063
0.888932 0.060000 0.125063
0.954400 0.060000 0.125063
1.020000 0.060000 0.125063
0.000000 0.120000 0.125063
0.058662 0.120000 0.125063
0.119789 0.120000 0.125063
0.181883 0.120000 0.125063
0.244612 0.120000 0.125063
0.307819 0.120000 0.125063
0.371409 0.120000 0.125063
0.435319 0.120000 0.125063
0.499504 0.120000 0.125063
0.563932 0.120000 0.125063
0.628574 0.120000 0.125063
0.693412 0.120000 0.125063
0.758426 0.120000 0.125063
0.823604 0.120000 0.125063
0.888932 0.120000 0.125063
0.954400 0.120000 0.125063
1.020000 0.120000 0.125063
0.000000 0.180000 0.125063
0.058662 0.180000 0.125063
0.119789 0.180000 0.125063
0.181883 0.180000 0.125063
0.244612 0.180000 0.125063
0.307819 0.180000 0.125063
0.371409 0.180000 0.125063
0.435319 0.180000 0.125063
0.499504 0.180000 0.125063
0.563932 0.180000 0.125063
0.628574 0.180000 0.125063
0.693412 0.180000 0.125063
0.758426 0.180000 0.125063
0.823604 0.180000 0.125063
0.888932 0.180000 0.125063
0.954400 0.180000 0.125063
1.020000 0.180000 0.125063
0.000000 0.240000 0.125063
0.058662 0.240000 0.125063
0.119789 0.240000 0.125063
0.181883 0.240000 0.125063
0.244612 0.240000 0.125063
0.307819 0.240000 0.125063
0.371409 0.240000 0.125063
0.435319 0.240000 0.125063
0.499504 0.240000 0.125063
0.563932 0.240000 0.125063
0.628574 0.240000 0.125063
0.693412 0.240000 0.125063
0.758426 0.240000 0.125063
0.823604 0.240000 0.125063
0.888932 0.240000 0.125063
0.954400 0.240000 0.125063
1.020000 0.240000 0.125063
0.000000 0.300000 0.125063
0.058662 0.300000 0.125063
0.119789 0.300000 0.125063
0.181883 0.300000 0.125063
0.244612 0.300000 0.125063
0.307819 0.300000 0.125063
0.371409 0.300000 0.125063
0.435319 0.300000 0.125063
0.499504 0.300000 0.125063
0.563932 0.300000 0.125063
0.628574 0.300000 0.125063
0.693412 0.300000 0.125063
0.758426 0.300000 0.125063
0.823604 0.300000 0.125063
0.888932 0.300000 0.125063
0.954400 0.300000 0.125063
1.020000 0.300000 0.125063
0.000000 0.360000 0.125063
0.058662 0.360000 0.125063
0.119789 0.360000 0.125063
0.181883 0.360000 0.125063
0.244612 0.360000 0.125063
0.307819 0.360000 0.125063
0.371409 0.360000 0.125063
0.435319 0.360000 0.125063
0.499504 0.360000 0.125063
0.563932 0.360000 0.125063
0.628574 0.360000 0.125063
0.693412 0.360000 0.125063
0.758426 0.360000 0.125063
0.823604 0.360000 0.125063
0.888932 0.360000 0.125063
0.954400 0.360000 0.125063
1.020000 0.360000 0.125063
0.000000 0.420000 0.125063
0.058662 0.420000 0.125063
0.119789 0.420000 0.125063
0.181883 0.420000 0.125063
0.244612 0.420000 0.125063
0.307819 0.420000 0.125063
0.371409 0.420000 0.125063
0.435319 0.420000 0.125063
0.499504 0.420000 0.125063
0.563932 0.420000 0.125063
0.628574 0.420000 0.125063
0.693412 0.420000 0.125063
0.758426 0.420000 0.125063
0.823604 0.420000 0.125063
0.888932 0.420000 0.125063
0.954400 0.420000 0.125063
1.020000 0.420000 0.125063
0.000000 0.480000 0.125063
0.058662 0.480000 0.125063
0.119789 0.480000 0.125063
0.181883 0.480000 0.125063
0.244612 0.480000 0.125063
0.307819 0.480000 0.125063
0.371409 0.480000 0.125063
0.435319 0.480000 0.125063
0.499504 0.480000 0.125063
0.563932 0.480000 0.125063
0.628574 0.480000 0.125063
0.693412 0.480000 0.125063
0.758426 0.480000 0.125063
0.823604 0.480000 0.125063
0.888932 0.480000 0.125063
0.954400 0.480000 0.125063
1.020000 0.480000 0.125063
0.000000 0.540000 0.125063
0.058662 0.540000 0.125063
0.119789 0.540000 0.125063
0.181883 0.540000 0.125063
0.244612 0.540000 0.125063
0.307819 0.540000 0.125063
0.371409 0.540000 0.125063
0.435319 0.540000 0.125063
0.499504 0.540000 0.125063
0.563932 0.540000 0.125063
0.628574 0.540000 0.125063
0.693412 0.540000 0.125063
0.758426 0.540000 0.125063
0.823604 0.540000 0.125063
0.888932 0.540000 0.125063
0.954400 0.540000 0.125063
1.020000 0.540000 0.125063
0.000000 0.600000 0.125063
0.058662 0.600000 0.125063
0.119789 0.600000 0.125063
0.181883 0.600000 0.125063
0.244612 0.600000 0.125063
0.307819 0.600000 0.125063
0.371409 0.600000 0.125063
0.435319 0.600000 0.125063
0.499504 0.600000 0.125063
0.563932 0.600000 0.125063
0.628574 0.600000 0.125063
0.693412 0.600000 0.125063
0.758426 0.600000 0.125063
0.823604 0.600000 0.125063
0.888932 0.600000 0.125063
0.954400 0.600000 0.125063
1.020000 0.600000 0.125063
0.000000 0.660000 0.125063
0.058662 0.660000 0.125063
0.119789 0.660000 0.125063
0.181883 0.660000 0.125063
0.244612 0.660000 0.125063
0.307819 0.660000 0.125063
0.371409 0.660000 0.125063
0.435319 0.660000 0.125063
0.499504 0.660000 0.125063
0.563932 0.660000 0.125063
0.628574 0.660000 0.125063
0.693412 0.660000 0.125063
0.758426 0.660000 0.125063
0.823604 0.660000 0.125063
0.888932 0.660000 0.125063
0.954400 0.660000 0.125063
1.020000 0.660000 0.125063
0.000000 0.720000 0.125063
0.058662 0.720000 0.125063
0.119789 0.720000 0.125063
0.181883 0.720000 0.125063
0.244612 0.720000 0.125063
0.307819 0.720000 0.125063
0.371409 0.720000 0.125063
0.435319 0.720000 0.125063
0.499504 0.720000 0.125063
0.563932 0.720000 0.125063
0.628574 0.720000 0.125063
0.693412 0.720000 0.125063
0.758426 0.720000 0.125063
0.823604 0.720000 0.125063
0.888932 0.720000 0.125063
0.954400 0.720000 0.125063
1.020000 0.720000 0.125063
0.000000 0.780000 0.125063
0.058662 0.780000 0.125063
0.119789 0.780000 0.125063
0.181883 0.780000 0.125063
0.244612 0.780000 0.125063
0.307819 0.780000 0.125063
0.371409 0.780000 0.125063
0.435319 0.780000 0.125063
0.499504 0.780000 0.125063
0.563932 0.780000 0.125063
0.628574 0.780000 0.125063
0.693412 0.780000 0.125063
0.758426 0.780000 0.125063
0.823604 0.780000 0.125063
0.888932 0.780000 0.125063
0.954400 0.780000 0.125063
1.020000 0.780000 0.125063
0.000000 0.840000 0.125063
0.058662 0.840000 0.125063
0.119789 0.840000 0.125063
0.181883 0.840000 0.125063
0.244612 0.840000 0.125063
0.307819 0.840000 0.125063
0.371409 0.840000 0.125063
0.435319 0.840000 0.125063
0.499504 0.840000 0.125063
0.563932 0.840000 0.125063
0.628574 0.840000 0.125063
0.693412 0.840000 0.125063
0.758426 0.840000 0.125063
0.823604 0.840000 0.125063
0.888932 0.840000 0.125063
0.954400 0.840000 0.125063
1.020000 0.840000 0.125063
0.000000 0.900000 0.125063
0.058662 0.900000 0.125063
0.119789 0.900000 0.125063
0.181883 0.900000 0.125063
0.244612 0.900000 0.125063
0.307819 0.900000 0.125063
0.371409 0.900000 0.125063
0.435319 0.900000 0.125063
0.499504 0.900000 0.125063
0.563932 0.900000 0.125063
0.628574 0.900000 0.125063
0.693412 0.900000 0.125063
0.758426 0.900000 0.125063
0.823604 0.900000 0.125063
0.888932 0.900000 0.125063
0.954400 0.900000 0.125063
1.020000 0.900000 0.125063
0.000000 0.960000 0.125063
0.058662 0.960000 0.125063
0.119789 0.960000 0.125063
0.181883 0.960000 0.125063
0.244612 0.960000 0.125063
0.307819 0.960000 0.125063
0.371409 0.960000 0.125063
0.435319 0.960000 0.125063
0.499504 0.960000 0.125063
0.563932 0.960000 0.125063
0.628574 0.960000 0.125063
0.693412 0.960000 0.125063
0.758426 0.960000 0.125063
0.823604 0.960000 0.125063
0.888932 0.960000 0.125063
0.954400 0.960000 0.125063
1.020000 0.960000 0.125063
0.000000 0.000000 0.185327
0.058662 0.000000 0.185327
0.119789 0.000000 0.185327
0.181883 0.000000 0.185327
0.244612 0.000000 0.185327
0.307819 0.000000 0.185327
0.371409 0.000000 0.185327
0.435319 0.000000 0.185327
0.499504 0.000000 0.185327
0.563932 0.000000 0.185327
0.628574 0.000000 0.185327
0.693412 0.000000 0.185327
0.758426 0.000000 0.185327
0.823604 0.000000 0.185327
0.888932 0.000000 0.185327
0.954400 0.000000 0.185327
1.020000 0.000000 0.185327
0.000000 0.060000 0.185327
0.058662 0.060000 0.185327
