public/assets/luts/b06_subway.cube
TITLE "b06_subway"
LUT_3D_SIZE 5
DOMAIN_MIN 0 0 0
DOMAIN_MAX 1 1 1
0.000000 0.000000 0.000000
0.244612 0.000000 0.000000
0.499504 0.000000 0.000000
0.758426 0.000000 0.000000
1.020000 0.000000 0.000000
0.000000 0.240000 0.000000
0.244612 0.240000 0.000000
0.499504 0.240000 0.000000
0.758426 0.240000 0.000000
1.020000 0.240000 0.000000
0.000000 0.480000 0.000000
0.244612 0.480000 0.000000
0.499504 0.480000 0.000000
0.758426 0.480000 0.000000
1.020000 0.480000 0.000000
0.000000 0.720000 0.000000
0.244612 0.720000 0.000000
0.499504 0.720000 0.000000
0.758426 0.720000 0.000000
1.020000 0.720000 0.000000
0.000000 0.960000 0.000000
0.244612 0.960000 0.000000
0.499504 0.960000 0.000000
0.758426 0.960000 0.000000
1.020000 0.960000 0.000000
0.000000 0.000000 0.244979
0.244612 0.000000 0.244979
0.499504 0.000000 0.244979
0.758426 0.000000 0.244979
1.020000 0.000000 0.244979
0.000000 0.240000 0.244979
0.244612 0.240000 0.244979
0.499504 0.240000 0.244979
0.758426 0.240000 0.244979
1.020000 0.240000 0.244979
0.000000 0.480000 0.244979
0.244612 0.480000 0.244979
0.499504 0.480000 0.244979
0.758426 0.480000 0.244979
1.020000 0.480000 0.244979
0.000000 0.720000 0.244979
0.244612 0.720000 0.244979
0.499504 0.720000 0.244979
0.758426 0.720000 0.244979
1.020000 0.720000 0.244979
0.000000 0.960000 0.244979
0.244612 0.960000 0.244979
0.499504 0.960000 0.244979
0.758426 0.960000 0.244979
1.020000 0.960000 0.244979
0.000000 0.000000 0.479876
0.244612 0.000000 0.479876
0.499504 0.000000 0.479876
0.758426 0.000000 0.479876
1.020000 0.000000 0.479876
0.000000 0.240000 0.479876
0.244612 0.240000 0.479876
0.499504 0.240000 0.479876
0.758426 0.240000 0.479876
1.020000 0.240000 0.479876
0.000000 0.480000 0.479876
0.244612 0.480000 0.479876
0.499504 0.480000 0.479876
0.758426 0.480000 0.479876
1.020000 0.480000 0.479876
0.000000 0.720000 0.479876
0.244612 0.720000 0.479876
0.499504 0.720000 0.479876
0.758426 0.720000 0.479876
1.020000 0.720000 0.479876
0.000000 0.960000 0.479876
0.244612 0.960000 0.479876
0.499504 0.960000 0.479876
0.758426 0.960000 0.479876
1.020000 0.960000 0.479876
0.000000 0.000000 0.711111
0.244612 0.000000 0.711111
0.499504 0.000000 0.711111
0.758426 0.000000 0.711111
1.020000 0.000000 0.711111
0.000000 0.240000 0.711111
0.244612 0.240000 0.711111
0.499504 0.240000 0.711111
0.758426 0.240000 0.711111
1.020000 0.240000 0.711111
0.000000 0.480000 0.711111
0.244612 0.480000 0.711111
0.499504 0.480000 0.711111
0.758426 0.480000 0.711111
1.020000 0.480000 0.711111
0.000000 0.720000 0.711111
0.244612 0.720000 0.711111
0.499504 0.720000 0.711111
0.758426 0.720000 0.711111
1.020000 0.720000 0.711111
0.000000 0.960000 0.711111
0.244612 0.960000 0.711111
0.499504 0.960000 0.711111
0.758426 0.960000 0.711111
1.020000 0.960000 0.711111
0.000000 0.000000 0.940000
0.244612 0.000000 0.940000
0.499504 0.000000 0.940000
0.758426 0.000000 0.940000
1.020000 0.000000 0.940000
0.000000 0.240000 0.940000
0.244612 0.240000 0.940000
0.499504 0.240000 0.940000
0.758426 0.240000 0.940000
1.020000 0.240000 0.940000
0.000000 0.480000 0.940000
0.244612 0.480000 0.940000
0.499504 0.480000 0.940000
0.758426 0.480000 0.940000
1.020000 0.480000 0.940000
0.000000 0.720000 0.940000
0.244612 0.720000 0.940000
0.499504 0.720000 0.940000
0.758426 0.720000 0.940000
1.020000 0.720000 0.940000
0.000000 0.960000 0.940000
0.244612 0.960000 0.940000
0.499504 0.960000 0.940000
0.758426 0.960000 0.940000
1.020000 0.960000 0.940000
