public/assets/luts/b07_yacht.cube
TITLE "b07_yacht"
LUT_3D_SIZE 9
DOMAIN_MIN 0 0 0
DOMAIN_MAX 1 1 1
0.000000 0.000000 0.000000
0.111568 0.000000 0.000000
0.227825 0.000000 0.000000
0.345920 0.000000 0.000000
0.465225 0.000000 0.000000
0.585437 0.000000 0.000000
0.706377 0.000000 0.000000
0.827927 0.000000 0.000000
0.950000 0.000000 0.000000
0.000000 0.122500 0.000000
0.111568 0.122500 0.000000
0.227825 0.122500 0.000000
0.345920 0.122500 0.000000
0.465225 0.122500 0.000000
0.585437 0.122500 0.000000
0.706377 0.122500 0.000000
0.827927 0.122500 0.000000
0.950000 0.122500 0.000000
0.000000 0.245000 0.000000
0.111568 0.245000 0.000000
0.227825 0.245000 0.000000
0.345920 0.245000 0.000000
0.465225 0.245000 0.000000
0.585437 0.245000 0.000000
0.706377 0.245000 0.000000
0.827927 0.245000 0.000000
0.950000 0.245000 0.000000
0.000000 0.367500 0.000000
0.111568 0.367500 0.000000
0.227825 0.367500 0.000000
0.345920 0.367500 0.000000
0.465225 0.367500 0.000000
0.585437 0.367500 0.000000
0.706377 0.367500 0.000000
0.827927 0.367500 0.000000
0.950000 0.367500 0.000000
0.000000 0.490000 0.000000
0.111568 0.490000 0.000000
0.227825 0.490000 0.000000
0.345920 0.490000 0.000000
0.465225 0.490000 0.000000
0.585437 0.490000 0.000000
0.706377 0.490000 0.000000
0.827927 0.490000 0.000000
0.950000 0.490000 0.000000
0.000000 0.612500 0.000000
0.111568 0.612500 0.000000
0.227825 0.612500 0.000000
0.345920 0.612500 0.000000
0.465225 0.612500 0.000000
0.585437 0.612500 0.000000
0.706377 0.612500 0.000000
0.827927 0.612500 0.000000
0.950000 0.612500 0.000000
0.000000 0.735000 0.000000
0.111568 0.735000 0.000000
0.227825 0.735000 0.000000
0.345920 0.735000 0.000000
0.465225 0.735000 0.000000
0.585437 0.735000 0.000000
0.706377 0.735000 0.000000
0.827927 0.735000 0.000000
0.950000 0.735000 0.000000
0.000000 0.857500 0.000000
0.111568 0.857500 0.000000
0.227825 0.857500 0.000000
0.345920 0.857500 0.000000
0.465225 0.857500 0.000000
0.585437 0.857500 0.000000
0.706377 0.857500 0.000000
0.827927 0.857500 0.000000
0.950000 0.857500 0.000000
0.000000 0.980000 0.000000
0.111568 0.980000 0.000000
0.227825 0.980000 0.000000
0.345920 0.980000 0.000000
0.465225 0.980000 0.000000
0.585437 0.980000 0.000000
0.706377 0.980000 0.000000
0.827927 0.980000 0.000000
0.950000 0.980000 0.000000
0.000000 0.000000 0.143690
0.111568 0.000000 0.143690
0.227825 0.000000 0.143690
0.345920 0.000000 0.143690
0.465225 0.000000 0.143690
0.585437 0.000000 0.143690
0.706377 0.000000 0.143690
0.827927 0.000000 0.143690
0.950000 0.000000 0.143690
0.000000 0.122500 0.143690
0.111568 0.122500 0.143690
0.227825 0.122500 0.143690
0.345920 0.122500 0.143690
0.465225 0.122500 0.143690
0.585437 0.122500 0.143690
0.706377 0.122500 0.143690
0.827927 0.122500 0.143690
0.950000 0.122500 0.143690
0.000000 0.245000 0.143690
0.111568 0.245000 0.143690
0.227825 0.245000 0.143690
0.345920 0.245000 0.143690
0.465225 0.245000 0.143690
0.585437 0.245000 0.143690
0.706377 0.245000 0.143690
0.827927 0.245000 0.143690
0.950000 0.245000 0.143690
0.000000 0.367500 0.143690
0.111568 0.367500 0.143690
0.227825 0.367500 0.143690
0.345920 0.367500 0.143690
0.465225 0.367500 0.143690
0.585437 0.367500 0.143690
0.706377 0.367500 0.143690
0.827927 0.367500 0.143690
0.950000 0.367500 0.143690
0.000000 0.490000 0.143690
0.111568 0.490000 0.143690
0.227825 0.490000 0.143690
0.345920 0.490000 0.143690
0.465225 0.490000 0.143690
0.585437 0.490000 0.143690
0.706377 0.490000 0.143690
0.827927 0.490000 0.143690
0.950000 0.490000 0.143690
0.000000 0.612500 0.143690
0.111568 0.612500 0.143690
0.227825 0.612500 0.143690
0.345920 0.612500 0.143690
0.465225 0.612500 0.143690
0.585437 0.612500 0.143690
0.706377 0.612500 0.143690
0.827927 0.612500 0.143690
0.950000 0.612500 0.143690
0.000000 0.735000 0.143690
0.111568 0.735000 0.143690
0.227825 0.735000 0.143690
0.345920 0.735000 0.143690
0.465225 0.735000 0.143690
0.585437 0.735000 0.143690
0.706377 0.735000 0.143690
0.827927 0.735000 0.143690
0.950000 0.735000 0.143690
0.000000 0.857500 0.143690
0.111568 0.857500 0.143690
0.227825 0.857500 0.143690
0.345920 0.857500 0.143690
0.465225 0.857500 0.143690
0.585437 0.857500 0.143690
0.706377 0.857500 0.143690
0.827927 0.857500 0.143690
0.950000 0.857500 0.143690
0.000000 0.980000 0.143690
0.111568 0.980000 0.143690
0.227825 0.980000 0.143690
0.345920 0.980000 0.143690
0.465225 0.980000 0.143690
0.585437 0.980000 0.143690
0.706377 0.980000 0.143690
0.827927 0.980000 0.143690
0.950000 0.980000 0.143690
0.000000 0.000000 0.281466
0.111568 0.000000 0.281466
0.227825 0.000000 0.281466
0.345920 0.000000 0.281466
0.465225 0.000000 0.281466
0.585437 0.000000 0.281466
0.706377 0.000000 0.281466
0.827927 0.000000 0.281466
0.950000 0.000000 0.281466
0.000000 0.122500 0.281466
0.111568 0.122500 0.281466
0.227825 0.122500 0.281466
0.345920 0.122500 0.281466
0.465225 0.122500 0.281466
0.585437 0.122500 0.281466
0.706377 0.122500 0.281466
0.827927 0.122500 0.281466
0.950000 0.122500 0.281466
0.000000 0.245000 0.281466
0.111568 0.245000 0.281466
0.227825 0.245000 0.281466
0.345920 0.245000 0.281466
0.465225 0.245000 0.281466
0.585437 0.245000 0.281466
0.706377 0.245000 0.281466
0.827927 0.245000 0.281466
0.950000 0.245000 0.281466
0.000000 0.367500 0.281466
0.111568 0.367500 0.281466
0.227825 0.367500 0.281466
0.345920 0.367500 0.281466
0.465225 0.367500 0.281466
0.585437 0.367500 0.281466
0.706377 0.367500 0.281466
0.827927 0.367500 0.281466
0.950000 0.367500 0.281466
0.000000 0.490000 0.281466
0.111568 0.490000 0.281466
0.227825 0.490000 0.281466
0.345920 0.490000 0.281466
0.465225 0.490000 0.281466
0.585437 0.490000 0.281466
0.706377 0.490000 0.281466
0.827927 0.490000 0.281466
0.950000 0.490000 0.281466
0.000000 0.612500 0.281466
0.111568 0.612500 0.281466
0.227825 0.612500 0.281466
0.345920 0.612500 0.281466
0.465225 0.612500 0.281466
0.585437 0.612500 0.281466
0.706377 0.612500 0.281466
0.827927 0.612500 0.281466
0.950000 0.612500 0.281466
0.000000 0.735000 0.281466
0.111568 0.735000 0.281466
0.227825 0.735000 0.281466
0.345920 0.735000 0.281466
0.465225 0.735000 0.281466
0.585437 0.735000 0.281466
0.706377 0.735000 0.281466
0.827927 0.735000 0.281466
0.950000 0.735000 0.281466
0.000000 0.857500 0.281466
0.111568 0.857500 0.281466
0.227825 0.857500 0.281466
0.345920 0.857500 0.281466
0.465225 0.857500 0.281466
0.585437 0.857500 0.281466
0.706377 0.857500 0.281466
0.827927 0.857500 0.281466
0.950000 0.857500 0.281466
0.000000 0.980000 0.281466
0.111568 0.980000 0.281466
0.227825 0.980000 0.281466
0.345920 0.980000 0.281466
0.465225 0.980000 0.281466
0.585437 0.980000 0.281466
0.706377 0.980000 0.281466
0.827927 0.980000 0.281466
0.950000 0.980000 0.281466
0.000000 0.000000 0.417094
0.111568 0.000000 0.417094
0.227825 0.000000 0.417094
0.345920 0.000000 0.417094
0.465225 0.000000 0.417094
0.585437 0.000000 0.417094
0.706377 0.000000 0.417094
0.827927 0.000000 0.417094
0.950000 0.000000 0.417094
0.000000 0.122500 0.417094
0.111568 0.122500 0.417094
0.227825 0.122500 0.417094
0.345920 0.122500 0.417094
0.465225 0.122500 0.417094
0.585437 0.122500 0.417094
0.706377 0.122500 0.417094
0.827927 0.122500 0.417094
0.950000 0.122500 0.417094
0.000000 0.245000 0.417094
0.111568 0.245000 0.417094
0.227825 0.245000 0.417094
0.345920 0.245000 0.417094
0.465225 0.245000 0.417094
0.585437 0.245000 0.417094
0.706377 0.245000 0.417094
0.827927 0.245000 0.417094
0.950000 0.245000 0.417094
0.000000 0.367500 0.417094
0.111568 0.367500 0.417094
0.227825 0.367500 0.417094
0.345920 0.367500 0.417094
0.465225 0.367500 0.417094
0.585437 0.367500 0.417094
0.706377 0.367500 0.417094
0.827927 0.367500 0.417094
0.950000 0.367500 0.417094
0.000000 0.490000 0.417094
0.111568 0.490000 0.417094
0.227825 0.490000 0.417094
0.345920 0.490000 0.417094
0.465225 0.490000 0.417094
0.585437 0.490000 0.417094
0.706377 0.490000 0.417094
0.827927 0.490000 0.417094
0.950000 0.490000 0.417094
0.000000 0.612500 0.417094
0.111568 0.612500 0.417094
0.227825 0.612500 0.417094
0.345920 0.612500 0.417094
0.465225 0.612500 0.417094
0.585437 0.612500 0.417094
0.706377 0.612500 0.417094
0.827927 0.612500 0.417094
0.950000 0.612500 0.417094
0.000000 0.735000 0.417094
0.111568 0.735000 0.417094
0.227825 0.735000 0.417094
0.345920 0.735000 0.417094
0.465225 0.735000 0.417094
0.585437 0.735000 0.417094
0.706377 0.735000 0.417094
0.827927 0.735000 0.417094
0.950000 0.735000 0.417094
0.000000 0.857500 0.417094
0.111568 0.857500 0.417094
0.227825 0.857500 0.417094
0.345920 0.857500 0.417094
0.465225 0.857500 0.417094
0.585437 0.857500 0.417094
0.706377 0.857500 0.417094
0.827927 0.857500 0.417094
0.950000 0.857500 0.417094
0.000000 0.980000 0.417094
0.111568 0.980000 0.417094
0.227825 0.980000 0.417094
0.345920 0.980000 0.417094
0.465225 0.980000 0.417094
0.585437 0.980000 0.417094
0.706377 0.980000 0.417094
0.827927 0.980000 0.417094
0.950000 0.980000 0.417094
0.000000 0.000000 0.551347
0.111568 0.000000 0.551347
0.227825 0.000000 0.551347
0.345920 0.000000 0.551347
0.465225 0.000000 0.551347
0.585437 0.000000 0.551347
0.706377 0.000000 0.551347
0.827927 0.000000 0.551347
0.950000 0.000000 0.551347
0.000000 0.122500 0.551347
0.111568 0.122500 0.551347
0.227825 0.122500 0.551347
0.345920 0.122500 0.551347
0.465225 0.122500 0.551347
0.585437 0.122500 0.551347
0.706377 0.122500 0.551347
0.827927 0.122500 0.551347
0.950000 0.122500 0.551347
0.000000 0.245000 0.551347
0.111568 0.245000 0.551347
0.227825 0.245000 0.551347
0.345920 0.245000 0.551347
0.465225 0.245000 0.551347
0.585437 0.245000 0.551347
0.706377 0.245000 0.551347
0.827927 0.245000 0.551347
0.950000 0.245000 0.551347
0.000000 0.367500 0.551347
0.111568 0.367500 0.551347
0.227825 0.367500 0.551347
0.345920 0.367500 0.551347
0.465225 0.367500 0.551347
0.585437 0.367500 0.551347
0.706377 0.367500 0.551347
0.827927 0.367500 0.551347
0.950000 0.367500 0.551347
0.000000 0.490000 0.551347
0.111568 0.490000 0.551347
0.227825 0.490000 0.551347
0.345920 0.490000 0.551347
0.465225 0.490000 0.551347
0.585437 0.490000 0.551347
0.706377 0.490000 0.551347
0.827927 0.490000 0.551347
0.950000 0.490000 0.551347
0.000000 0.612500 0.551347
0.111568 0.612500 0.551347
0.227825 0.612500 0.551347
0.345920 0.612500 0.551347
0.465225 0.612500 0.551347
0.585437 0.612500 0.551347
0.706377 0.612500 0.551347
0.827927 0.612500 0.551347
0.950000 0.612500 0.551347
0.000000 0.735000 0.551347
0.111568 0.735000 0.551347
0.227825 0.735000 0.551347
0.345920 0.735000 0.551347
0.465225 0.735000 0.551347
0.585437 0.735000 0.551347
0.706377 0.735000 0.551347
0.827927 0.735000 0.551347
0.950000 0.735000 0.551347
0.000000 0.857500 0.551347
0.111568 0.857500 0.551347
0.227825 0.857500 0.551347
0.345920 0.857500 0.551347
0.465225 0.857500 0.551347
0.585437 0.857500 0.551347
0.706377 0.857500 0.551347
0.827927 0.857500 0.551347
0.950000 0.857500 0.551347
0.000000 0.980000 0.551347
0.111568 0.980000 0.551347
0.227825 0.980000 0.551347
0.345920 0.980000 0.551347
0.465225 0.980000 0.551347
0.585437 0.980000 0.551347
0.706377 0.980000 0.551347
0.827927 0.980000 0.551347
0.950000 0.980000 0.551347
0.000000 0.000000 0.684585
0.111568 0.000000 0.684585
0.227825 0.000000 0.684585
0.345920 0.000000 0.684585
0.465225 0.000000 0.684585
0.585437 0.000000 0.684585
0.706377 0.000000 0.684585
0.827927 0.000000 0.684585
0.950000 0.000000 0.684585
0.000000 0.122500 0.684585
0.111568 0.122500 0.684585
0.227825 0.122500 0.684585
0.345920 0.122500 0.684585
0.465225 0.122500 0.684585
0.585437 0.122500 0.684585
0.706377 0.122500 0.684585
0.827927 0.122500 0.684585
0.950000 0.122500 0.684585
0.000000 0.245000 0.684585
0.111568 0.245000 0.684585
0.227825 0.245000 0.684585
0.345920 0.245000 0.684585
0.465225 0.245000 0.684585
0.585437 0.245000 0.684585
0.706377 0.245000 0.684585
0.827927 0.245000 0.684585
0.950000 0.245000 0.684585
0.000000 0.367500 0.684585
0.111568 0.367500 0.684585
0.227825 0.367500 0.684585
0.345920 0.367500 0.684585
0.465225 0.367500 0.684585
0.585437 0.367500 0.684585
0.706377 0.367500 0.684585
0.827927 0.367500 0.684585
0.950000 0.367500 0.684585
0.000000 0.490000 0.684585
0.111568 0.490000 0.684585
0.227825 0.490000 0.684585
0.345920 0.490000 0.684585
0.465225 0.490000 0.684585
0.585437 0.490000 0.684585
0.706377 0.490000 0.684585
0.827927 0.490000 0.684585
0.950000 0.490000 0.684585
0.000000 0.612500 0.684585
0.111568 0.612500 0.684585
0.227825 0.612500 0.684585
0.345920 0.612500 0.684585
0.465225 0.612500 0.684585
0.585437 0.612500 0.684585
0.706377 0.612500 0.684585
0.827927 0.612500 0.684585
0.950000 0.612500 0.684585
0.000000 0.735000 0.684585
0.111568 0.735000 0.684585
0.227825 0.735000 0.684585
0.345920 0.735000 0.684585
0.465225 0.735000 0.684585
0.585437 0.735000 0.684585
0.706377 0.735000 0.684585
0.827927 0.735000 0.684585
0.950000 0.735000 0.684585
0.000000 0.857500 0.684585
0.111568 0.857500 0.684585
0.227825 0.857500 0.684585
0.345920 0.857500 0.684585
0.465225 0.857500 0.684585
0.585437 0.857500 0.684585
0.706377 0.857500 0.684585
0.827927 0.857500 0.684585
0.950000 0.857500 0.684585
0.000000 0.980000 0.684585
0.111568 0.980000 0.684585
0.227825 0.980000 0.684585
0.345920 0.980000 0.684585
0.465225 0.980000 0.684585
0.585437 0.980000 0.684585
0.706377 0.980000 0.684585
0.827927 0.980000 0.684585
0.950000 0.980000 0.684585
0.000000 0.000000 0.817021
0.111568 0.000000 0.817021
0.227825 0.000000 0.817021
0.345920 0.000000 0.817021
0.465225 0.000000 0.817021
0.585437 0.000000 0.817021
0.706377 0.000000 0.817021
0.827927 0.000000 0.817021
0.950000 0.000000 0.817021
0.000000 0.122500 0.817021
0.111568 0.122500 0.817021
0.227825 0.122500 0.817021
0.345920 0.122500 0.817021
0.465225 0.122500 0.817021
0.585437 0.122500 0.817021
0.706377 0.122500 0.817021
0.827927 0.122500 0.817021
0.950000 0.122500 0.817021
0.000000 0.245000 0.817021
0.111568 0.245000 0.817021
0.227825 0.245000 0.817021
0.345920 0.245000 0.817021
0.465225 0.245000 0.817021
0.585437 0.245000 0.817021
0.706377 0.245000 0.817021
0.827927 0.245000 0.817021
0.950000 0.245000 0.817021
0.000000 0.367500 0.817021
0.111568 0.367500 0.817021
0.227825 0.367500 0.817021
0.345920 0.367500 0.817021
0.465225 0.367500 0.817021
0.585437 0.367500 0.817021
0.706377 0.367500 0.817021
0.827927 0.367500 0.817021
0.950000 0.367500 0.817021
0.000000 0.490000 0.817021
0.111568 0.490000 0.817021
0.227825 0.490000 0.817021
0.345920 0.490000 0.817021
0.465225 0.490000 0.817021
0.585437 0.490000 0.817021
0.706377 0.490000 0.817021
0.827927 0.490000 0.817021
0.950000 0.490000 0.817021
0.000000 0.612500 0.817021
0.111568 0.612500 0.817021
0.227825 0.612500 0.817021
0.345920 0.612500 0.817021
0.465225 0.612500 0.817021
0.585437 0.612500 0.817021
0.706377 0.612500 0.817021
0.827927 0.612500 0.817021
0.950000 0.612500 0.817021
0.000000 0.735000 0.817021
0.111568 0.735000 0.817021
0.227825 0.735000 0.817021
0.345920 0.735000 0.817021
0.465225 0.735000 0.817021
0.585437 0.735000 0.817021
0.706377 0.735000 0.817021
0.827927 0.735000 0.817021
0.950000 0.735000 0.817021
0.000000 0.857500 0.817021
0.111568 0.857500 0.817021
0.227825 0.857500 0.817021
0.345920 0.857500 0.817021
0.465225 0.857500 0.817021
0.585437 0.857500 0.817021
0.706377 0.857500 0.817021
0.827927 0.857500 0.817021
0.950000 0.857500 0.817021
0.000000 0.980000 0.817021
0.111568 0.980000 0.817021
0.227825 0.980000 0.817021
0.345920 0.980000 0.817021
0.465225 0.980000 0.817021
0.585437 0.980000 0.817021
0.706377 0.980000 0.817021
0.827927 0.980000 0.817021
0.950000 0.980000 0.817021
0.000000 0.000000 0.948793
0.111568 0.000000 0.948793
0.227825 0.000000 0.948793
0.345920 0.000000 0.948793
0.465225 0.000000 0.948793
0.585437 0.000000 0.948793
0.706377 0.000000 0.948793
0.827927 0.000000 0.948793
0.950000 0.000000 0.948793
0.000000 0.122500 0.948793
0.111568 0.122500 0.948793
0.227825 0.122500 0.948793
0.345920 0.122500 0.948793
0.465225 0.122500 0.948793
0.585437 0.122500 0.948793
0.706377 0.122500 0.948793
0.827927 0.122500 0.948793
0.950000 0.122500 0.948793
0.000000 0.245000 0.948793
0.111568 0.245000 0.948793
0.227825 0.245000 0.948793
0.345920 0.245000 0.948793
0.465225 0.245000 0.948793
0.585437 0.245000 0.948793
0.706377 0.245000 0.948793
0.827927 0.245000 0.948793
0.950000 0.245000 0.948793
0.000000 0.367500 0.948793
0.111568 0.367500 0.948793
0.227825 0.367500 0.948793
0.345920 0.367500 0.948793
0.465225 0.367500 0.948793
0.585437 0.367500 0.948793
0.706377 0.367500 0.948793
0.827927 0.367500 0.948793
0.950000 0.367500 0.948793
0.000000 0.490000 0.948793
0.111568 0.490000 0.948793
0.227825 0.490000 0.948793
0.345920 0.490000 0.948793
0.465225 0.490000 0.948793
0.585437 0.490000 0.948793
0.706377 0.490000 0.948793
0.827927 0.490000 0.948793
0.950000 0.490000 0.948793
0.000000 0.612500 0.948793
0.111568 0.612500 0.948793
0.227825 0.612500 0.948793
0.345920 0.612500 0.948793
0.465225 0.612500 0.948793
0.585437 0.612500 0.948793
0.706377 0.612500 0.948793
0.827927 0.612500 0.948793
0.950000 0.612500 0.948793
0.000000 0.735000 0.948793
0.111568 0.735000 0.948793
0.227825 0.735000 0.948793
0.345920 0.735000 0.948793
0.465225 0.735000 0.948793
0.585437 0.735000 0.948793
0.706377 0.735000 0.948793
0.827927 0.735000 0.948793
0.950000 0.735000 0.948793
0.000000 0.857500 0.948793
0.111568 0.857500 0.948793
0.227825 0.857500 0.948793
0.345920 0.857500 0.948793
0.465225 0.857500 0.948793
0.585437 0.857500 0.948793
0.706377 0.857500 0.948793
0.827927 0.857500 0.948793
0.950000 0.857500 0.948793
0.000000 0.980000 0.948793
0.111568 0.980000 0.948793
0.227825 0.980000 0.948793
0.345920 0.980000 0.948793
0.465225 0.980000 0.948793
0.585437 0.980000 0.948793
0.706377 0.980000 0.948793
0.827927 0.980000 0.948793
0.950000 0.980000 0.948793
0.000000 0.000000 1.080000
0.111568 0.000000 1.080000
0.227825 0.000000 1.080000
0.345920 0.000000 1.080000
0.465225 0.000000 1.080000
0.585437 0.000000 1.080000
0.706377 0.000000 1.080000
0.827927 0.000000 1.080000
0.950000 0.000000 1.080000
0.000000 0.122500 1.080000
0.111568 0.122500 1.080000
0.227825 0.122500 1.080000
0.345920 0.122500 1.080000
0.465225 0.122500 1.080000
0.585437 0.122500 1.080000
0.706377 0.122500 1.080000
0.827927 0.122500 1.080000
0.950000 0.122500 1.080000
0.000000 0.245000 1.080000
0.111568 0.245000 1.080000
0.227825 0.245000 1.080000
0.345920 0.245000 1.080000
0.465225 0.245000 1.080000
0.585437 0.245000 1.080000
0.706377 0.245000 1.080000
0.827927 0.245000 1.080000
0.950000 0.245000 1.080000
0.000000 0.367500 1.080000
0.111568 0.367500 1.080000
0.227825 0.367500 1.080000
0.345920 0.367500 1.080000
0.465225 0.367500 1.080000
0.585437 0.367500 1.080000
0.706377 0.367500 1.080000
0.827927 0.367500 1.080000
0.950000 0.367500 1.080000
0.000000 0.490000 1.080000
0.111568 0.490000 1.080000
0.227825 0.490000 1.080000
0.345920 0.490000 1.080000
0.465225 0.490000 1.080000
0.585437 0.490000 1.080000
0.706377 0.490000 1.080000
0.827927 0.490000 1.080000
0.950000 0.490000 1.080000
0.000000 0.612500 1.080000
0.111568 0.612500 1.080000
0.227825 0.612500 1.080000
0.345920 0.612500 1.080000
0.465225 0.612500 1.080000
0.585437 0.612500 1.080000
0.706377 0.612500 1.080000
0.827927 0.612500 1.080000
0.950000 0.612500 1.080000
0.000000 0.735000 1.080000
0.111568 0.735000 1.080000
0.227825 0.735000 1.080000
0.345920 0.735000 1.080000
0.465225 0.735000 1.080000
0.585437 0.735000 1.080000
0.706377 0.735000 1.080000
0.827927 0.735000 1.080000
0.950000 0.735000 1.080000
0.000000 0.857500 1.080000
0.111568 0.857500 1.080000
0.227825 0.857500 1.080000
0.345920 0.857500 1.080000
0.465225 0.857500 1.080000
0.585437 0.857500 1.080000
0.706377 0.857500 1.080000
0.827927 0.857500 1.080000
0.950000 0.857500 1.080000
0.000000 0.980000 1.080000
0.111568 0.980000 1.080000
0.227825 0.980000 1.080000
0.345920 0.980000 1.080000
0.465225 0.980000 1.080000
0.585437 0.980000 1.080000
0.706377 0.980000 1.080000
0.827927 0.980000 1.080000
0.950000 0.980000 1.080000
