public/assets/luts/b07_yacht.cube
TITLE "b07_yacht"
LUT_3D_SIZE 5
DOMAIN_MIN 0 0 0
DOMAIN_MAX 1 1 1
0.000000 0.000000 0.000000
0.227825 0.000000 0.000000
0.465225 0.000000 0.000000
0.706377 0.000000 0.000000
0.950000 0.000000 0.000000
0.000000 0.245000 0.000000
0.227825 0.245000 0.000000
0.465225 0.245000 0.000000
0.706377 0.245000 0.000000
0.950000 0.245000 0.000000
0.000000 0.490000 0.000000
0.227825 0.490000 0.000000
0.465225 0.490000 0.000000
0.706377 0.490000 0.000000
0.950000 0.490000 0.000000
0.000000 0.735000 0.000000
0.227825 0.735000 0.000000
0.465225 0.735000 0.000000
0.706377 0.735000 0.000000
0.950000 0.735000 0.000000
0.000000 0.980000 0.000000
0.227825 0.980000 0.000000
0.465225 0.980000 0.000000
0.706377 0.980000 0.000000
0.950000 0.980000 0.000000
0.000000 0.000000 0.281466
0.227825 0.000000 0.281466
0.465225 0.000000 0.281466
0.706377 0.000000 0.281466
0.950000 0.000000 0.281466
0.000000 0.245000 0.281466
0.227825 0.245000 0.281466
0.465225 0.245000 0.281466
0.706377 0.245000 0.281466
0.950000 0.245000 0.281466
0.000000 0.490000 0.281466
0.227825 0.490000 0.281466
0.465225 0.490000 0.281466
0.706377 0.490000 0.281466
0.950000 0.490000 0.281466
0.000000 0.735000 0.281466
0.227825 0.735000 0.281466
0.465225 0.735000 0.281466
0.706377 0.735000 0.281466
0.950000 0.735000 0.281466
0.000000 0.980000 0.281466
0.227825 0.980000 0.281466
0.465225 0.980000 0.281466
0.706377 0.980000 0.281466
0.950000 0.980000 0.281466
0.000000 0.000000 0.551347
0.227825 0.000000 0.551347
0.465225 0.000000 0.551347
0.706377 0.000000 0.551347
0.950000 0.000000 0.551347
0.000000 0.245000 0.551347
0.227825 0.245000 0.551347
0.465225 0.245000 0.551347
0.706377 0.245000 0.551347
0.950000 0.245000 0.551347
0.000000 0.490000 0.551347
0.227825 0.490000 0.551347
0.465225 0.490000 0.551347
0.706377 0.490000 0.551347
0.950000 0.490000 0.551347
0.000000 0.735000 0.551347
0.227825 0.735000 0.551347
0.465225 0.735000 0.551347
0.706377 0.735000 0.551347
0.950000 0.735000 0.551347
0.000000 0.980000 0.551347
0.227825 0.980000 0.551347
0.465225 0.980000 0.551347
0.706377 0.980000 0.551347
0.950000 0.980000 0.551347
0.000000 0.000000 0.817021
0.227825 0.000000 0.817021
0.465225 0.000000 0.817021
0.706377 0.000000 0.817021
0.950000 0.000000 0.817021
0.000000 0.245000 0.817021
0.227825 0.245000 0.817021
0.465225 0.245000 0.817021
0.706377 0.245000 0.817021
0.950000 0.245000 0.817021
0.000000 0.490000 0.817021
0.227825 0.490000 0.817021
0.465225 0.490000 0.817021
0.706377 0.490000 0.817021
0.950000 0.490000 0.817021
0.000000 0.735000 0.817021
0.227825 0.735000 0.817021
0.465225 0.735000 0.817021
0.706377 0.735000 0.817021
0.950000 0.735000 0.817021
0.000000 0.980000 0.817021
0.227825 0.980000 0.817021
0.465225 0.980000 0.817021
0.706377 0.980000 0.817021
0.950000 0.980000 0.817021
0.000000 0.000000 1.080000
0.227825 0.000000 1.080000
0.465225 0.000000 1.080000
0.706377 0.000000 1.080000
0.950000 0.000000 1.080000
0.000000 0.245000 1.080000
0.227825 0.245000 1.080000
0.465225 0.245000 1.080000
0.706377 0.245000 1.080000
0.950000 0.245000 1.080000
0.000000 0.490000 1.080000
0.227825 0.490000 1.080000
0.465225 0.490000 1.080000
0.706377 0.490000 1.080000
0.950000 0.490000 1.080000
0.000000 0.735000 1.080000
0.227825 0.735000 1.080000
0.465225 0.735000 1.080000
0.706377 0.735000 1.080000
0.950000 0.735000 1.080000
0.000000 0.980000 1.080000
0.227825 0.980000 1.080000
0.465225 0.980000 1.080000
0.706377 0.980000 1.080000
0.950000 0.980000 1.080000
