public/assets/luts/b07_yacht.cube
TITLE "b07_yacht"
LUT_3D_SIZE 17
DOMAIN_MIN 0 0 0
DOMAIN_MAX 1 1 1
0.000000 0.000000 0.000000
0.054636 0.000000 0.000000
0.111568 0.000000 0.000000
0.169401 0.000000 0.000000
0.227825 0.000000 0.000000
0.286694 0.000000 0.000000
0.345920 0.000000 0.000000
0.405444 0.000000 0.000000
0.465225 0.000000 0.000000
0.525230 0.000000 0.000000
0.585437 0.000000 0.000000
0.645824 0.000000 0.000000
0.706377 0.000000 0.000000
0.767082 0.000000 0.000000
0.827927 0.000000 0.000000
0.888902 0.000000 0.000000
0.950000 0.000000 0.000000
0.000000 0.061250 0.000000
0.054636 0.061250 0.000000
0.111568 0.061250 0.000000
0.169401 0.061250 0.000000
0.227825 0.061250 0.000000
0.286694 0.061250 0.000000
0.345920 0.061250 0.000000
0.405444 0.061250 0.000000
0.465225 0.061250 0.000000
0.525230 0.061250 0.000000
0.585437 0.061250 0.000000
0.645824 0.061250 0.000000
0.706377 0.061250 0.000000
0.767082 0.061250 0.000000
0.827927 0.061250 0.000000
0.888902 0.061250 0.000000
0.950000 0.061250 0.000000
0.000000 0.122500 0.000000
0.054636 0.122500 0.000000
0.111568 0.122500 0.000000
0.169401 0.122500 0.000000
0.227825 0.122500 0.000000
0.286694 0.122500 0.000000
0.345920 0.122500 0.000000
0.405444 0.122500 0.000000
0.465225 0.122500 0.000000
0.525230 0.122500 0.000000
0.585437 0.122500 0.000000
0.645824 0.122500 0.000000
0.706377 0.122500 0.000000
0.767082 0.122500 0.000000
0.827927 0.122500 0.000000
0.888902 0.122500 0.000000
0.950000 0.122500 0.000000
0.000000 0.183750 0.000000
0.054636 0.183750 0.000000
0.111568 0.183750 0.000000
0.169401 0.183750 0.000000
0.227825 0.183750 0.000000
0.286694 0.183750 0.000000
0.345920 0.183750 0.000000
0.405444 0.183750 0.000000
0.465225 0.183750 0.000000
0.525230 0.183750 0.000000
0.585437 0.183750 0.000000
0.645824 0.183750 0.000000
0.706377 0.183750 0.000000
0.767082 0.183750 0.000000
0.827927 0.183750 0.000000
0.888902 0.183750 0.000000
0.950000 0.183750 0.000000
0.000000 0.245000 0.000000
0.054636 0.245000 0.000000
0.111568 0.245000 0.000000
0.169401 0.245000 0.000000
0.227825 0.245000 0.000000
0.286694 0.245000 0.000000
0.345920 0.245000 0.000000
0.405444 0.245000 0.000000
0.465225 0.245000 0.000000
0.525230 0.245000 0.000000
0.585437 0.245000 0.000000
0.645824 0.245000 0.000000
0.706377 0.245000 0.000000
0.767082 0.245000 0.000000
0.827927 0.245000 0.000000
0.888902 0.245000 0.000000
0.950000 0.245000 0.000000
0.000000 0.306250 0.000000
0.054636 0.306250 0.000000
0.111568 0.306250 0.000000
0.169401 0.306250 0.000000
0.227825 0.306250 0.000000
0.286694 0.306250 0.000000
0.345920 0.306250 0.000000
0.405444 0.306250 0.000000
0.465225 0.306250 0.000000
0.525230 0.306250 0.000000
0.585437 0.306250 0.000000
0.645824 0.306250 0.000000
0.706377 0.306250 0.000000
0.767082 0.306250 0.000000
0.827927 0.306250 0.000000
0.888902 0.306250 0.000000
0.950000 0.306250 0.000000
0.000000 0.367500 0.000000
0.054636 0.367500 0.000000
0.111568 0.367500 0.000000
0.169401 0.367500 0.000000
0.227825 0.367500 0.000000
0.286694 0.367500 0.000000
0.345920 0.367500 0.000000
0.405444 0.367500 0.000000
0.465225 0.367500 0.000000
0.525230 0.367500 0.000000
0.585437 0.367500 0.000000
0.645824 0.367500 0.000000
0.706377 0.367500 0.000000
0.767082 0.367500 0.000000
0.827927 0.367500 0.000000
0.888902 0.367500 0.000000
0.950000 0.367500 0.000000
0.000000 0.428750 0.000000
0.054636 0.428750 0.000000
0.111568 0.428750 0.000000
0.169401 0.428750 0.000000
0.227825 0.428750 0.000000
0.286694 0.428750 0.000000
0.345920 0.428750 0.000000
0.405444 0.428750 0.000000
0.465225 0.428750 0.000000
0.525230 0.428750 0.000000
0.585437 0.428750 0.000000
0.645824 0.428750 0.000000
0.706377 0.428750 0.000000
0.767082 0.428750 0.000000
0.827927 0.428750 0.000000
0.888902 0.428750 0.000000
0.950000 0.428750 0.000000
0.000000 0.490000 0.000000
0.054636 0.490000 0.000000
0.111568 0.490000 0.000000
0.169401 0.490000 0.000000
0.227825 0.490000 0.000000
0.286694 0.490000 0.000000
0.345920 0.490000 0.000000
0.405444 0.490000 0.000000
0.465225 0.490000 0.000000
0.525230 0.490000 0.000000
0.585437 0.490000 0.000000
0.645824 0.490000 0.000000
0.706377 0.490000 0.000000
0.767082 0.490000 0.000000
0.827927 0.490000 0.000000
0.888902 0.490000 0.000000
0.950000 0.490000 0.000000
0.000000 0.551250 0.000000
0.054636 0.551250 0.000000
0.111568 0.551250 0.000000
0.169401 0.551250 0.000000
0.227825 0.551250 0.000000
0.286694 0.551250 0.000000
0.345920 0.551250 0.000000
0.405444 0.551250 0.000000
0.465225 0.551250 0.000000
0.525230 0.551250 0.000000
0.585437 0.551250 0.000000
0.645824 0.551250 0.000000
0.706377 0.551250 0.000000
0.767082 0.551250 0.000000
0.827927 0.551250 0.000000
0.888902 0.551250 0.000000
0.950000 0.551250 0.000000
0.000000 0.612500 0.000000
0.054636 0.612500 0.000000
0.111568 0.612500 0.000000
0.169401 0.612500 0.000000
0.227825 0.612500 0.000000
0.286694 0.612500 0.000000
0.345920 0.612500 0.000000
0.405444 0.612500 0.000000
0.465225 0.612500 0.000000
0.525230 0.612500 0.000000
0.585437 0.612500 0.000000
0.645824 0.612500 0.000000
0.706377 0.612500 0.000000
0.767082 0.612500 0.000000
0.827927 0.612500 0.000000
0.888902 0.612500 0.000000
0.950000 0.612500 0.000000
0.000000 0.673750 0.000000
0.054636 0.673750 0.000000
0.111568 0.673750 0.000000
0.169401 0.673750 0.000000
0.227825 0.673750 0.000000
0.286694 0.673750 0.000000
0.345920 0.673750 0.000000
0.405444 0.673750 0.000000
0.465225 0.673750 0.000000
0.525230 0.673750 0.000000
0.585437 0.673750 0.000000
0.645824 0.673750 0.000000
0.706377 0.673750 0.000000
0.767082 0.673750 0.000000
0.827927 0.673750 0.000000
0.888902 0.673750 0.000000
0.950000 0.673750 0.000000
0.000000 0.735000 0.000000
0.054636 0.735000 0.000000
0.111568 0.735000 0.000000
0.169401 0.735000 0.000000
0.227825 0.735000 0.000000
0.286694 0.735000 0.000000
0.345920 0.735000 0.000000
0.405444 0.735000 0.000000
0.465225 0.735000 0.000000
0.525230 0.735000 0.000000
0.585437 0.735000 0.000000
0.645824 0.735000 0.000000
0.706377 0.735000 0.000000
0.767082 0.735000 0.000000
0.827927 0.735000 0.000000
0.888902 0.735000 0.000000
0.950000 0.735000 0.000000
0.000000 0.796250 0.000000
0.054636 0.796250 0.000000
0.111568 0.796250 0.000000
0.169401 0.796250 0.000000
0.227825 0.796250 0.000000
0.286694 0.796250 0.000000
0.345920 0.796250 0.000000
0.405444 0.796250 0.000000
0.465225 0.796250 0.000000
0.525230 0.796250 0.000000
0.585437 0.796250 0.000000
0.645824 0.796250 0.000000
0.706377 0.796250 0.000000
0.767082 0.796250 0.000000
0.827927 0.796250 0.000000
0.888902 0.796250 0.000000
0.950000 0.796250 0.000000
0.000000 0.857500 0.000000
0.054636 0.857500 0.000000
0.111568 0.857500 0.000000
0.169401 0.857500 0.000000
0.227825 0.857500 0.000000
0.286694 0.857500 0.000000
0.345920 0.857500 0.000000
0.405444 0.857500 0.000000
0.465225 0.857500 0.000000
0.525230 0.857500 0.000000
0.585437 0.857500 0.000000
0.645824 0.857500 0.000000
0.706377 0.857500 0.000000
0.767082 0.857500 0.000000
0.827927 0.857500 0.000000
0.888902 0.857500 0.000000
0.950000 0.857500 0.000000
0.000000 0.918750 0.000000
0.054636 0.918750 0.000000
0.111568 0.918750 0.000000
0.169401 0.918750 0.000000
0.227825 0.918750 0.000000
0.286694 0.918750 0.000000
0.345920 0.918750 0.000000
0.405444 0.918750 0.000000
0.465225 0.918750 0.000000
0.525230 0.918750 0.000000
0.585437 0.918750 0.000000
0.645824 0.918750 0.000000
0.706377 0.918750 0.000000
0.767082 0.918750 0.000000
0.827927 0.918750 0.000000
0.888902 0.918750 0.000000
0.950000 0.918750 0.000000
0.000000 0.980000 0.000000
0.054636 0.980000 0.000000
0.111568 0.980000 0.000000
0.169401 0.980000 0.000000
0.227825 0.980000 0.000000
0.286694 0.980000 0.000000
0.345920 0.980000 0.000000
0.405444 0.980000 0.000000
0.465225 0.980000 0.000000
0.525230 0.980000 0.000000
0.585437 0.980000 0.000000
0.645824 0.980000 0.000000
0.706377 0.980000 0.000000
0.767082 0.980000 0.000000
0.827927 0.980000 0.000000
0.888902 0.980000 0.000000
0.950000 0.980000 0.000000
0.000000 0.000000 0.073355
0.054636 0.000000 0.073355
0.111568 0.000000 0.073355
0.169401 0.000000 0.073355
0.227825 0.000000 0.073355
0.286694 0.000000 0.073355
0.345920 0.000000 0.073355
0.405444 0.000000 0.073355
0.465225 0.000000 0.073355
0.525230 0.000000 0.073355
0.585437 0.000000 0.073355
0.645824 0.000000 0.073355
0.706377 0.000000 0.073355
0.767082 0.000000 0.073355
0.827927 0.000000 0.073355
0.888902 0.000000 0.073355
0.950000 0.000000 0.073355
0.000000 0.061250 0.073355
0.054636 0.061250 0.073355
0.111568 0.061250 0.073355
0.169401 0.061250 0.073355
0.227825 0.061250 0.073355
0.286694 0.061250 0.073355
0.345920 0.061250 0.073355
0.405444 0.061250 0.073355
0.465225 0.061250 0.073355
0.525230 0.061250 0.073355
0.585437 0.061250 0.073355
0.645824 0.061250 0.073355
0.706377 0.061250 0.073355
0.767082 0.061250 0.073355
0.827927 0.061250 0.073355
0.888902 0.061250 0.073355
0.950000 0.061250 0.073355
0.000000 0.122500 0.073355
0.054636 0.122500 0.073355
0.111568 0.122500 0.073355
0.169401 0.122500 0.073355
0.227825 0.122500 0.073355
0.286694 0.122500 0.073355
0.345920 0.122500 0.073355
0.405444 0.122500 0.073355
0.465225 0.122500 0.073355
0.525230 0.122500 0.073355
0.585437 0.122500 0.073355
0.645824 0.122500 0.073355
0.706377 0.122500 0.073355
0.767082 0.122500 0.073355
0.827927 0.122500 0.073355
0.888902 0.122500 0.073355
0.950000 0.122500 0.073355
0.000000 0.183750 0.073355
0.054636 0.183750 0.073355
0.111568 0.183750 0.073355
0.169401 0.183750 0.073355
0.227825 0.183750 0.073355
0.286694 0.183750 0.073355
0.345920 0.183750 0.073355
0.405444 0.183750 0.073355
0.465225 0.183750 0.073355
0.525230 0.183750 0.073355
0.585437 0.183750 0.073355
0.645824 0.183750 0.073355
0.706377 0.183750 0.073355
0.767082 0.183750 0.073355
0.827927 0.183750 0.073355
0.888902 0.183750 0.073355
0.950000 0.183750 0.073355
0.000000 0.245000 0.073355
0.054636 0.245000 0.073355
0.111568 0.245000 0.073355
0.169401 0.245000 0.073355
0.227825 0.245000 0.073355
0.286694 0.245000 0.073355
0.345920 0.245000 0.073355
0.405444 0.245000 0.073355
0.465225 0.245000 0.073355
0.525230 0.245000 0.073355
0.585437 0.245000 0.073355
0.645824 0.245000 0.073355
0.706377 0.245000 0.073355
0.767082 0.245000 0.073355
0.827927 0.245000 0.073355
0.888902 0.245000 0.073355
0.950000 0.245000 0.073355
0.000000 0.306250 0.073355
0.054636 0.306250 0.073355
0.111568 0.306250 0.073355
0.169401 0.306250 0.073355
0.227825 0.306250 0.073355
0.286694 0.306250 0.073355
0.345920 0.306250 0.073355
0.405444 0.306250 0.073355
0.465225 0.306250 0.073355
0.525230 0.306250 0.073355
0.585437 0.306250 0.073355
0.645824 0.306250 0.073355
0.706377 0.306250 0.073355
0.767082 0.306250 0.073355
0.827927 0.306250 0.073355
0.888902 0.306250 0.073355
0.950000 0.306250 0.073355
0.000000 0.367500 0.073355
0.054636 0.367500 0.073355
0.111568 0.367500 0.073355
0.169401 0.367500 0.073355
0.227825 0.367500 0.073355
0.286694 0.367500 0.073355
0.345920 0.367500 0.073355
0.405444 0.367500 0.073355
0.465225 0.367500 0.073355
0.525230 0.367500 0.073355
0.585437 0.367500 0.073355
0.645824 0.367500 0.073355
0.706377 0.367500 0.073355
0.767082 0.367500 0.073355
0.827927 0.367500 0.073355
0.888902 0.367500 0.073355
0.950000 0.367500 0.073355
0.000000 0.428750 0.073355
0.054636 0.428750 0.073355
0.111568 0.428750 0.073355
0.169401 0.428750 0.073355
0.227825 0.428750 0.073355
0.286694 0.428750 0.073355
0.345920 0.428750 0.073355
0.405444 0.428750 0.073355
0.465225 0.428750 0.073355
0.525230 0.428750 0.073355
0.585437 0.428750 0.073355
0.645824 0.428750 0.073355
0.706377 0.428750 0.073355
0.767082 0.428750 0.073355
0.827927 0.428750 0.073355
0.888902 0.428750 0.073355
0.950000 0.428750 0.073355
0.000000 0.490000 0.073355
0.054636 0.490000 0.073355
0.111568 0.490000 0.073355
0.169401 0.490000 0.073355
0.227825 0.490000 0.073355
0.286694 0.490000 0.073355
0.345920 0.490000 0.073355
0.405444 0.490000 0.073355
0.465225 0.490000 0.073355
0.525230 0.490000 0.073355
0.585437 0.490000 0.073355
0.645824 0.490000 0.073355
0.706377 0.490000 0.073355
0.767082 0.490000 0.073355
0.827927 0.490000 0.073355
0.888902 0.490000 0.073355
0.950000 0.490000 0.073355
0.000000 0.551250 0.073355
0.054636 0.551250 0.073355
0.111568 0.551250 0.073355
0.169401 0.551250 0.073355
0.227825 0.551250 0.073355
0.286694 0.551250 0.073355
0.345920 0.551250 0.073355
0.405444 0.551250 0.073355
0.465225 0.551250 0.073355
0.525230 0.551250 0.073355
0.585437 0.551250 0.073355
0.645824 0.551250 0.073355
0.706377 0.551250 0.073355
0.767082 0.551250 0.073355
0.827927 0.551250 0.073355
0.888902 0.551250 0.073355
0.950000 0.551250 0.073355
0.000000 0.612500 0.073355
0.054636 0.612500 0.073355
0.111568 0.612500 0.073355
0.169401 0.612500 0.073355
0.227825 0.612500 0.073355
0.286694 0.612500 0.073355
0.345920 0.612500 0.073355
0.405444 0.612500 0.073355
0.465225 0.612500 0.073355
0.525230 0.612500 0.073355
0.585437 0.612500 0.073355
0.645824 0.612500 0.073355
0.706377 0.612500 0.073355
0.767082 0.612500 0.073355
0.827927 0.612500 0.073355
0.888902 0.612500 0.073355
0.950000 0.612500 0.073355
0.000000 0.673750 0.073355
0.054636 0.673750 0.073355
0.111568 0.673750 0.073355
0.169401 0.673750 0.073355
0.227825 0.673750 0.073355
0.286694 0.673750 0.073355
0.345920 0.673750 0.073355
0.405444 0.673750 0.073355
0.465225 0.673750 0.073355
0.525230 0.673750 0.073355
0.585437 0.673750 0.073355
0.645824 0.673750 0.073355
0.706377 0.673750 0.073355
0.767082 0.673750 0.073355
0.827927 0.673750 0.073355
0.888902 0.673750 0.073355
0.950000 0.673750 0.073355
0.000000 0.735000 0.073355
0.054636 0.735000 0.073355
0.111568 0.735000 0.073355
0.169401 0.735000 0.073355
0.227825 0.735000 0.073355
0.286694 0.735000 0.073355
0.345920 0.735000 0.073355
0.405444 0.735000 0.073355
0.465225 0.735000 0.073355
0.525230 0.735000 0.073355
0.585437 0.735000 0.073355
0.645824 0.735000 0.073355
0.706377 0.735000 0.073355
0.767082 0.735000 0.073355
0.827927 0.735000 0.073355
0.888902 0.735000 0.073355
0.950000 0.735000 0.073355
0.000000 0.796250 0.073355
0.054636 0.796250 0.073355
0.111568 0.796250 0.073355
0.169401 0.796250 0.073355
0.227825 0.796250 0.073355
0.286694 0.796250 0.073355
0.345920 0.796250 0.073355
0.405444 0.796250 0.073355
0.465225 0.796250 0.073355
0.525230 0.796250 0.073355
0.585437 0.796250 0.073355
0.645824 0.796250 0.073355
0.706377 0.796250 0.073355
0.767082 0.796250 0.073355
0.827927 0.796250 0.073355
0.888902 0.796250 0.073355
0.950000 0.796250 0.073355
0.000000 0.857500 0.073355
0.054636 0.857500 0.073355
0.111568 0.857500 0.073355
0.169401 0.857500 0.073355
0.227825 0.857500 0.073355
0.286694 0.857500 0.073355
0.345920 0.857500 0.073355
0.405444 0.857500 0.073355
0.465225 0.857500 0.073355
0.525230 0.857500 0.073355
0.585437 0.857500 0.073355
0.645824 0.857500 0.073355
0.706377 0.857500 0.073355
0.767082 0.857500 0.073355
0.827927 0.857500 0.073355
0.888902 0.857500 0.073355
0.950000 0.857500 0.073355
0.000000 0.918750 0.073355
0.054636 0.918750 0.073355
0.111568 0.918750 0.073355
0.169401 0.918750 0.073355
0.227825 0.918750 0.073355
0.286694 0.918750 0.073355
0.345920 0.918750 0.073355
0.405444 0.918750 0.073355
0.465225 0.918750 0.073355
0.525230 0.918750 0.073355
0.585437 0.918750 0.073355
0.645824 0.918750 0.073355
0.706377 0.918750 0.073355
0.767082 0.918750 0.073355
0.827927 0.918750 0.073355
0.888902 0.918750 0.073355
0.950000 0.918750 0.073355
0.000000 0.980000 0.073355
0.054636 0.980000 0.073355
0.111568 0.980000 0.073355
0.169401 0.980000 0.073355
0.227825 0.980000 0.073355
0.286694 0.980000 0.073355
0.345920 0.980000 0.073355
0.405444 0.980000 0.073355
0.465225 0.980000 0.073355
0.525230 0.980000 0.073355
0.585437 0.980000 0.073355
0.645824 0.980000 0.073355
0.706377 0.980000 0.073355
0.767082 0.980000 0.073355
0.827927 0.980000 0.073355
0.888902 0.980000 0.073355
0.950000 0.980000 0.073355
0.000000 0.000000 0.143690
0.054636 0.000000 0.143690
0.111568 0.000000 0.143690
0.169401 0.000000 0.143690
0.227825 0.000000 0.143690
0.286694 0.000000 0.143690
0.345920 0.000000 0.143690
0.405444 0.000000 0.143690
0.465225 0.000000 0.143690
0.525230 0.000000 0.143690
0.585437 0.000000 0.143690
0.645824 0.000000 0.143690
0.706377 0.000000 0.143690
0.767082 0.000000 0.143690
0.827927 0.000000 0.143690
0.888902 0.000000 0.143690
0.950000 0.000000 0.143690
0.000000 0.061250 0.143690
0.054636 0.061250 0.143690
0.111568 0.061250 0.143690
0.169401 0.061250 0.143690
0.227825 0.061250 0.143690
0.286694 0.061250 0.143690
0.345920 0.061250 0.143690
0.405444 0.061250 0.143690
0.465225 0.061250 0.143690
0.525230 0.061250 0.143690
0.585437 0.061250 0.143690
0.645824 0.061250 0.143690
0.706377 0.061250 0.143690
0.767082 0.061250 0.143690
0.827927 0.061250 0.143690
0.888902 0.061250 0.143690
0.950000 0.061250 0.143690
0.000000 0.122500 0.143690
0.054636 0.122500 0.143690
0.111568 0.122500 0.143690
0.169401 0.122500 0.143690
0.227825 0.122500 0.143690
0.286694 0.122500 0.143690
0.345920 0.122500 0.143690
0.405444 0.122500 0.143690
0.465225 0.122500 0.143690
0.525230 0.122500 0.143690
0.585437 0.122500 0.143690
0.645824 0.122500 0.143690
0.706377 0.122500 0.143690
0.767082 0.122500 0.143690
0.827927 0.122500 0.143690
0.888902 0.122500 0.143690
0.950000 0.122500 0.143690
0.000000 0.183750 0.143690
0.054636 0.183750 0.143690
0.111568 0.183750 0.143690
0.169401 0.183750 0.143690
0.227825 0.183750 0.143690
0.286694 0.183750 0.143690
0.345920 0.183750 0.143690
0.405444 0.183750 0.143690
0.465225 0.183750 0.143690
0.525230 0.183750 0.143690
0.585437 0.183750 0.143690
0.645824 0.183750 0.143690
0.706377 0.183750 0.143690
0.767082 0.183750 0.143690
0.827927 0.183750 0.143690
0.888902 0.183750 0.143690
0.950000 0.183750 0.143690
0.000000 0.245000 0.143690
0.054636 0.245000 0.143690
0.111568 0.245000 0.143690
0.169401 0.245000 0.143690
0.227825 0.245000 0.143690
0.286694 0.245000 0.143690
0.345920 0.245000 0.143690
0.405444 0.245000 0.143690
0.465225 0.245000 0.143690
0.525230 0.245000 0.143690
0.585437 0.245000 0.143690
0.645824 0.245000 0.143690
0.706377 0.245000 0.143690
0.767082 0.245000 0.143690
0.827927 0.245000 0.143690
0.888902 0.245000 0.143690
0.950000 0.245000 0.143690
0.000000 0.306250 0.143690
0.054636 0.306250 0.143690
0.111568 0.306250 0.143690
0.169401 0.306250 0.143690
0.227825 0.306250 0.143690
0.286694 0.306250 0.143690
0.345920 0.306250 0.143690
0.405444 0.306250 0.143690
0.465225 0.306250 0.143690
0.525230 0.306250 0.143690
0.585437 0.306250 0.143690
0.645824 0.306250 0.143690
0.706377 0.306250 0.143690
0.767082 0.306250 0.143690
0.827927 0.306250 0.143690
0.888902 0.306250 0.143690
0.950000 0.306250 0.143690
0.000000 0.367500 0.143690
0.054636 0.367500 0.143690
0.111568 0.367500 0.143690
0.169401 0.367500 0.143690
0.227825 0.367500 0.143690
0.286694 0.367500 0.143690
0.345920 0.367500 0.143690
0.405444 0.367500 0.143690
0.465225 0.367500 0.143690
0.525230 0.367500 0.143690
0.585437 0.367500 0.143690
0.645824 0.367500 0.143690
0.706377 0.367500 0.143690
0.767082 0.367500 0.143690
0.827927 0.367500 0.143690
0.888902 0.367500 0.143690
0.950000 0.367500 0.143690
0.000000 0.428750 0.143690
0.054636 0.428750 0.143690
0.111568 0.428750 0.143690
0.169401 0.428750 0.143690
0.227825 0.428750 0.143690
0.286694 0.428750 0.143690
0.345920 0.428750 0.143690
0.405444 0.428750 0.143690
0.465225 0.428750 0.143690
0.525230 0.428750 0.143690
0.585437 0.428750 0.143690
0.645824 0.428750 0.143690
0.706377 0.428750 0.143690
0.767082 0.428750 0.143690
0.827927 0.428750 0.143690
0.888902 0.428750 0.143690
0.950000 0.428750 0.143690
0.000000 0.490000 0.143690
0.054636 0.490000 0.143690
0.111568 0.490000 0.143690
0.169401 0.490000 0.143690
0.227825 0.490000 0.143690
0.286694 0.490000 0.143690
0.345920 0.490000 0.143690
0.405444 0.490000 0.143690
0.465225 0.490000 0.143690
0.525230 0.490000 0.143690
0.585437 0.490000 0.143690
0.645824 0.490000 0.143690
0.706377 0.490000 0.143690
0.767082 0.490000 0.143690
0.827927 0.490000 0.143690
0.888902 0.490000 0.143690
0.950000 0.490000 0.143690
0.000000 0.551250 0.143690
0.054636 0.551250 0.143690
0.111568 0.551250 0.143690
0.169401 0.551250 0.143690
0.227825 0.551250 0.143690
0.286694 0.551250 0.143690
0.345920 0.551250 0.143690
0.405444 0.551250 0.143690
0.465225 0.551250 0.143690
0.525230 0.551250 0.143690
0.585437 0.551250 0.143690
0.645824 0.551250 0.143690
0.706377 0.551250 0.143690
0.767082 0.551250 0.143690
0.827927 0.551250 0.143690
0.888902 0.551250 0.143690
0.950000 0.551250 0.143690
0.000000 0.612500 0.143690
0.054636 0.612500 0.143690
0.111568 0.612500 0.143690
0.169401 0.612500 0.143690
0.227825 0.612500 0.143690
0.286694 0.612500 0.143690
0.345920 0.612500 0.143690
0.405444 0.612500 0.143690
0.465225 0.612500 0.143690
0.525230 0.612500 0.143690
0.585437 0.612500 0.143690
0.645824 0.612500 0.143690
0.706377 0.612500 0.143690
0.767082 0.612500 0.143690
0.827927 0.612500 0.143690
0.888902 0.612500 0.143690
0.950000 0.612500 0.143690
0.000000 0.673750 0.143690
0.054636 0.673750 0.143690
0.111568 0.673750 0.143690
0.169401 0.673750 0.143690
0.227825 0.673750 0.143690
0.286694 0.673750 0.143690
0.345920 0.673750 0.143690
0.405444 0.673750 0.143690
0.465225 0.673750 0.143690
0.525230 0.673750 0.143690
0.585437 0.673750 0.143690
0.645824 0.673750 0.143690
0.706377 0.673750 0.143690
0.767082 0.673750 0.143690
0.827927 0.673750 0.143690
0.888902 0.673750 0.143690
0.950000 0.673750 0.143690
0.000000 0.735000 0.143690
0.054636 0.735000 0.143690
0.111568 0.735000 0.143690
0.169401 0.735000 0.143690
0.227825 0.735000 0.143690
0.286694 0.735000 0.143690
0.345920 0.735000 0.143690
0.405444 0.735000 0.143690
0.465225 0.735000 0.143690
0.525230 0.735000 0.143690
0.585437 0.735000 0.143690
0.645824 0.735000 0.143690
0.706377 0.735000 0.143690
0.767082 0.735000 0.143690
0.827927 0.735000 0.143690
0.888902 0.735000 0.143690
0.950000 0.735000 0.143690
0.000000 0.796250 0.143690
0.054636 0.796250 0.143690
0.111568 0.796250 0.143690
0.169401 0.796250 0.143690
0.227825 0.796250 0.143690
0.286694 0.796250 0.143690
0.345920 0.796250 0.143690
0.405444 0.796250 0.143690
0.465225 0.796250 0.143690
0.525230 0.796250 0.143690
0.585437 0.796250 0.143690
0.645824 0.796250 0.143690
0.706377 0.796250 0.143690
0.767082 0.796250 0.143690
0.827927 0.796250 0.143690
0.888902 0.796250 0.143690
0.950000 0.796250 0.143690
0.000000 0.857500 0.143690
0.054636 0.857500 0.143690
0.111568 0.857500 0.143690
0.169401 0.857500 0.143690
0.227825 0.857500 0.143690
0.286694 0.857500 0.143690
0.345920 0.857500 0.143690
0.405444 0.857500 0.143690
0.465225 0.857500 0.143690
0.525230 0.857500 0.143690
0.585437 0.857500 0.143690
0.645824 0.857500 0.143690
0.706377 0.857500 0.143690
0.767082 0.857500 0.143690
0.827927 0.857500 0.143690
0.888902 0.857500 0.143690
0.950000 0.857500 0.143690
0.000000 0.918750 0.143690
0.054636 0.918750 0.143690
0.111568 0.918750 0.143690
0.169401 0.918750 0.143690
0.227825 0.918750 0.143690
0.286694 0.918750 0.143690
0.345920 0.918750 0.143690
0.405444 0.918750 0.143690
0.465225 0.918750 0.143690
0.525230 0.918750 0.143690
0.585437 0.918750 0.143690
0.645824 0.918750 0.143690
0.706377 0.918750 0.143690
0.767082 0.918750 0.143690
0.827927 0.918750 0.143690
0.888902 0.918750 0.143690
0.950000 0.918750 0.143690
0.000000 0.980000 0.143690
0.054636 0.980000 0.143690
0.111568 0.980000 0.143690
0.169401 0.980000 0.143690
0.227825 0.980000 0.143690
0.286694 0.980000 0.143690
0.345920 0.980000 0.143690
0.405444 0.980000 0.143690
0.465225 0.980000 0.143690
0.525230 0.980000 0.143690
0.585437 0.980000 0.143690
0.645824 0.980000 0.143690
0.706377 0.980000 0.143690
0.767082 0.980000 0.143690
0.827927 0.980000 0.143690
0.888902 0.980000 0.143690
0.950000 0.980000 0.143690
0.000000 0.000000 0.212929
0.054636 0.000000 0.212929
0.111568 0.000000 0.212929
0.169401 0.000000 0.212929
0.227825 0.000000 0.212929
0.286694 0.000000 0.212929
0.345920 0.000000 0.212929
0.405444 0.000000 0.212929
0.465225 0.000000 0.212929
0.525230 0.000000 0.212929
0.585437 0.000000 0.212929
0.645824 0.000000 0.212929
0.706377 0.000000 0.212929
0.767082 0.000000 0.212929
0.827927 0.000000 0.212929
0.888902 0.000000 0.212929
0.950000 0.000000 0.212929
0.000000 0.061250 0.212929
0.054636 0.061250 0.212929
