public/assets/luts/b08_server.cube
TITLE "b08_server"
LUT_3D_SIZE 9
DOMAIN_MIN 0 0 0
DOMAIN_MAX 1 1 1
0.000000 0.000000 0.000000
0.108045 0.000000 0.000000
0.220631 0.000000 0.000000
0.334996 0.000000 0.000000
0.450533 0.000000 0.000000
0.566949 0.000000 0.000000
0.684071 0.000000 0.000000
0.801782 0.000000 0.000000
0.920000 0.000000 0.000000
0.000000 0.132500 0.000000
0.108045 0.132500 0.000000
0.220631 0.132500 0.000000
0.334996 0.132500 0.000000
0.450533 0.132500 0.000000
0.566949 0.132500 0.000000
0.684071 0.132500 0.000000
0.801782 0.132500 0.000000
0.920000 0.132500 0.000000
0.000000 0.265000 0.000000
0.108045 0.265000 0.000000
0.220631 0.265000 0.000000
0.334996 0.265000 0.000000
0.450533 0.265000 0.000000
0.566949 0.265000 0.000000
0.684071 0.265000 0.000000
0.801782 0.265000 0.000000
0.920000 0.265000 0.000000
0.000000 0.397500 0.000000
0.108045 0.397500 0.000000
0.220631 0.397500 0.000000
0.334996 0.397500 0.000000
0.450533 0.397500 0.000000
0.566949 0.397500 0.000000
0.684071 0.397500 0.000000
0.801782 0.397500 0.000000
0.920000 0.397500 0.000000
0.000000 0.530000 0.000000
0.108045 0.530000 0.000000
0.220631 0.530000 0.000000
0.334996 0.530000 0.000000
0.450533 0.530000 0.000000
0.566949 0.530000 0.000000
0.684071 0.530000 0.000000
0.801782 0.530000 0.000000
0.920000 0.530000 0.000000
0.000000 0.662500 0.000000
0.108045 0.662500 0.000000
0.220631 0.662500 0.000000
0.334996 0.662500 0.000000
0.450533 0.662500 0.000000
0.566949 0.662500 0.000000
0.684071 0.662500 0.000000
0.801782 0.662500 0.000000
0.920000 0.662500 0.000000
0.000000 0.795000 0.000000
0.108045 0.795000 0.000000
0.220631 0.795000 0.000000
0.334996 0.795000 0.000000
0.450533 0.795000 0.000000
0.566949 0.795000 0.000000
0.684071 0.795000 0.000000
0.801782 0.795000 0.000000
0.920000 0.795000 0.000000
0.000000 0.927500 0.000000
0.108045 0.927500 0.000000
0.220631 0.927500 0.000000
0.334996 0.927500 0.000000
0.450533 0.927500 0.000000
0.566949 0.927500 0.000000
0.684071 0.927500 0.000000
0.801782 0.927500 0.000000
0.920000 0.927500 0.000000
0.000000 1.060000 0.000000
0.108045 1.060000 0.000000
0.220631 1.060000 0.000000
0.334996 1.060000 0.000000
0.450533 1.060000 0.000000
0.566949 1.060000 0.000000
0.684071 1.060000 0.000000
0.801782 1.060000 0.000000
0.920000 1.060000 0.000000
0.000000 0.000000 0.149012
0.108045 0.000000 0.149012
0.220631 0.000000 0.149012
0.334996 0.000000 0.149012
0.450533 0.000000 0.149012
0.566949 0.000000 0.149012
0.684071 0.000000 0.149012
0.801782 0.000000 0.149012
0.920000 0.000000 0.149012
0.000000 0.132500 0.149012
0.108045 0.132500 0.149012
0.220631 0.132500 0.149012
0.334996 0.132500 0.149012
0.450533 0.132500 0.149012
0.566949 0.132500 0.149012
0.684071 0.132500 0.149012
0.801782 0.132500 0.149012
0.920000 0.132500 0.149012
0.000000 0.265000 0.149012
0.108045 0.265000 0.149012
0.220631 0.265000 0.149012
0.334996 0.265000 0.149012
0.450533 0.265000 0.149012
0.566949 0.265000 0.149012
0.684071 0.265000 0.149012
0.801782 0.265000 0.149012
0.920000 0.265000 0.149012
0.000000 0.397500 0.149012
0.108045 0.397500 0.149012
0.220631 0.397500 0.149012
0.334996 0.397500 0.149012
0.450533 0.397500 0.149012
0.566949 0.397500 0.149012
0.684071 0.397500 0.149012
0.801782 0.397500 0.149012
0.920000 0.397500 0.149012
0.000000 0.530000 0.149012
0.108045 0.530000 0.149012
0.220631 0.530000 0.149012
0.334996 0.530000 0.149012
0.450533 0.530000 0.149012
0.566949 0.530000 0.149012
0.684071 0.530000 0.149012
0.801782 0.530000 0.149012
0.920000 0.530000 0.149012
0.000000 0.662500 0.149012
0.108045 0.662500 0.149012
0.220631 0.662500 0.149012
0.334996 0.662500 0.149012
0.450533 0.662500 0.149012
0.566949 0.662500 0.149012
0.684071 0.662500 0.149012
0.801782 0.662500 0.149012
0.920000 0.662500 0.149012
0.000000 0.795000 0.149012
0.108045 0.795000 0.149012
0.220631 0.795000 0.149012
0.334996 0.795000 0.149012
0.450533 0.795000 0.149012
0.566949 0.795000 0.149012
0.684071 0.795000 0.149012
0.801782 0.795000 0.149012
0.920000 0.795000 0.149012
0.000000 0.927500 0.149012
0.108045 0.927500 0.149012
0.220631 0.927500 0.149012
0.334996 0.927500 0.149012
0.450533 0.927500 0.149012
0.566949 0.927500 0.149012
0.684071 0.927500 0.149012
0.801782 0.927500 0.149012
0.920000 0.927500 0.149012
0.000000 1.060000 0.149012
0.108045 1.060000 0.149012
0.220631 1.060000 0.149012
0.334996 1.060000 0.149012
0.450533 1.060000 0.149012
0.566949 1.060000 0.149012
0.684071 1.060000 0.149012
0.801782 1.060000 0.149012
0.920000 1.060000 0.149012
0.000000 0.000000 0.291890
0.108045 0.000000 0.291890
0.220631 0.000000 0.291890
0.334996 0.000000 0.291890
0.450533 0.000000 0.291890
0.566949 0.000000 0.291890
0.684071 0.000000 0.291890
0.801782 0.000000 0.291890
0.920000 0.000000 0.291890
0.000000 0.132500 0.291890
0.108045 0.132500 0.291890
0.220631 0.132500 0.291890
0.334996 0.132500 0.291890
0.450533 0.132500 0.291890
0.566949 0.132500 0.291890
0.684071 0.132500 0.291890
0.801782 0.132500 0.291890
0.920000 0.132500 0.291890
0.000000 0.265000 0.291890
0.108045 0.265000 0.291890
0.220631 0.265000 0.291890
0.334996 0.265000 0.291890
0.450533 0.265000 0.291890
0.566949 0.265000 0.291890
0.684071 0.265000 0.291890
0.801782 0.265000 0.291890
0.920000 0.265000 0.291890
0.000000 0.397500 0.291890
0.108045 0.397500 0.291890
0.220631 0.397500 0.291890
0.334996 0.397500 0.291890
0.450533 0.397500 0.291890
0.566949 0.397500 0.291890
0.684071 0.397500 0.291890
0.801782 0.397500 0.291890
0.920000 0.397500 0.291890
0.000000 0.530000 0.291890
0.108045 0.530000 0.291890
0.220631 0.530000 0.291890
0.334996 0.530000 0.291890
0.450533 0.530000 0.291890
0.566949 0.530000 0.291890
0.684071 0.530000 0.291890
0.801782 0.530000 0.291890
0.920000 0.530000 0.291890
0.000000 0.662500 0.291890
0.108045 0.662500 0.291890
0.220631 0.662500 0.291890
0.334996 0.662500 0.291890
0.450533 0.662500 0.291890
0.566949 0.662500 0.291890
0.684071 0.662500 0.291890
0.801782 0.662500 0.291890
0.920000 0.662500 0.291890
0.000000 0.795000 0.291890
0.108045 0.795000 0.291890
0.220631 0.795000 0.291890
0.334996 0.795000 0.291890
0.450533 0.795000 0.291890
0.566949 0.795000 0.291890
0.684071 0.795000 0.291890
0.801782 0.795000 0.291890
0.920000 0.795000 0.291890
0.000000 0.927500 0.291890
0.108045 0.927500 0.291890
0.220631 0.927500 0.291890
0.334996 0.927500 0.291890
0.450533 0.927500 0.291890
0.566949 0.927500 0.291890
0.684071 0.927500 0.291890
0.801782 0.927500 0.291890
0.920000 0.927500 0.291890
0.000000 1.060000 0.291890
0.108045 1.060000 0.291890
0.220631 1.060000 0.291890
0.334996 1.060000 0.291890
0.450533 1.060000 0.291890
0.566949 1.060000 0.291890
0.684071 1.060000 0.291890
0.801782 1.060000 0.291890
0.920000 1.060000 0.291890
0.000000 0.000000 0.432542
0.108045 0.000000 0.432542
0.220631 0.000000 0.432542
0.334996 0.000000 0.432542
0.450533 0.000000 0.432542
0.566949 0.000000 0.432542
0.684071 0.000000 0.432542
0.801782 0.000000 0.432542
0.920000 0.000000 0.432542
0.000000 0.132500 0.432542
0.108045 0.132500 0.432542
0.220631 0.132500 0.432542
0.334996 0.132500 0.432542
0.450533 0.132500 0.432542
0.566949 0.132500 0.432542
0.684071 0.132500 0.432542
0.801782 0.132500 0.432542
0.920000 0.132500 0.432542
0.000000 0.265000 0.432542
0.108045 0.265000 0.432542
0.220631 0.265000 0.432542
0.334996 0.265000 0.432542
0.450533 0.265000 0.432542
0.566949 0.265000 0.432542
0.684071 0.265000 0.432542
0.801782 0.265000 0.432542
0.920000 0.265000 0.432542
0.000000 0.397500 0.432542
0.108045 0.397500 0.432542
0.220631 0.397500 0.432542
0.334996 0.397500 0.432542
0.450533 0.397500 0.432542
0.566949 0.397500 0.432542
0.684071 0.397500 0.432542
0.801782 0.397500 0.432542
0.920000 0.397500 0.432542
0.000000 0.530000 0.432542
0.108045 0.530000 0.432542
0.220631 0.530000 0.432542
0.334996 0.530000 0.432542
0.450533 0.530000 0.432542
0.566949 0.530000 0.432542
0.684071 0.530000 0.432542
0.801782 0.530000 0.432542
0.920000 0.530000 0.432542
0.000000 0.662500 0.432542
0.108045 0.662500 0.432542
0.220631 0.662500 0.432542
0.334996 0.662500 0.432542
0.450533 0.662500 0.432542
0.566949 0.662500 0.432542
0.684071 0.662500 0.432542
0.801782 0.662500 0.432542
0.920000 0.662500 0.432542
0.000000 0.795000 0.432542
0.108045 0.795000 0.432542
0.220631 0.795000 0.432542
0.334996 0.795000 0.432542
0.450533 0.795000 0.432542
0.566949 0.795000 0.432542
0.684071 0.795000 0.432542
0.801782 0.795000 0.432542
0.920000 0.795000 0.432542
0.000000 0.927500 0.432542
0.108045 0.927500 0.432542
0.220631 0.927500 0.432542
0.334996 0.927500 0.432542
0.450533 0.927500 0.432542
0.566949 0.927500 0.432542
0.684071 0.927500 0.432542
0.801782 0.927500 0.432542
0.920000 0.927500 0.432542
0.000000 1.060000 0.432542
0.108045 1.060000 0.432542
0.220631 1.060000 0.432542
0.334996 1.060000 0.432542
0.450533 1.060000 0.432542
0.566949 1.060000 0.432542
0.684071 1.060000 0.432542
0.801782 1.060000 0.432542
0.920000 1.060000 0.432542
0.000000 0.000000 0.571767
0.108045 0.000000 0.571767
0.220631 0.000000 0.571767
0.334996 0.000000 0.571767
0.450533 0.000000 0.571767
0.566949 0.000000 0.571767
0.684071 0.000000 0.571767
0.801782 0.000000 0.571767
0.920000 0.000000 0.571767
0.000000 0.132500 0.571767
0.108045 0.132500 0.571767
0.220631 0.132500 0.571767
0.334996 0.132500 0.571767
0.450533 0.132500 0.571767
0.566949 0.132500 0.571767
0.684071 0.132500 0.571767
0.801782 0.132500 0.571767
0.920000 0.132500 0.571767
0.000000 0.265000 0.571767
0.108045 0.265000 0.571767
0.220631 0.265000 0.571767
0.334996 0.265000 0.571767
0.450533 0.265000 0.571767
0.566949 0.265000 0.571767
0.684071 0.265000 0.571767
0.801782 0.265000 0.571767
0.920000 0.265000 0.571767
0.000000 0.397500 0.571767
0.108045 0.397500 0.571767
0.220631 0.397500 0.571767
0.334996 0.397500 0.571767
0.450533 0.397500 0.571767
0.566949 0.397500 0.571767
0.684071 0.397500 0.571767
0.801782 0.397500 0.571767
0.920000 0.397500 0.571767
0.000000 0.530000 0.571767
0.108045 0.530000 0.571767
0.220631 0.530000 0.571767
0.334996 0.530000 0.571767
0.450533 0.530000 0.571767
0.566949 0.530000 0.571767
0.684071 0.530000 0.571767
0.801782 0.530000 0.571767
0.920000 0.530000 0.571767
0.000000 0.662500 0.571767
0.108045 0.662500 0.571767
0.220631 0.662500 0.571767
0.334996 0.662500 0.571767
0.450533 0.662500 0.571767
0.566949 0.662500 0.571767
0.684071 0.662500 0.571767
0.801782 0.662500 0.571767
0.920000 0.662500 0.571767
0.000000 0.795000 0.571767
0.108045 0.795000 0.571767
0.220631 0.795000 0.571767
0.334996 0.795000 0.571767
0.450533 0.795000 0.571767
0.566949 0.795000 0.571767
0.684071 0.795000 0.571767
0.801782 0.795000 0.571767
0.920000 0.795000 0.571767
0.000000 0.927500 0.571767
0.108045 0.927500 0.571767
0.220631 0.927500 0.571767
0.334996 0.927500 0.571767
0.450533 0.927500 0.571767
0.566949 0.927500 0.571767
0.684071 0.927500 0.571767
0.801782 0.927500 0.571767
0.920000 0.927500 0.571767
0.000000 1.060000 0.571767
0.108045 1.060000 0.571767
0.220631 1.060000 0.571767
0.334996 1.060000 0.571767
0.450533 1.060000 0.571767
0.566949 1.060000 0.571767
0.684071 1.060000 0.571767
0.801782 1.060000 0.571767
0.920000 1.060000 0.571767
0.000000 0.000000 0.709940
0.108045 0.000000 0.709940
0.220631 0.000000 0.709940
0.334996 0.000000 0.709940
0.450533 0.000000 0.709940
0.566949 0.000000 0.709940
0.684071 0.000000 0.709940
0.801782 0.000000 0.709940
0.920000 0.000000 0.709940
0.000000 0.132500 0.709940
0.108045 0.132500 0.709940
0.220631 0.132500 0.709940
0.334996 0.132500 0.709940
0.450533 0.132500 0.709940
0.566949 0.132500 0.709940
0.684071 0.132500 0.709940
0.801782 0.132500 0.709940
0.920000 0.132500 0.709940
0.000000 0.265000 0.709940
0.108045 0.265000 0.709940
0.220631 0.265000 0.709940
0.334996 0.265000 0.709940
0.450533 0.265000 0.709940
0.566949 0.265000 0.709940
0.684071 0.265000 0.709940
0.801782 0.265000 0.709940
0.920000 0.265000 0.709940
0.000000 0.397500 0.709940
0.108045 0.397500 0.709940
0.220631 0.397500 0.709940
0.334996 0.397500 0.709940
0.450533 0.397500 0.709940
0.566949 0.397500 0.709940
0.684071 0.397500 0.709940
0.801782 0.397500 0.709940
0.920000 0.397500 0.709940
0.000000 0.530000 0.709940
0.108045 0.530000 0.709940
0.220631 0.530000 0.709940
0.334996 0.530000 0.709940
0.450533 0.530000 0.709940
0.566949 0.530000 0.709940
0.684071 0.530000 0.709940
0.801782 0.530000 0.709940
0.920000 0.530000 0.709940
0.000000 0.662500 0.709940
0.108045 0.662500 0.709940
0.220631 0.662500 0.709940
0.334996 0.662500 0.709940
0.450533 0.662500 0.709940
0.566949 0.662500 0.709940
0.684071 0.662500 0.709940
0.801782 0.662500 0.709940
0.920000 0.662500 0.709940
0.000000 0.795000 0.709940
0.108045 0.795000 0.709940
0.220631 0.795000 0.709940
0.334996 0.795000 0.709940
0.450533 0.795000 0.709940
0.566949 0.795000 0.709940
0.684071 0.795000 0.709940
0.801782 0.795000 0.709940
0.920000 0.795000 0.709940
0.000000 0.927500 0.709940
0.108045 0.927500 0.709940
0.220631 0.927500 0.709940
0.334996 0.927500 0.709940
0.450533 0.927500 0.709940
0.566949 0.927500 0.709940
0.684071 0.927500 0.709940
0.801782 0.927500 0.709940
0.920000 0.927500 0.709940
0.000000 1.060000 0.709940
0.108045 1.060000 0.709940
0.220631 1.060000 0.709940
0.334996 1.060000 0.709940
0.450533 1.060000 0.709940
0.566949 1.060000 0.709940
0.684071 1.060000 0.709940
0.801782 1.060000 0.709940
0.920000 1.060000 0.709940
0.000000 0.000000 0.847281
0.108045 0.000000 0.847281
0.220631 0.000000 0.847281
0.334996 0.000000 0.847281
0.450533 0.000000 0.847281
0.566949 0.000000 0.847281
0.684071 0.000000 0.847281
0.801782 0.000000 0.847281
0.920000 0.000000 0.847281
0.000000 0.132500 0.847281
0.108045 0.132500 0.847281
0.220631 0.132500 0.847281
0.334996 0.132500 0.847281
0.450533 0.132500 0.847281
0.566949 0.132500 0.847281
0.684071 0.132500 0.847281
0.801782 0.132500 0.847281
0.920000 0.132500 0.847281
0.000000 0.265000 0.847281
0.108045 0.265000 0.847281
0.220631 0.265000 0.847281
0.334996 0.265000 0.847281
0.450533 0.265000 0.847281
0.566949 0.265000 0.847281
0.684071 0.265000 0.847281
0.801782 0.265000 0.847281
0.920000 0.265000 0.847281
0.000000 0.397500 0.847281
0.108045 0.397500 0.847281
0.220631 0.397500 0.847281
0.334996 0.397500 0.847281
0.450533 0.397500 0.847281
0.566949 0.397500 0.847281
0.684071 0.397500 0.847281
0.801782 0.397500 0.847281
0.920000 0.397500 0.847281
0.000000 0.530000 0.847281
0.108045 0.530000 0.847281
0.220631 0.530000 0.847281
0.334996 0.530000 0.847281
0.450533 0.530000 0.847281
0.566949 0.530000 0.847281
0.684071 0.530000 0.847281
0.801782 0.530000 0.847281
0.920000 0.530000 0.847281
0.000000 0.662500 0.847281
0.108045 0.662500 0.847281
0.220631 0.662500 0.847281
0.334996 0.662500 0.847281
0.450533 0.662500 0.847281
0.566949 0.662500 0.847281
0.684071 0.662500 0.847281
0.801782 0.662500 0.847281
0.920000 0.662500 0.847281
0.000000 0.795000 0.847281
0.108045 0.795000 0.847281
0.220631 0.795000 0.847281
0.334996 0.795000 0.847281
0.450533 0.795000 0.847281
0.566949 0.795000 0.847281
0.684071 0.795000 0.847281
0.801782 0.795000 0.847281
0.920000 0.795000 0.847281
0.000000 0.927500 0.847281
0.108045 0.927500 0.847281
0.220631 0.927500 0.847281
0.334996 0.927500 0.847281
0.450533 0.927500 0.847281
0.566949 0.927500 0.847281
0.684071 0.927500 0.847281
0.801782 0.927500 0.847281
0.920000 0.927500 0.847281
0.000000 1.060000 0.847281
0.108045 1.060000 0.847281
0.220631 1.060000 0.847281
0.334996 1.060000 0.847281
0.450533 1.060000 0.847281
0.566949 1.060000 0.847281
0.684071 1.060000 0.847281
0.801782 1.060000 0.847281
0.920000 1.060000 0.847281
0.000000 0.000000 0.983934
0.108045 0.000000 0.983934
0.220631 0.000000 0.983934
0.334996 0.000000 0.983934
0.450533 0.000000 0.983934
0.566949 0.000000 0.983934
0.684071 0.000000 0.983934
0.801782 0.000000 0.983934
0.920000 0.000000 0.983934
0.000000 0.132500 0.983934
0.108045 0.132500 0.983934
0.220631 0.132500 0.983934
0.334996 0.132500 0.983934
0.450533 0.132500 0.983934
0.566949 0.132500 0.983934
0.684071 0.132500 0.983934
0.801782 0.132500 0.983934
0.920000 0.132500 0.983934
0.000000 0.265000 0.983934
0.108045 0.265000 0.983934
0.220631 0.265000 0.983934
0.334996 0.265000 0.983934
0.450533 0.265000 0.983934
0.566949 0.265000 0.983934
0.684071 0.265000 0.983934
0.801782 0.265000 0.983934
0.920000 0.265000 0.983934
0.000000 0.397500 0.983934
0.108045 0.397500 0.983934
0.220631 0.397500 0.983934
0.334996 0.397500 0.983934
0.450533 0.397500 0.983934
0.566949 0.397500 0.983934
0.684071 0.397500 0.983934
0.801782 0.397500 0.983934
0.920000 0.397500 0.983934
0.000000 0.530000 0.983934
0.108045 0.530000 0.983934
0.220631 0.530000 0.983934
0.334996 0.530000 0.983934
0.450533 0.530000 0.983934
0.566949 0.530000 0.983934
0.684071 0.530000 0.983934
0.801782 0.530000 0.983934
0.920000 0.530000 0.983934
0.000000 0.662500 0.983934
0.108045 0.662500 0.983934
0.220631 0.662500 0.983934
0.334996 0.662500 0.983934
0.450533 0.662500 0.983934
0.566949 0.662500 0.983934
0.684071 0.662500 0.983934
0.801782 0.662500 0.983934
0.920000 0.662500 0.983934
0.000000 0.795000 0.983934
0.108045 0.795000 0.983934
0.220631 0.795000 0.983934
0.334996 0.795000 0.983934
0.450533 0.795000 0.983934
0.566949 0.795000 0.983934
0.684071 0.795000 0.983934
0.801782 0.795000 0.983934
0.920000 0.795000 0.983934
0.000000 0.927500 0.983934
0.108045 0.927500 0.983934
0.220631 0.927500 0.983934
0.334996 0.927500 0.983934
0.450533 0.927500 0.983934
0.566949 0.927500 0.983934
0.684071 0.927500 0.983934
0.801782 0.927500 0.983934
0.920000 0.927500 0.983934
0.000000 1.060000 0.983934
0.108045 1.060000 0.983934
0.220631 1.060000 0.983934
0.334996 1.060000 0.983934
0.450533 1.060000 0.983934
0.566949 1.060000 0.983934
0.684071 1.060000 0.983934
0.801782 1.060000 0.983934
0.920000 1.060000 0.983934
0.000000 0.000000 1.120000
0.108045 0.000000 1.120000
0.220631 0.000000 1.120000
0.334996 0.000000 1.120000
0.450533 0.000000 1.120000
0.566949 0.000000 1.120000
0.684071 0.000000 1.120000
0.801782 0.000000 1.120000
0.920000 0.000000 1.120000
0.000000 0.132500 1.120000
0.108045 0.132500 1.120000
0.220631 0.132500 1.120000
0.334996 0.132500 1.120000
0.450533 0.132500 1.120000
0.566949 0.132500 1.120000
0.684071 0.132500 1.120000
0.801782 0.132500 1.120000
0.920000 0.132500 1.120000
0.000000 0.265000 1.120000
0.108045 0.265000 1.120000
0.220631 0.265000 1.120000
0.334996 0.265000 1.120000
0.450533 0.265000 1.120000
0.566949 0.265000 1.120000
0.684071 0.265000 1.120000
0.801782 0.265000 1.120000
0.920000 0.265000 1.120000
0.000000 0.397500 1.120000
0.108045 0.397500 1.120000
0.220631 0.397500 1.120000
0.334996 0.397500 1.120000
0.450533 0.397500 1.120000
0.566949 0.397500 1.120000
0.684071 0.397500 1.120000
0.801782 0.397500 1.120000
0.920000 0.397500 1.120000
0.000000 0.530000 1.120000
0.108045 0.530000 1.120000
0.220631 0.530000 1.120000
0.334996 0.530000 1.120000
0.450533 0.530000 1.120000
0.566949 0.530000 1.120000
0.684071 0.530000 1.120000
0.801782 0.530000 1.120000
0.920000 0.530000 1.120000
0.000000 0.662500 1.120000
0.108045 0.662500 1.120000
0.220631 0.662500 1.120000
0.334996 0.662500 1.120000
0.450533 0.662500 1.120000
0.566949 0.662500 1.120000
0.684071 0.662500 1.120000
0.801782 0.662500 1.120000
0.920000 0.662500 1.120000
0.000000 0.795000 1.120000
0.108045 0.795000 1.120000
0.220631 0.795000 1.120000
0.334996 0.795000 1.120000
0.450533 0.795000 1.120000
0.566949 0.795000 1.120000
0.684071 0.795000 1.120000
0.801782 0.795000 1.120000
0.920000 0.795000 1.120000
0.000000 0.927500 1.120000
0.108045 0.927500 1.120000
0.220631 0.927500 1.120000
0.334996 0.927500 1.120000
0.450533 0.927500 1.120000
0.566949 0.927500 1.120000
0.684071 0.927500 1.120000
0.801782 0.927500 1.120000
0.920000 0.927500 1.120000
0.000000 1.060000 1.120000
0.108045 1.060000 1.120000
0.220631 1.060000 1.120000
0.334996 1.060000 1.120000
0.450533 1.060000 1.120000
0.566949 1.060000 1.120000
0.684071 1.060000 1.120000
0.801782 1.060000 1.120000
0.920000 1.060000 1.120000
