public/assets/luts/b08_server.cube
TITLE "b08_server"
LUT_3D_SIZE 5
DOMAIN_MIN 0 0 0
DOMAIN_MAX 1 1 1
0.000000 0.000000 0.000000
0.220631 0.000000 0.000000
0.450533 0.000000 0.000000
0.684071 0.000000 0.000000
0.920000 0.000000 0.000000
0.000000 0.265000 0.000000
0.220631 0.265000 0.000000
0.450533 0.265000 0.000000
0.684071 0.265000 0.000000
0.920000 0.265000 0.000000
0.000000 0.530000 0.000000
0.220631 0.530000 0.000000
0.450533 0.530000 0.000000
0.684071 0.530000 0.000000
0.920000 0.530000 0.000000
0.000000 0.795000 0.000000
0.220631 0.795000 0.000000
0.450533 0.795000 0.000000
0.684071 0.795000 0.000000
0.920000 0.795000 0.000000
0.000000 1.060000 0.000000
0.220631 1.060000 0.000000
0.450533 1.060000 0.000000
0.684071 1.060000 0.000000
0.920000 1.060000 0.000000
0.000000 0.000000 0.291890
0.220631 0.000000 0.291890
0.450533 0.000000 0.291890
0.684071 0.000000 0.291890
0.920000 0.000000 0.291890
0.000000 0.265000 0.291890
0.220631 0.265000 0.291890
0.450533 0.265000 0.291890
0.684071 0.265000 0.291890
0.920000 0.265000 0.291890
0.000000 0.530000 0.291890
0.220631 0.530000 0.291890
0.450533 0.530000 0.291890
0.684071 0.530000 0.291890
0.920000 0.530000 0.291890
0.000000 0.795000 0.291890
0.220631 0.795000 0.291890
0.450533 0.795000 0.291890
0.684071 0.795000 0.291890
0.920000 0.795000 0.291890
0.000000 1.060000 0.291890
0.220631 1.060000 0.291890
0.450533 1.060000 0.291890
0.684071 1.060000 0.291890
0.920000 1.060000 0.291890
0.000000 0.000000 0.571767
0.220631 0.000000 0.571767
0.450533 0.000000 0.571767
0.684071 0.000000 0.571767
0.920000 0.000000 0.571767
0.000000 0.265000 0.571767
0.220631 0.265000 0.571767
0.450533 0.265000 0.571767
0.684071 0.265000 0.571767
0.920000 0.265000 0.571767
0.000000 0.530000 0.571767
0.220631 0.530000 0.571767
0.450533 0.530000 0.571767
0.684071 0.530000 0.571767
0.920000 0.530000 0.571767
0.000000 0.795000 0.571767
0.220631 0.795000 0.571767
0.450533 0.795000 0.571767
0.684071 0.795000 0.571767
0.920000 0.795000 0.571767
0.000000 1.060000 0.571767
0.220631 1.060000 0.571767
0.450533 1.060000 0.571767
0.684071 1.060000 0.571767
0.920000 1.060000 0.571767
0.000000 0.000000 0.847281
0.220631 0.000000 0.847281
0.450533 0.000000 0.847281
0.684071 0.000000 0.847281
0.920000 0.000000 0.847281
0.000000 0.265000 0.847281
0.220631 0.265000 0.847281
0.450533 0.265000 0.847281
0.684071 0.265000 0.847281
0.920000 0.265000 0.847281
0.000000 0.530000 0.847281
0.220631 0.530000 0.847281
0.450533 0.530000 0.847281
0.684071 0.530000 0.847281
0.920000 0.530000 0.847281
0.000000 0.795000 0.847281
0.220631 0.795000 0.847281
0.450533 0.795000 0.847281
0.684071 0.795000 0.847281
0.920000 0.795000 0.847281
0.000000 1.060000 0.847281
0.220631 1.060000 0.847281
0.450533 1.060000 0.847281
0.684071 1.060000 0.847281
0.920000 1.060000 0.847281
0.000000 0.000000 1.120000
0.220631 0.000000 1.120000
0.450533 0.000000 1.120000
0.684071 0.000000 1.120000
0.920000 0.000000 1.120000
0.000000 0.265000 1.120000
0.220631 0.265000 1.120000
0.450533 0.265000 1.120000
0.684071 0.265000 1.120000
0.920000 0.265000 1.120000
0.000000 0.530000 1.120000
0.220631 0.530000 1.120000
0.450533 0.530000 1.120000
0.684071 0.530000 1.120000
0.920000 0.530000 1.120000
0.000000 0.795000 1.120000
0.220631 0.795000 1.120000
0.450533 0.795000 1.120000
0.684071 0.795000 1.120000
0.920000 0.795000 1.120000
0.000000 1.060000 1.120000
0.220631 1.060000 1.120000
0.450533 1.060000 1.120000
0.684071 1.060000 1.120000
0.920000 1.060000 1.120000
