public/assets/luts/b08_server.cube
TITLE "b08_server"
LUT_3D_SIZE 17
DOMAIN_MIN 0 0 0
DOMAIN_MAX 1 1 1
0.000000 0.000000 0.000000
0.052911 0.000000 0.000000
0.108045 0.000000 0.000000
0.164051 0.000000 0.000000
0.220631 0.000000 0.000000
0.277641 0.000000 0.000000
0.334996 0.000000 0.000000
0.392641 0.000000 0.000000
0.450533 0.000000 0.000000
0.508644 0.000000 0.000000
0.566949 0.000000 0.000000
0.625430 0.000000 0.000000
0.684071 0.000000 0.000000
0.742858 0.000000 0.000000
0.801782 0.000000 0.000000
0.860832 0.000000 0.000000
0.920000 0.000000 0.000000
0.000000 0.066250 0.000000
0.052911 0.066250 0.000000
0.108045 0.066250 0.000000
0.164051 0.066250 0.000000
0.220631 0.066250 0.000000
0.277641 0.066250 0.000000
0.334996 0.066250 0.000000
0.392641 0.066250 0.000000
0.450533 0.066250 0.000000
0.508644 0.066250 0.000000
0.566949 0.066250 0.000000
0.625430 0.066250 0.000000
0.684071 0.066250 0.000000
0.742858 0.066250 0.000000
0.801782 0.066250 0.000000
0.860832 0.066250 0.000000
0.920000 0.066250 0.000000
0.000000 0.132500 0.000000
0.052911 0.132500 0.000000
0.108045 0.132500 0.000000
0.164051 0.132500 0.000000
0.220631 0.132500 0.000000
0.277641 0.132500 0.000000
0.334996 0.132500 0.000000
0.392641 0.132500 0.000000
0.450533 0.132500 0.000000
0.508644 0.132500 0.000000
0.566949 0.132500 0.000000
0.625430 0.132500 0.000000
0.684071 0.132500 0.000000
0.742858 0.132500 0.000000
0.801782 0.132500 0.000000
0.860832 0.132500 0.000000
0.920000 0.132500 0.000000
0.000000 0.198750 0.000000
0.052911 0.198750 0.000000
0.108045 0.198750 0.000000
0.164051 0.198750 0.000000
0.220631 0.198750 0.000000
0.277641 0.198750 0.000000
0.334996 0.198750 0.000000
0.392641 0.198750 0.000000
0.450533 0.198750 0.000000
0.508644 0.198750 0.000000
0.566949 0.198750 0.000000
0.625430 0.198750 0.000000
0.684071 0.198750 0.000000
0.742858 0.198750 0.000000
0.801782 0.198750 0.000000
0.860832 0.198750 0.000000
0.920000 0.198750 0.000000
0.000000 0.265000 0.000000
0.052911 0.265000 0.000000
0.108045 0.265000 0.000000
0.164051 0.265000 0.000000
0.220631 0.265000 0.000000
0.277641 0.265000 0.000000
0.334996 0.265000 0.000000
0.392641 0.265000 0.000000
0.450533 0.265000 0.000000
0.508644 0.265000 0.000000
0.566949 0.265000 0.000000
0.625430 0.265000 0.000000
0.684071 0.265000 0.000000
0.742858 0.265000 0.000000
0.801782 0.265000 0.000000
0.860832 0.265000 0.000000
0.920000 0.265000 0.000000
0.000000 0.331250 0.000000
0.052911 0.331250 0.000000
0.108045 0.331250 0.000000
0.164051 0.331250 0.000000
0.220631 0.331250 0.000000
0.277641 0.331250 0.000000
0.334996 0.331250 0.000000
0.392641 0.331250 0.000000
0.450533 0.331250 0.000000
0.508644 0.331250 0.000000
0.566949 0.331250 0.000000
0.625430 0.331250 0.000000
0.684071 0.331250 0.000000
0.742858 0.331250 0.000000
0.801782 0.331250 0.000000
0.860832 0.331250 0.000000
0.920000 0.331250 0.000000
0.000000 0.397500 0.000000
0.052911 0.397500 0.000000
0.108045 0.397500 0.000000
0.164051 0.397500 0.000000
0.220631 0.397500 0.000000
0.277641 0.397500 0.000000
0.334996 0.397500 0.000000
0.392641 0.397500 0.000000
0.450533 0.397500 0.000000
0.508644 0.397500 0.000000
0.566949 0.397500 0.000000
0.625430 0.397500 0.000000
0.684071 0.397500 0.000000
0.742858 0.397500 0.000000
0.801782 0.397500 0.000000
0.860832 0.397500 0.000000
0.920000 0.397500 0.000000
0.000000 0.463750 0.000000
0.052911 0.463750 0.000000
0.108045 0.463750 0.000000
0.164051 0.463750 0.000000
0.220631 0.463750 0.000000
0.277641 0.463750 0.000000
0.334996 0.463750 0.000000
0.392641 0.463750 0.000000
0.450533 0.463750 0.000000
0.508644 0.463750 0.000000
0.566949 0.463750 0.000000
0.625430 0.463750 0.000000
0.684071 0.463750 0.000000
0.742858 0.463750 0.000000
0.801782 0.463750 0.000000
0.860832 0.463750 0.000000
0.920000 0.463750 0.000000
0.000000 0.530000 0.000000
0.052911 0.530000 0.000000
0.108045 0.530000 0.000000
0.164051 0.530000 0.000000
0.220631 0.530000 0.000000
0.277641 0.530000 0.000000
0.334996 0.530000 0.000000
0.392641 0.530000 0.000000
0.450533 0.530000 0.000000
0.508644 0.530000 0.000000
0.566949 0.530000 0.000000
0.625430 0.530000 0.000000
0.684071 0.530000 0.000000
0.742858 0.530000 0.000000
0.801782 0.530000 0.000000
0.860832 0.530000 0.000000
0.920000 0.530000 0.000000
0.000000 0.596250 0.000000
0.052911 0.596250 0.000000
0.108045 0.596250 0.000000
0.164051 0.596250 0.000000
0.220631 0.596250 0.000000
0.277641 0.596250 0.000000
0.334996 0.596250 0.000000
0.392641 0.596250 0.000000
0.450533 0.596250 0.000000
0.508644 0.596250 0.000000
0.566949 0.596250 0.000000
0.625430 0.596250 0.000000
0.684071 0.596250 0.000000
0.742858 0.596250 0.000000
0.801782 0.596250 0.000000
0.860832 0.596250 0.000000
0.920000 0.596250 0.000000
0.000000 0.662500 0.000000
0.052911 0.662500 0.000000
0.108045 0.662500 0.000000
0.164051 0.662500 0.000000
0.220631 0.662500 0.000000
0.277641 0.662500 0.000000
0.334996 0.662500 0.000000
0.392641 0.662500 0.000000
0.450533 0.662500 0.000000
0.508644 0.662500 0.000000
0.566949 0.662500 0.000000
0.625430 0.662500 0.000000
0.684071 0.662500 0.000000
0.742858 0.662500 0.000000
0.801782 0.662500 0.000000
0.860832 0.662500 0.000000
0.920000 0.662500 0.000000
0.000000 0.728750 0.000000
0.052911 0.728750 0.000000
0.108045 0.728750 0.000000
0.164051 0.728750 0.000000
0.220631 0.728750 0.000000
0.277641 0.728750 0.000000
0.334996 0.728750 0.000000
0.392641 0.728750 0.000000
0.450533 0.728750 0.000000
0.508644 0.728750 0.000000
0.566949 0.728750 0.000000
0.625430 0.728750 0.000000
0.684071 0.728750 0.000000
0.742858 0.728750 0.000000
0.801782 0.728750 0.000000
0.860832 0.728750 0.000000
0.920000 0.728750 0.000000
0.000000 0.795000 0.000000
0.052911 0.795000 0.000000
0.108045 0.795000 0.000000
0.164051 0.795000 0.000000
0.220631 0.795000 0.000000
0.277641 0.795000 0.000000
0.334996 0.795000 0.000000
0.392641 0.795000 0.000000
0.450533 0.795000 0.000000
0.508644 0.795000 0.000000
0.566949 0.795000 0.000000
0.625430 0.795000 0.000000
0.684071 0.795000 0.000000
0.742858 0.795000 0.000000
0.801782 0.795000 0.000000
0.860832 0.795000 0.000000
0.920000 0.795000 0.000000
0.000000 0.861250 0.000000
0.052911 0.861250 0.000000
0.108045 0.861250 0.000000
0.164051 0.861250 0.000000
0.220631 0.861250 0.000000
0.277641 0.861250 0.000000
0.334996 0.861250 0.000000
0.392641 0.861250 0.000000
0.450533 0.861250 0.000000
0.508644 0.861250 0.000000
0.566949 0.861250 0.000000
0.625430 0.861250 0.000000
0.684071 0.861250 0.000000
0.742858 0.861250 0.000000
0.801782 0.861250 0.000000
0.860832 0.861250 0.000000
0.920000 0.861250 0.000000
0.000000 0.927500 0.000000
0.052911 0.927500 0.000000
0.108045 0.927500 0.000000
0.164051 0.927500 0.000000
0.220631 0.927500 0.000000
0.277641 0.927500 0.000000
0.334996 0.927500 0.000000
0.392641 0.927500 0.000000
0.450533 0.927500 0.000000
0.508644 0.927500 0.000000
0.566949 0.927500 0.000000
0.625430 0.927500 0.000000
0.684071 0.927500 0.000000
0.742858 0.927500 0.000000
0.801782 0.927500 0.000000
0.860832 0.927500 0.000000
0.920000 0.927500 0.000000
0.000000 0.993750 0.000000
0.052911 0.993750 0.000000
0.108045 0.993750 0.000000
0.164051 0.993750 0.000000
0.220631 0.993750 0.000000
0.277641 0.993750 0.000000
0.334996 0.993750 0.000000
0.392641 0.993750 0.000000
0.450533 0.993750 0.000000
0.508644 0.993750 0.000000
0.566949 0.993750 0.000000
0.625430 0.993750 0.000000
0.684071 0.993750 0.000000
0.742858 0.993750 0.000000
0.801782 0.993750 0.000000
0.860832 0.993750 0.000000
0.920000 0.993750 0.000000
0.000000 1.060000 0.000000
0.052911 1.060000 0.000000
0.108045 1.060000 0.000000
0.164051 1.060000 0.000000
0.220631 1.060000 0.000000
0.277641 1.060000 0.000000
0.334996 1.060000 0.000000
0.392641 1.060000 0.000000
0.450533 1.060000 0.000000
0.508644 1.060000 0.000000
0.566949 1.060000 0.000000
0.625430 1.060000 0.000000
0.684071 1.060000 0.000000
0.742858 1.060000 0.000000
0.801782 1.060000 0.000000
0.860832 1.060000 0.000000
0.920000 1.060000 0.000000
0.000000 0.000000 0.076071
0.052911 0.000000 0.076071
0.108045 0.000000 0.076071
0.164051 0.000000 0.076071
0.220631 0.000000 0.076071
0.277641 0.000000 0.076071
0.334996 0.000000 0.076071
0.392641 0.000000 0.076071
0.450533 0.000000 0.076071
0.508644 0.000000 0.076071
0.566949 0.000000 0.076071
0.625430 0.000000 0.076071
0.684071 0.000000 0.076071
0.742858 0.000000 0.076071
0.801782 0.000000 0.076071
0.860832 0.000000 0.076071
0.920000 0.000000 0.076071
0.000000 0.066250 0.076071
0.052911 0.066250 0.076071
0.108045 0.066250 0.076071
0.164051 0.066250 0.076071
0.220631 0.066250 0.076071
0.277641 0.066250 0.076071
0.334996 0.066250 0.076071
0.392641 0.066250 0.076071
0.450533 0.066250 0.076071
0.508644 0.066250 0.076071
0.566949 0.066250 0.076071
0.625430 0.066250 0.076071
0.684071 0.066250 0.076071
0.742858 0.066250 0.076071
0.801782 0.066250 0.076071
0.860832 0.066250 0.076071
0.920000 0.066250 0.076071
0.000000 0.132500 0.076071
0.052911 0.132500 0.076071
0.108045 0.132500 0.076071
0.164051 0.132500 0.076071
0.220631 0.132500 0.076071
0.277641 0.132500 0.076071
0.334996 0.132500 0.076071
0.392641 0.132500 0.076071
0.450533 0.132500 0.076071
0.508644 0.132500 0.076071
0.566949 0.132500 0.076071
0.625430 0.132500 0.076071
0.684071 0.132500 0.076071
0.742858 0.132500 0.076071
0.801782 0.132500 0.076071
0.860832 0.132500 0.076071
0.920000 0.132500 0.076071
0.000000 0.198750 0.076071
0.052911 0.198750 0.076071
0.108045 0.198750 0.076071
0.164051 0.198750 0.076071
0.220631 0.198750 0.076071
0.277641 0.198750 0.076071
0.334996 0.198750 0.076071
0.392641 0.198750 0.076071
0.450533 0.198750 0.076071
0.508644 0.198750 0.076071
0.566949 0.198750 0.076071
0.625430 0.198750 0.076071
0.684071 0.198750 0.076071
0.742858 0.198750 0.076071
0.801782 0.198750 0.076071
0.860832 0.198750 0.076071
0.920000 0.198750 0.076071
0.000000 0.265000 0.076071
0.052911 0.265000 0.076071
0.108045 0.265000 0.076071
0.164051 0.265000 0.076071
0.220631 0.265000 0.076071
0.277641 0.265000 0.076071
0.334996 0.265000 0.076071
0.392641 0.265000 0.076071
0.450533 0.265000 0.076071
0.508644 0.265000 0.076071
0.566949 0.265000 0.076071
0.625430 0.265000 0.076071
0.684071 0.265000 0.076071
0.742858 0.265000 0.076071
0.801782 0.265000 0.076071
0.860832 0.265000 0.076071
0.920000 0.265000 0.076071
0.000000 0.331250 0.076071
0.052911 0.331250 0.076071
0.108045 0.331250 0.076071
0.164051 0.331250 0.076071
0.220631 0.331250 0.076071
0.277641 0.331250 0.076071
0.334996 0.331250 0.076071
0.392641 0.331250 0.076071
0.450533 0.331250 0.076071
0.508644 0.331250 0.076071
0.566949 0.331250 0.076071
0.625430 0.331250 0.076071
0.684071 0.331250 0.076071
0.742858 0.331250 0.076071
0.801782 0.331250 0.076071
0.860832 0.331250 0.076071
0.920000 0.331250 0.076071
0.000000 0.397500 0.076071
0.052911 0.397500 0.076071
0.108045 0.397500 0.076071
0.164051 0.397500 0.076071
0.220631 0.397500 0.076071
0.277641 0.397500 0.076071
0.334996 0.397500 0.076071
0.392641 0.397500 0.076071
0.450533 0.397500 0.076071
0.508644 0.397500 0.076071
0.566949 0.397500 0.076071
0.625430 0.397500 0.076071
0.684071 0.397500 0.076071
0.742858 0.397500 0.076071
0.801782 0.397500 0.076071
0.860832 0.397500 0.076071
0.920000 0.397500 0.076071
0.000000 0.463750 0.076071
0.052911 0.463750 0.076071
0.108045 0.463750 0.076071
0.164051 0.463750 0.076071
0.220631 0.463750 0.076071
0.277641 0.463750 0.076071
0.334996 0.463750 0.076071
0.392641 0.463750 0.076071
0.450533 0.463750 0.076071
0.508644 0.463750 0.076071
0.566949 0.463750 0.076071
0.625430 0.463750 0.076071
0.684071 0.463750 0.076071
0.742858 0.463750 0.076071
0.801782 0.463750 0.076071
0.860832 0.463750 0.076071
0.920000 0.463750 0.076071
0.000000 0.530000 0.076071
0.052911 0.530000 0.076071
0.108045 0.530000 0.076071
0.164051 0.530000 0.076071
0.220631 0.530000 0.076071
0.277641 0.530000 0.076071
0.334996 0.530000 0.076071
0.392641 0.530000 0.076071
0.450533 0.530000 0.076071
0.508644 0.530000 0.076071
0.566949 0.530000 0.076071
0.625430 0.530000 0.076071
0.684071 0.530000 0.076071
0.742858 0.530000 0.076071
0.801782 0.530000 0.076071
0.860832 0.530000 0.076071
0.920000 0.530000 0.076071
0.000000 0.596250 0.076071
0.052911 0.596250 0.076071
0.108045 0.596250 0.076071
0.164051 0.596250 0.076071
0.220631 0.596250 0.076071
0.277641 0.596250 0.076071
0.334996 0.596250 0.076071
0.392641 0.596250 0.076071
0.450533 0.596250 0.076071
0.508644 0.596250 0.076071
0.566949 0.596250 0.076071
0.625430 0.596250 0.076071
0.684071 0.596250 0.076071
0.742858 0.596250 0.076071
0.801782 0.596250 0.076071
0.860832 0.596250 0.076071
0.920000 0.596250 0.076071
0.000000 0.662500 0.076071
0.052911 0.662500 0.076071
0.108045 0.662500 0.076071
0.164051 0.662500 0.076071
0.220631 0.662500 0.076071
0.277641 0.662500 0.076071
0.334996 0.662500 0.076071
0.392641 0.662500 0.076071
0.450533 0.662500 0.076071
0.508644 0.662500 0.076071
0.566949 0.662500 0.076071
0.625430 0.662500 0.076071
0.684071 0.662500 0.076071
0.742858 0.662500 0.076071
0.801782 0.662500 0.076071
0.860832 0.662500 0.076071
0.920000 0.662500 0.076071
0.000000 0.728750 0.076071
0.052911 0.728750 0.076071
0.108045 0.728750 0.076071
0.164051 0.728750 0.076071
0.220631 0.728750 0.076071
0.277641 0.728750 0.076071
0.334996 0.728750 0.076071
0.392641 0.728750 0.076071
0.450533 0.728750 0.076071
0.508644 0.728750 0.076071
0.566949 0.728750 0.076071
0.625430 0.728750 0.076071
0.684071 0.728750 0.076071
0.742858 0.728750 0.076071
0.801782 0.728750 0.076071
0.860832 0.728750 0.076071
0.920000 0.728750 0.076071
0.000000 0.795000 0.076071
0.052911 0.795000 0.076071
0.108045 0.795000 0.076071
0.164051 0.795000 0.076071
0.220631 0.795000 0.076071
0.277641 0.795000 0.076071
0.334996 0.795000 0.076071
0.392641 0.795000 0.076071
0.450533 0.795000 0.076071
0.508644 0.795000 0.076071
0.566949 0.795000 0.076071
0.625430 0.795000 0.076071
0.684071 0.795000 0.076071
0.742858 0.795000 0.076071
0.801782 0.795000 0.076071
0.860832 0.795000 0.076071
0.920000 0.795000 0.076071
0.000000 0.861250 0.076071
0.052911 0.861250 0.076071
0.108045 0.861250 0.076071
0.164051 0.861250 0.076071
0.220631 0.861250 0.076071
0.277641 0.861250 0.076071
0.334996 0.861250 0.076071
0.392641 0.861250 0.076071
0.450533 0.861250 0.076071
0.508644 0.861250 0.076071
0.566949 0.861250 0.076071
0.625430 0.861250 0.076071
0.684071 0.861250 0.076071
0.742858 0.861250 0.076071
0.801782 0.861250 0.076071
0.860832 0.861250 0.076071
0.920000 0.861250 0.076071
0.000000 0.927500 0.076071
0.052911 0.927500 0.076071
0.108045 0.927500 0.076071
0.164051 0.927500 0.076071
0.220631 0.927500 0.076071
0.277641 0.927500 0.076071
0.334996 0.927500 0.076071
0.392641 0.927500 0.076071
0.450533 0.927500 0.076071
0.508644 0.927500 0.076071
0.566949 0.927500 0.076071
0.625430 0.927500 0.076071
0.684071 0.927500 0.076071
0.742858 0.927500 0.076071
0.801782 0.927500 0.076071
0.860832 0.927500 0.076071
0.920000 0.927500 0.076071
0.000000 0.993750 0.076071
0.052911 0.993750 0.076071
0.108045 0.993750 0.076071
0.164051 0.993750 0.076071
0.220631 0.993750 0.076071
0.277641 0.993750 0.076071
0.334996 0.993750 0.076071
0.392641 0.993750 0.076071
0.450533 0.993750 0.076071
0.508644 0.993750 0.076071
0.566949 0.993750 0.076071
0.625430 0.993750 0.076071
0.684071 0.993750 0.076071
0.742858 0.993750 0.076071
0.801782 0.993750 0.076071
0.860832 0.993750 0.076071
0.920000 0.993750 0.076071
0.000000 1.060000 0.076071
0.052911 1.060000 0.076071
0.108045 1.060000 0.076071
0.164051 1.060000 0.076071
0.220631 1.060000 0.076071
0.277641 1.060000 0.076071
0.334996 1.060000 0.076071
0.392641 1.060000 0.076071
0.450533 1.060000 0.076071
0.508644 1.060000 0.076071
0.566949 1.060000 0.076071
0.625430 1.060000 0.076071
0.684071 1.060000 0.076071
0.742858 1.060000 0.076071
0.801782 1.060000 0.076071
0.860832 1.060000 0.076071
0.920000 1.060000 0.076071
0.000000 0.000000 0.149012
0.052911 0.000000 0.149012
0.108045 0.000000 0.149012
0.164051 0.000000 0.149012
0.220631 0.000000 0.149012
0.277641 0.000000 0.149012
0.334996 0.000000 0.149012
0.392641 0.000000 0.149012
0.450533 0.000000 0.149012
0.508644 0.000000 0.149012
0.566949 0.000000 0.149012
0.625430 0.000000 0.149012
0.684071 0.000000 0.149012
0.742858 0.000000 0.149012
0.801782 0.000000 0.149012
0.860832 0.000000 0.149012
0.920000 0.000000 0.149012
0.000000 0.066250 0.149012
0.052911 0.066250 0.149012
0.108045 0.066250 0.149012
0.164051 0.066250 0.149012
0.220631 0.066250 0.149012
0.277641 0.066250 0.149012
0.334996 0.066250 0.149012
0.392641 0.066250 0.149012
0.450533 0.066250 0.149012
0.508644 0.066250 0.149012
0.566949 0.066250 0.149012
0.625430 0.066250 0.149012
0.684071 0.066250 0.149012
0.742858 0.066250 0.149012
0.801782 0.066250 0.149012
0.860832 0.066250 0.149012
0.920000 0.066250 0.149012
0.000000 0.132500 0.149012
0.052911 0.132500 0.149012
0.108045 0.132500 0.149012
0.164051 0.132500 0.149012
0.220631 0.132500 0.149012
0.277641 0.132500 0.149012
0.334996 0.132500 0.149012
0.392641 0.132500 0.149012
0.450533 0.132500 0.149012
0.508644 0.132500 0.149012
0.566949 0.132500 0.149012
0.625430 0.132500 0.149012
0.684071 0.132500 0.149012
0.742858 0.132500 0.149012
0.801782 0.132500 0.149012
0.860832 0.132500 0.149012
0.920000 0.132500 0.149012
0.000000 0.198750 0.149012
0.052911 0.198750 0.149012
0.108045 0.198750 0.149012
0.164051 0.198750 0.149012
0.220631 0.198750 0.149012
0.277641 0.198750 0.149012
0.334996 0.198750 0.149012
0.392641 0.198750 0.149012
0.450533 0.198750 0.149012
0.508644 0.198750 0.149012
0.566949 0.198750 0.149012
0.625430 0.198750 0.149012
0.684071 0.198750 0.149012
0.742858 0.198750 0.149012
0.801782 0.198750 0.149012
0.860832 0.198750 0.149012
0.920000 0.198750 0.149012
0.000000 0.265000 0.149012
0.052911 0.265000 0.149012
0.108045 0.265000 0.149012
0.164051 0.265000 0.149012
0.220631 0.265000 0.149012
0.277641 0.265000 0.149012
0.334996 0.265000 0.149012
0.392641 0.265000 0.149012
0.450533 0.265000 0.149012
0.508644 0.265000 0.149012
0.566949 0.265000 0.149012
0.625430 0.265000 0.149012
0.684071 0.265000 0.149012
0.742858 0.265000 0.149012
0.801782 0.265000 0.149012
0.860832 0.265000 0.149012
0.920000 0.265000 0.149012
0.000000 0.331250 0.149012
0.052911 0.331250 0.149012
0.108045 0.331250 0.149012
0.164051 0.331250 0.149012
0.220631 0.331250 0.149012
0.277641 0.331250 0.149012
0.334996 0.331250 0.149012
0.392641 0.331250 0.149012
0.450533 0.331250 0.149012
0.508644 0.331250 0.149012
0.566949 0.331250 0.149012
0.625430 0.331250 0.149012
0.684071 0.331250 0.149012
0.742858 0.331250 0.149012
0.801782 0.331250 0.149012
0.860832 0.331250 0.149012
0.920000 0.331250 0.149012
0.000000 0.397500 0.149012
0.052911 0.397500 0.149012
0.108045 0.397500 0.149012
0.164051 0.397500 0.149012
0.220631 0.397500 0.149012
0.277641 0.397500 0.149012
0.334996 0.397500 0.149012
0.392641 0.397500 0.149012
0.450533 0.397500 0.149012
0.508644 0.397500 0.149012
0.566949 0.397500 0.149012
0.625430 0.397500 0.149012
0.684071 0.397500 0.149012
0.742858 0.397500 0.149012
0.801782 0.397500 0.149012
0.860832 0.397500 0.149012
0.920000 0.397500 0.149012
0.000000 0.463750 0.149012
0.052911 0.463750 0.149012
0.108045 0.463750 0.149012
0.164051 0.463750 0.149012
0.220631 0.463750 0.149012
0.277641 0.463750 0.149012
0.334996 0.463750 0.149012
0.392641 0.463750 0.149012
0.450533 0.463750 0.149012
0.508644 0.463750 0.149012
0.566949 0.463750 0.149012
0.625430 0.463750 0.149012
0.684071 0.463750 0.149012
0.742858 0.463750 0.149012
0.801782 0.463750 0.149012
0.860832 0.463750 0.149012
0.920000 0.463750 0.149012
0.000000 0.530000 0.149012
0.052911 0.530000 0.149012
0.108045 0.530000 0.149012
0.164051 0.530000 0.149012
0.220631 0.530000 0.149012
0.277641 0.530000 0.149012
0.334996 0.530000 0.149012
0.392641 0.530000 0.149012
0.450533 0.530000 0.149012
0.508644 0.530000 0.149012
0.566949 0.530000 0.149012
0.625430 0.530000 0.149012
0.684071 0.530000 0.149012
0.742858 0.530000 0.149012
0.801782 0.530000 0.149012
0.860832 0.530000 0.149012
0.920000 0.530000 0.149012
0.000000 0.596250 0.149012
0.052911 0.596250 0.149012
0.108045 0.596250 0.149012
0.164051 0.596250 0.149012
0.220631 0.596250 0.149012
0.277641 0.596250 0.149012
0.334996 0.596250 0.149012
0.392641 0.596250 0.149012
0.450533 0.596250 0.149012
0.508644 0.596250 0.149012
0.566949 0.596250 0.149012
0.625430 0.596250 0.149012
0.684071 0.596250 0.149012
0.742858 0.596250 0.149012
0.801782 0.596250 0.149012
0.860832 0.596250 0.149012
0.920000 0.596250 0.149012
0.000000 0.662500 0.149012
0.052911 0.662500 0.149012
0.108045 0.662500 0.149012
0.164051 0.662500 0.149012
0.220631 0.662500 0.149012
0.277641 0.662500 0.149012
0.334996 0.662500 0.149012
0.392641 0.662500 0.149012
0.450533 0.662500 0.149012
0.508644 0.662500 0.149012
0.566949 0.662500 0.149012
0.625430 0.662500 0.149012
0.684071 0.662500 0.149012
0.742858 0.662500 0.149012
0.801782 0.662500 0.149012
0.860832 0.662500 0.149012
0.920000 0.662500 0.149012
0.000000 0.728750 0.149012
0.052911 0.728750 0.149012
0.108045 0.728750 0.149012
0.164051 0.728750 0.149012
0.220631 0.728750 0.149012
0.277641 0.728750 0.149012
0.334996 0.728750 0.149012
0.392641 0.728750 0.149012
0.450533 0.728750 0.149012
0.508644 0.728750 0.149012
0.566949 0.728750 0.149012
0.625430 0.728750 0.149012
0.684071 0.728750 0.149012
0.742858 0.728750 0.149012
0.801782 0.728750 0.149012
0.860832 0.728750 0.149012
0.920000 0.728750 0.149012
0.000000 0.795000 0.149012
0.052911 0.795000 0.149012
0.108045 0.795000 0.149012
0.164051 0.795000 0.149012
0.220631 0.795000 0.149012
0.277641 0.795000 0.149012
0.334996 0.795000 0.149012
0.392641 0.795000 0.149012
0.450533 0.795000 0.149012
0.508644 0.795000 0.149012
0.566949 0.795000 0.149012
0.625430 0.795000 0.149012
0.684071 0.795000 0.149012
0.742858 0.795000 0.149012
0.801782 0.795000 0.149012
0.860832 0.795000 0.149012
0.920000 0.795000 0.149012
0.000000 0.861250 0.149012
0.052911 0.861250 0.149012
0.108045 0.861250 0.149012
0.164051 0.861250 0.149012
0.220631 0.861250 0.149012
0.277641 0.861250 0.149012
0.334996 0.861250 0.149012
0.392641 0.861250 0.149012
0.450533 0.861250 0.149012
0.508644 0.861250 0.149012
0.566949 0.861250 0.149012
0.625430 0.861250 0.149012
0.684071 0.861250 0.149012
0.742858 0.861250 0.149012
0.801782 0.861250 0.149012
0.860832 0.861250 0.149012
0.920000 0.861250 0.149012
0.000000 0.927500 0.149012
0.052911 0.927500 0.149012
0.108045 0.927500 0.149012
0.164051 0.927500 0.149012
0.220631 0.927500 0.149012
0.277641 0.927500 0.149012
0.334996 0.927500 0.149012
0.392641 0.927500 0.149012
0.450533 0.927500 0.149012
0.508644 0.927500 0.149012
0.566949 0.927500 0.149012
0.625430 0.927500 0.149012
0.684071 0.927500 0.149012
0.742858 0.927500 0.149012
0.801782 0.927500 0.149012
0.860832 0.927500 0.149012
0.920000 0.927500 0.149012
0.000000 0.993750 0.149012
0.052911 0.993750 0.149012
0.108045 0.993750 0.149012
0.164051 0.993750 0.149012
0.220631 0.993750 0.149012
0.277641 0.993750 0.149012
0.334996 0.993750 0.149012
0.392641 0.993750 0.149012
0.450533 0.993750 0.149012
0.508644 0.993750 0.149012
0.566949 0.993750 0.149012
0.625430 0.993750 0.149012
0.684071 0.993750 0.149012
0.742858 0.993750 0.149012
0.801782 0.993750 0.149012
0.860832 0.993750 0.149012
0.920000 0.993750 0.149012
0.000000 1.060000 0.149012
0.052911 1.060000 0.149012
0.108045 1.060000 0.149012
0.164051 1.060000 0.149012
0.220631 1.060000 0.149012
0.277641 1.060000 0.149012
0.334996 1.060000 0.149012
0.392641 1.060000 0.149012
0.450533 1.060000 0.149012
0.508644 1.060000 0.149012
0.566949 1.060000 0.149012
0.625430 1.060000 0.149012
0.684071 1.060000 0.149012
0.742858 1.060000 0.149012
0.801782 1.060000 0.149012
0.860832 1.060000 0.149012
0.920000 1.060000 0.149012
0.000000 0.000000 0.220815
0.052911 0.000000 0.220815
0.108045 0.000000 0.220815
0.164051 0.000000 0.220815
0.220631 0.000000 0.220815
0.277641 0.000000 0.220815
0.334996 0.000000 0.220815
0.392641 0.000000 0.220815
0.450533 0.000000 0.220815
0.508644 0.000000 0.220815
0.566949 0.000000 0.220815
0.625430 0.000000 0.220815
0.684071 0.000000 0.220815
0.742858 0.000000 0.220815
0.801782 0.000000 0.220815
0.860832 0.000000 0.220815
0.920000 0.000000 0.220815
0.000000 0.066250 0.220815
0.052911 0.066250 0.220815
