public/assets/luts/b09_border.cube
TITLE "b09_border"
LUT_3D_SIZE 9
DOMAIN_MIN 0 0 0
DOMAIN_MAX 1 1 1
0.000000 0.000000 0.000000
0.124487 0.000000 0.000000
0.254205 0.000000 0.000000
0.385974 0.000000 0.000000
0.519093 0.000000 0.000000
0.653224 0.000000 0.000000
0.788168 0.000000 0.000000
0.923792 0.000000 0.000000
1.060000 0.000000 0.000000
0.000000 0.122500 0.000000
0.124487 0.122500 0.000000
0.254205 0.122500 0.000000
0.385974 0.122500 0.000000
0.519093 0.122500 0.000000
0.653224 0.122500 0.000000
0.788168 0.122500 0.000000
0.923792 0.122500 0.000000
1.060000 0.122500 0.000000
0.000000 0.245000 0.000000
0.124487 0.245000 0.000000
0.254205 0.245000 0.000000
0.385974 0.245000 0.000000
0.519093 0.245000 0.000000
0.653224 0.245000 0.000000
0.788168 0.245000 0.000000
0.923792 0.245000 0.000000
1.060000 0.245000 0.000000
0.000000 0.367500 0.000000
0.124487 0.367500 0.000000
0.254205 0.367500 0.000000
0.385974 0.367500 0.000000
0.519093 0.367500 0.000000
0.653224 0.367500 0.000000
0.788168 0.367500 0.000000
0.923792 0.367500 0.000000
1.060000 0.367500 0.000000
0.000000 0.490000 0.000000
0.124487 0.490000 0.000000
0.254205 0.490000 0.000000
0.385974 0.490000 0.000000
0.519093 0.490000 0.000000
0.653224 0.490000 0.000000
0.788168 0.490000 0.000000
0.923792 0.490000 0.000000
1.060000 0.490000 0.000000
0.000000 0.612500 0.000000
0.124487 0.612500 0.000000
0.254205 0.612500 0.000000
0.385974 0.612500 0.000000
0.519093 0.612500 0.000000
0.653224 0.612500 0.000000
0.788168 0.612500 0.000000
0.923792 0.612500 0.000000
1.060000 0.612500 0.000000
0.000000 0.735000 0.000000
0.124487 0.735000 0.000000
0.254205 0.735000 0.000000
0.385974 0.735000 0.000000
0.519093 0.735000 0.000000
0.653224 0.735000 0.000000
0.788168 0.735000 0.000000
0.923792 0.735000 0.000000
1.060000 0.735000 0.000000
0.000000 0.857500 0.000000
0.124487 0.857500 0.000000
0.254205 0.857500 0.000000
0.385974 0.857500 0.000000
0.519093 0.857500 0.000000
0.653224 0.857500 0.000000
0.788168 0.857500 0.000000
0.923792 0.857500 0.000000
1.060000 0.857500 0.000000
0.000000 0.980000 0.000000
0.124487 0.980000 0.000000
0.254205 0.980000 0.000000
0.385974 0.980000 0.000000
0.519093 0.980000 0.000000
0.653224 0.980000 0.000000
0.788168 0.980000 0.000000
0.923792 0.980000 0.000000
1.060000 0.980000 0.000000
0.000000 0.000000 0.123733
0.124487 0.000000 0.123733
0.254205 0.000000 0.123733
0.385974 0.000000 0.123733
0.519093 0.000000 0.123733
0.653224 0.000000 0.123733
0.788168 0.000000 0.123733
0.923792 0.000000 0.123733
1.060000 0.000000 0.123733
0.000000 0.122500 0.123733
0.124487 0.122500 0.123733
0.254205 0.122500 0.123733
0.385974 0.122500 0.123733
0.519093 0.122500 0.123733
0.653224 0.122500 0.123733
0.788168 0.122500 0.123733
0.923792 0.122500 0.123733
1.060000 0.122500 0.123733
0.000000 0.245000 0.123733
0.124487 0.245000 0.123733
0.254205 0.245000 0.123733
0.385974 0.245000 0.123733
0.519093 0.245000 0.123733
0.653224 0.245000 0.123733
0.788168 0.245000 0.123733
0.923792 0.245000 0.123733
1.060000 0.245000 0.123733
0.000000 0.367500 0.123733
0.124487 0.367500 0.123733
0.254205 0.367500 0.123733
0.385974 0.367500 0.123733
0.519093 0.367500 0.123733
0.653224 0.367500 0.123733
0.788168 0.367500 0.123733
0.923792 0.367500 0.123733
1.060000 0.367500 0.123733
0.000000 0.490000 0.123733
0.124487 0.490000 0.123733
0.254205 0.490000 0.123733
0.385974 0.490000 0.123733
0.519093 0.490000 0.123733
0.653224 0.490000 0.123733
0.788168 0.490000 0.123733
0.923792 0.490000 0.123733
1.060000 0.490000 0.123733
0.000000 0.612500 0.123733
0.124487 0.612500 0.123733
0.254205 0.612500 0.123733
0.385974 0.612500 0.123733
0.519093 0.612500 0.123733
0.653224 0.612500 0.123733
0.788168 0.612500 0.123733
0.923792 0.612500 0.123733
1.060000 0.612500 0.123733
0.000000 0.735000 0.123733
0.124487 0.735000 0.123733
0.254205 0.735000 0.123733
0.385974 0.735000 0.123733
0.519093 0.735000 0.123733
0.653224 0.735000 0.123733
0.788168 0.735000 0.123733
0.923792 0.735000 0.123733
1.060000 0.735000 0.123733
0.000000 0.857500 0.123733
0.124487 0.857500 0.123733
0.254205 0.857500 0.123733
0.385974 0.857500 0.123733
0.519093 0.857500 0.123733
0.653224 0.857500 0.123733
0.788168 0.857500 0.123733
0.923792 0.857500 0.123733
1.060000 0.857500 0.123733
0.000000 0.980000 0.123733
0.124487 0.980000 0.123733
0.254205 0.980000 0.123733
0.385974 0.980000 0.123733
0.519093 0.980000 0.123733
0.653224 0.980000 0.123733
0.788168 0.980000 0.123733
0.923792 0.980000 0.123733
1.060000 0.980000 0.123733
0.000000 0.000000 0.242373
0.124487 0.000000 0.242373
0.254205 0.000000 0.242373
0.385974 0.000000 0.242373
0.519093 0.000000 0.242373
0.653224 0.000000 0.242373
0.788168 0.000000 0.242373
0.923792 0.000000 0.242373
1.060000 0.000000 0.242373
0.000000 0.122500 0.242373
0.124487 0.122500 0.242373
0.254205 0.122500 0.242373
0.385974 0.122500 0.242373
0.519093 0.122500 0.242373
0.653224 0.122500 0.242373
0.788168 0.122500 0.242373
0.923792 0.122500 0.242373
1.060000 0.122500 0.242373
0.000000 0.245000 0.242373
0.124487 0.245000 0.242373
0.254205 0.245000 0.242373
0.385974 0.245000 0.242373
0.519093 0.245000 0.242373
0.653224 0.245000 0.242373
0.788168 0.245000 0.242373
0.923792 0.245000 0.242373
1.060000 0.245000 0.242373
0.000000 0.367500 0.242373
0.124487 0.367500 0.242373
0.254205 0.367500 0.242373
0.385974 0.367500 0.242373
0.519093 0.367500 0.242373
0.653224 0.367500 0.242373
0.788168 0.367500 0.242373
0.923792 0.367500 0.242373
1.060000 0.367500 0.242373
0.000000 0.490000 0.242373
0.124487 0.490000 0.242373
0.254205 0.490000 0.242373
0.385974 0.490000 0.242373
0.519093 0.490000 0.242373
0.653224 0.490000 0.242373
0.788168 0.490000 0.242373
0.923792 0.490000 0.242373
1.060000 0.490000 0.242373
0.000000 0.612500 0.242373
0.124487 0.612500 0.242373
0.254205 0.612500 0.242373
0.385974 0.612500 0.242373
0.519093 0.612500 0.242373
0.653224 0.612500 0.242373
0.788168 0.612500 0.242373
0.923792 0.612500 0.242373
1.060000 0.612500 0.242373
0.000000 0.735000 0.242373
0.124487 0.735000 0.242373
0.254205 0.735000 0.242373
0.385974 0.735000 0.242373
0.519093 0.735000 0.242373
0.653224 0.735000 0.242373
0.788168 0.735000 0.242373
0.923792 0.735000 0.242373
1.060000 0.735000 0.242373
0.000000 0.857500 0.242373
0.124487 0.857500 0.242373
0.254205 0.857500 0.242373
0.385974 0.857500 0.242373
0.519093 0.857500 0.242373
0.653224 0.857500 0.242373
0.788168 0.857500 0.242373
0.923792 0.857500 0.242373
1.060000 0.857500 0.242373
0.000000 0.980000 0.242373
0.124487 0.980000 0.242373
0.254205 0.980000 0.242373
0.385974 0.980000 0.242373
0.519093 0.980000 0.242373
0.653224 0.980000 0.242373
0.788168 0.980000 0.242373
0.923792 0.980000 0.242373
1.060000 0.980000 0.242373
0.000000 0.000000 0.359164
0.124487 0.000000 0.359164
0.254205 0.000000 0.359164
0.385974 0.000000 0.359164
0.519093 0.000000 0.359164
0.653224 0.000000 0.359164
0.788168 0.000000 0.359164
0.923792 0.000000 0.359164
1.060000 0.000000 0.359164
0.000000 0.122500 0.359164
0.124487 0.122500 0.359164
0.254205 0.122500 0.359164
0.385974 0.122500 0.359164
0.519093 0.122500 0.359164
0.653224 0.122500 0.359164
0.788168 0.122500 0.359164
0.923792 0.122500 0.359164
1.060000 0.122500 0.359164
0.000000 0.245000 0.359164
0.124487 0.245000 0.359164
0.254205 0.245000 0.359164
0.385974 0.245000 0.359164
0.519093 0.245000 0.359164
0.653224 0.245000 0.359164
0.788168 0.245000 0.359164
0.923792 0.245000 0.359164
1.060000 0.245000 0.359164
0.000000 0.367500 0.359164
0.124487 0.367500 0.359164
0.254205 0.367500 0.359164
0.385974 0.367500 0.359164
0.519093 0.367500 0.359164
0.653224 0.367500 0.359164
0.788168 0.367500 0.359164
0.923792 0.367500 0.359164
1.060000 0.367500 0.359164
0.000000 0.490000 0.359164
0.124487 0.490000 0.359164
0.254205 0.490000 0.359164
0.385974 0.490000 0.359164
0.519093 0.490000 0.359164
0.653224 0.490000 0.359164
0.788168 0.490000 0.359164
0.923792 0.490000 0.359164
1.060000 0.490000 0.359164
0.000000 0.612500 0.359164
0.124487 0.612500 0.359164
0.254205 0.612500 0.359164
0.385974 0.612500 0.359164
0.519093 0.612500 0.359164
0.653224 0.612500 0.359164
0.788168 0.612500 0.359164
0.923792 0.612500 0.359164
1.060000 0.612500 0.359164
0.000000 0.735000 0.359164
0.124487 0.735000 0.359164
0.254205 0.735000 0.359164
0.385974 0.735000 0.359164
0.519093 0.735000 0.359164
0.653224 0.735000 0.359164
0.788168 0.735000 0.359164
0.923792 0.735000 0.359164
1.060000 0.735000 0.359164
0.000000 0.857500 0.359164
0.124487 0.857500 0.359164
0.254205 0.857500 0.359164
0.385974 0.857500 0.359164
0.519093 0.857500 0.359164
0.653224 0.857500 0.359164
0.788168 0.857500 0.359164
0.923792 0.857500 0.359164
1.060000 0.857500 0.359164
0.000000 0.980000 0.359164
0.124487 0.980000 0.359164
0.254205 0.980000 0.359164
0.385974 0.980000 0.359164
0.519093 0.980000 0.359164
0.653224 0.980000 0.359164
0.788168 0.980000 0.359164
0.923792 0.980000 0.359164
1.060000 0.980000 0.359164
0.000000 0.000000 0.474771
0.124487 0.000000 0.474771
0.254205 0.000000 0.474771
0.385974 0.000000 0.474771
0.519093 0.000000 0.474771
0.653224 0.000000 0.474771
0.788168 0.000000 0.474771
0.923792 0.000000 0.474771
1.060000 0.000000 0.474771
0.000000 0.122500 0.474771
0.124487 0.122500 0.474771
0.254205 0.122500 0.474771
0.385974 0.122500 0.474771
0.519093 0.122500 0.474771
0.653224 0.122500 0.474771
0.788168 0.122500 0.474771
0.923792 0.122500 0.474771
1.060000 0.122500 0.474771
0.000000 0.245000 0.474771
0.124487 0.245000 0.474771
0.254205 0.245000 0.474771
0.385974 0.245000 0.474771
0.519093 0.245000 0.474771
0.653224 0.245000 0.474771
0.788168 0.245000 0.474771
0.923792 0.245000 0.474771
1.060000 0.245000 0.474771
0.000000 0.367500 0.474771
0.124487 0.367500 0.474771
0.254205 0.367500 0.474771
0.385974 0.367500 0.474771
0.519093 0.367500 0.474771
0.653224 0.367500 0.474771
0.788168 0.367500 0.474771
0.923792 0.367500 0.474771
1.060000 0.367500 0.474771
0.000000 0.490000 0.474771
0.124487 0.490000 0.474771
0.254205 0.490000 0.474771
0.385974 0.490000 0.474771
0.519093 0.490000 0.474771
0.653224 0.490000 0.474771
0.788168 0.490000 0.474771
0.923792 0.490000 0.474771
1.060000 0.490000 0.474771
0.000000 0.612500 0.474771
0.124487 0.612500 0.474771
0.254205 0.612500 0.474771
0.385974 0.612500 0.474771
0.519093 0.612500 0.474771
0.653224 0.612500 0.474771
0.788168 0.612500 0.474771
0.923792 0.612500 0.474771
1.060000 0.612500 0.474771
0.000000 0.735000 0.474771
0.124487 0.735000 0.474771
0.254205 0.735000 0.474771
0.385974 0.735000 0.474771
0.519093 0.735000 0.474771
0.653224 0.735000 0.474771
0.788168 0.735000 0.474771
0.923792 0.735000 0.474771
1.060000 0.735000 0.474771
0.000000 0.857500 0.474771
0.124487 0.857500 0.474771
0.254205 0.857500 0.474771
0.385974 0.857500 0.474771
0.519093 0.857500 0.474771
0.653224 0.857500 0.474771
0.788168 0.857500 0.474771
0.923792 0.857500 0.474771
1.060000 0.857500 0.474771
0.000000 0.980000 0.474771
0.124487 0.980000 0.474771
0.254205 0.980000 0.474771
0.385974 0.980000 0.474771
0.519093 0.980000 0.474771
0.653224 0.980000 0.474771
0.788168 0.980000 0.474771
0.923792 0.980000 0.474771
1.060000 0.980000 0.474771
0.000000 0.000000 0.589504
0.124487 0.000000 0.589504
0.254205 0.000000 0.589504
0.385974 0.000000 0.589504
0.519093 0.000000 0.589504
0.653224 0.000000 0.589504
0.788168 0.000000 0.589504
0.923792 0.000000 0.589504
1.060000 0.000000 0.589504
0.000000 0.122500 0.589504
0.124487 0.122500 0.589504
0.254205 0.122500 0.589504
0.385974 0.122500 0.589504
0.519093 0.122500 0.589504
0.653224 0.122500 0.589504
0.788168 0.122500 0.589504
0.923792 0.122500 0.589504
1.060000 0.122500 0.589504
0.000000 0.245000 0.589504
0.124487 0.245000 0.589504
0.254205 0.245000 0.589504
0.385974 0.245000 0.589504
0.519093 0.245000 0.589504
0.653224 0.245000 0.589504
0.788168 0.245000 0.589504
0.923792 0.245000 0.589504
1.060000 0.245000 0.589504
0.000000 0.367500 0.589504
0.124487 0.367500 0.589504
0.254205 0.367500 0.589504
0.385974 0.367500 0.589504
0.519093 0.367500 0.589504
0.653224 0.367500 0.589504
0.788168 0.367500 0.589504
0.923792 0.367500 0.589504
1.060000 0.367500 0.589504
0.000000 0.490000 0.589504
0.124487 0.490000 0.589504
0.254205 0.490000 0.589504
0.385974 0.490000 0.589504
0.519093 0.490000 0.589504
0.653224 0.490000 0.589504
0.788168 0.490000 0.589504
0.923792 0.490000 0.589504
1.060000 0.490000 0.589504
0.000000 0.612500 0.589504
0.124487 0.612500 0.589504
0.254205 0.612500 0.589504
0.385974 0.612500 0.589504
0.519093 0.612500 0.589504
0.653224 0.612500 0.589504
0.788168 0.612500 0.589504
0.923792 0.612500 0.589504
1.060000 0.612500 0.589504
0.000000 0.735000 0.589504
0.124487 0.735000 0.589504
0.254205 0.735000 0.589504
0.385974 0.735000 0.589504
0.519093 0.735000 0.589504
0.653224 0.735000 0.589504
0.788168 0.735000 0.589504
0.923792 0.735000 0.589504
1.060000 0.735000 0.589504
0.000000 0.857500 0.589504
0.124487 0.857500 0.589504
0.254205 0.857500 0.589504
0.385974 0.857500 0.589504
0.519093 0.857500 0.589504
0.653224 0.857500 0.589504
0.788168 0.857500 0.589504
0.923792 0.857500 0.589504
1.060000 0.857500 0.589504
0.000000 0.980000 0.589504
0.124487 0.980000 0.589504
0.254205 0.980000 0.589504
0.385974 0.980000 0.589504
0.519093 0.980000 0.589504
0.653224 0.980000 0.589504
0.788168 0.980000 0.589504
0.923792 0.980000 0.589504
1.060000 0.980000 0.589504
0.000000 0.000000 0.703546
0.124487 0.000000 0.703546
0.254205 0.000000 0.703546
0.385974 0.000000 0.703546
0.519093 0.000000 0.703546
0.653224 0.000000 0.703546
0.788168 0.000000 0.703546
0.923792 0.000000 0.703546
1.060000 0.000000 0.703546
0.000000 0.122500 0.703546
0.124487 0.122500 0.703546
0.254205 0.122500 0.703546
0.385974 0.122500 0.703546
0.519093 0.122500 0.703546
0.653224 0.122500 0.703546
0.788168 0.122500 0.703546
0.923792 0.122500 0.703546
1.060000 0.122500 0.703546
0.000000 0.245000 0.703546
0.124487 0.245000 0.703546
0.254205 0.245000 0.703546
0.385974 0.245000 0.703546
0.519093 0.245000 0.703546
0.653224 0.245000 0.703546
0.788168 0.245000 0.703546
0.923792 0.245000 0.703546
1.060000 0.245000 0.703546
0.000000 0.367500 0.703546
0.124487 0.367500 0.703546
0.254205 0.367500 0.703546
0.385974 0.367500 0.703546
0.519093 0.367500 0.703546
0.653224 0.367500 0.703546
0.788168 0.367500 0.703546
0.923792 0.367500 0.703546
1.060000 0.367500 0.703546
0.000000 0.490000 0.703546
0.124487 0.490000 0.703546
0.254205 0.490000 0.703546
0.385974 0.490000 0.703546
0.519093 0.490000 0.703546
0.653224 0.490000 0.703546
0.788168 0.490000 0.703546
0.923792 0.490000 0.703546
1.060000 0.490000 0.703546
0.000000 0.612500 0.703546
0.124487 0.612500 0.703546
0.254205 0.612500 0.703546
0.385974 0.612500 0.703546
0.519093 0.612500 0.703546
0.653224 0.612500 0.703546
0.788168 0.612500 0.703546
0.923792 0.612500 0.703546
1.060000 0.612500 0.703546
0.000000 0.735000 0.703546
0.124487 0.735000 0.703546
0.254205 0.735000 0.703546
0.385974 0.735000 0.703546
0.519093 0.735000 0.703546
0.653224 0.735000 0.703546
0.788168 0.735000 0.703546
0.923792 0.735000 0.703546
1.060000 0.735000 0.703546
0.000000 0.857500 0.703546
0.124487 0.857500 0.703546
0.254205 0.857500 0.703546
0.385974 0.857500 0.703546
0.519093 0.857500 0.703546
0.653224 0.857500 0.703546
0.788168 0.857500 0.703546
0.923792 0.857500 0.703546
1.060000 0.857500 0.703546
0.000000 0.980000 0.703546
0.124487 0.980000 0.703546
0.254205 0.980000 0.703546
0.385974 0.980000 0.703546
0.519093 0.980000 0.703546
0.653224 0.980000 0.703546
0.788168 0.980000 0.703546
0.923792 0.980000 0.703546
1.060000 0.980000 0.703546
0.000000 0.000000 0.817016
0.124487 0.000000 0.817016
0.254205 0.000000 0.817016
0.385974 0.000000 0.817016
0.519093 0.000000 0.817016
0.653224 0.000000 0.817016
0.788168 0.000000 0.817016
0.923792 0.000000 0.817016
1.060000 0.000000 0.817016
0.000000 0.122500 0.817016
0.124487 0.122500 0.817016
0.254205 0.122500 0.817016
0.385974 0.122500 0.817016
0.519093 0.122500 0.817016
0.653224 0.122500 0.817016
0.788168 0.122500 0.817016
0.923792 0.122500 0.817016
1.060000 0.122500 0.817016
0.000000 0.245000 0.817016
0.124487 0.245000 0.817016
0.254205 0.245000 0.817016
0.385974 0.245000 0.817016
0.519093 0.245000 0.817016
0.653224 0.245000 0.817016
0.788168 0.245000 0.817016
0.923792 0.245000 0.817016
1.060000 0.245000 0.817016
0.000000 0.367500 0.817016
0.124487 0.367500 0.817016
0.254205 0.367500 0.817016
0.385974 0.367500 0.817016
0.519093 0.367500 0.817016
0.653224 0.367500 0.817016
0.788168 0.367500 0.817016
0.923792 0.367500 0.817016
1.060000 0.367500 0.817016
0.000000 0.490000 0.817016
0.124487 0.490000 0.817016
0.254205 0.490000 0.817016
0.385974 0.490000 0.817016
0.519093 0.490000 0.817016
0.653224 0.490000 0.817016
0.788168 0.490000 0.817016
0.923792 0.490000 0.817016
1.060000 0.490000 0.817016
0.000000 0.612500 0.817016
0.124487 0.612500 0.817016
0.254205 0.612500 0.817016
0.385974 0.612500 0.817016
0.519093 0.612500 0.817016
0.653224 0.612500 0.817016
0.788168 0.612500 0.817016
0.923792 0.612500 0.817016
1.060000 0.612500 0.817016
0.000000 0.735000 0.817016
0.124487 0.735000 0.817016
0.254205 0.735000 0.817016
0.385974 0.735000 0.817016
0.519093 0.735000 0.817016
0.653224 0.735000 0.817016
0.788168 0.735000 0.817016
0.923792 0.735000 0.817016
1.060000 0.735000 0.817016
0.000000 0.857500 0.817016
0.124487 0.857500 0.817016
0.254205 0.857500 0.817016
0.385974 0.857500 0.817016
0.519093 0.857500 0.817016
0.653224 0.857500 0.817016
0.788168 0.857500 0.817016
0.923792 0.857500 0.817016
1.060000 0.857500 0.817016
0.000000 0.980000 0.817016
0.124487 0.980000 0.817016
0.254205 0.980000 0.817016
0.385974 0.980000 0.817016
0.519093 0.980000 0.817016
0.653224 0.980000 0.817016
0.788168 0.980000 0.817016
0.923792 0.980000 0.817016
1.060000 0.980000 0.817016
0.000000 0.000000 0.930000
0.124487 0.000000 0.930000
0.254205 0.000000 0.930000
0.385974 0.000000 0.930000
0.519093 0.000000 0.930000
0.653224 0.000000 0.930000
0.788168 0.000000 0.930000
0.923792 0.000000 0.930000
1.060000 0.000000 0.930000
0.000000 0.122500 0.930000
0.124487 0.122500 0.930000
0.254205 0.122500 0.930000
0.385974 0.122500 0.930000
0.519093 0.122500 0.930000
0.653224 0.122500 0.930000
0.788168 0.122500 0.930000
0.923792 0.122500 0.930000
1.060000 0.122500 0.930000
0.000000 0.245000 0.930000
0.124487 0.245000 0.930000
0.254205 0.245000 0.930000
0.385974 0.245000 0.930000
0.519093 0.245000 0.930000
0.653224 0.245000 0.930000
0.788168 0.245000 0.930000
0.923792 0.245000 0.930000
1.060000 0.245000 0.930000
0.000000 0.367500 0.930000
0.124487 0.367500 0.930000
0.254205 0.367500 0.930000
0.385974 0.367500 0.930000
0.519093 0.367500 0.930000
0.653224 0.367500 0.930000
0.788168 0.367500 0.930000
0.923792 0.367500 0.930000
1.060000 0.367500 0.930000
0.000000 0.490000 0.930000
0.124487 0.490000 0.930000
0.254205 0.490000 0.930000
0.385974 0.490000 0.930000
0.519093 0.490000 0.930000
0.653224 0.490000 0.930000
0.788168 0.490000 0.930000
0.923792 0.490000 0.930000
1.060000 0.490000 0.930000
0.000000 0.612500 0.930000
0.124487 0.612500 0.930000
0.254205 0.612500 0.930000
0.385974 0.612500 0.930000
0.519093 0.612500 0.930000
0.653224 0.612500 0.930000
0.788168 0.612500 0.930000
0.923792 0.612500 0.930000
1.060000 0.612500 0.930000
0.000000 0.735000 0.930000
0.124487 0.735000 0.930000
0.254205 0.735000 0.930000
0.385974 0.735000 0.930000
0.519093 0.735000 0.930000
0.653224 0.735000 0.930000
0.788168 0.735000 0.930000
0.923792 0.735000 0.930000
1.060000 0.735000 0.930000
0.000000 0.857500 0.930000
0.124487 0.857500 0.930000
0.254205 0.857500 0.930000
0.385974 0.857500 0.930000
0.519093 0.857500 0.930000
0.653224 0.857500 0.930000
0.788168 0.857500 0.930000
0.923792 0.857500 0.930000
1.060000 0.857500 0.930000
0.000000 0.980000 0.930000
0.124487 0.980000 0.930000
0.254205 0.980000 0.930000
0.385974 0.980000 0.930000
0.519093 0.980000 0.930000
0.653224 0.980000 0.930000
0.788168 0.980000 0.930000
0.923792 0.980000 0.930000
1.060000 0.980000 0.930000
