public/assets/luts/b09_border.cube
TITLE "b09_border"
LUT_3D_SIZE 5
DOMAIN_MIN 0 0 0
DOMAIN_MAX 1 1 1
0.000000 0.000000 0.000000
0.254205 0.000000 0.000000
0.519093 0.000000 0.000000
0.788168 0.000000 0.000000
1.060000 0.000000 0.000000
0.000000 0.245000 0.000000
0.254205 0.245000 0.000000
0.519093 0.245000 0.000000
0.788168 0.245000 0.000000
1.060000 0.245000 0.000000
0.000000 0.490000 0.000000
0.254205 0.490000 0.000000
0.519093 0.490000 0.000000
0.788168 0.490000 0.000000
1.060000 0.490000 0.000000
0.000000 0.735000 0.000000
0.254205 0.735000 0.000000
0.519093 0.735000 0.000000
0.788168 0.735000 0.000000
1.060000 0.735000 0.000000
0.000000 0.980000 0.000000
0.254205 0.980000 0.000000
0.519093 0.980000 0.000000
0.788168 0.980000 0.000000
1.060000 0.980000 0.000000
0.000000 0.000000 0.242373
0.254205 0.000000 0.242373
0.519093 0.000000 0.242373
0.788168 0.000000 0.242373
1.060000 0.000000 0.242373
0.000000 0.245000 0.242373
0.254205 0.245000 0.242373
0.519093 0.245000 0.242373
0.788168 0.245000 0.242373
1.060000 0.245000 0.242373
0.000000 0.490000 0.242373
0.254205 0.490000 0.242373
0.519093 0.490000 0.242373
0.788168 0.490000 0.242373
1.060000 0.490000 0.242373
0.000000 0.735000 0.242373
0.254205 0.735000 0.242373
0.519093 0.735000 0.242373
0.788168 0.735000 0.242373
1.060000 0.735000 0.242373
0.000000 0.980000 0.242373
0.254205 0.980000 0.242373
0.519093 0.980000 0.242373
0.788168 0.980000 0.242373
1.060000 0.980000 0.242373
0.000000 0.000000 0.474771
0.254205 0.000000 0.474771
0.519093 0.000000 0.474771
0.788168 0.000000 0.474771
1.060000 0.000000 0.474771
0.000000 0.245000 0.474771
0.254205 0.245000 0.474771
0.519093 0.245000 0.474771
0.788168 0.245000 0.474771
1.060000 0.245000 0.474771
0.000000 0.490000 0.474771
0.254205 0.490000 0.474771
0.519093 0.490000 0.474771
0.788168 0.490000 0.474771
1.060000 0.490000 0.474771
0.000000 0.735000 0.474771
0.254205 0.735000 0.474771
0.519093 0.735000 0.474771
0.788168 0.735000 0.474771
1.060000 0.735000 0.474771
0.000000 0.980000 0.474771
0.254205 0.980000 0.474771
0.519093 0.980000 0.474771
0.788168 0.980000 0.474771
1.060000 0.980000 0.474771
0.000000 0.000000 0.703546
0.254205 0.000000 0.703546
0.519093 0.000000 0.703546
0.788168 0.000000 0.703546
1.060000 0.000000 0.703546
0.000000 0.245000 0.703546
0.254205 0.245000 0.703546
0.519093 0.245000 0.703546
0.788168 0.245000 0.703546
1.060000 0.245000 0.703546
0.000000 0.490000 0.703546
0.254205 0.490000 0.703546
0.519093 0.490000 0.703546
0.788168 0.490000 0.703546
1.060000 0.490000 0.703546
0.000000 0.735000 0.703546
0.254205 0.735000 0.703546
0.519093 0.735000 0.703546
0.788168 0.735000 0.703546
1.060000 0.735000 0.703546
0.000000 0.980000 0.703546
0.254205 0.980000 0.703546
0.519093 0.980000 0.703546
0.788168 0.980000 0.703546
1.060000 0.980000 0.703546
0.000000 0.000000 0.930000
0.254205 0.000000 0.930000
0.519093 0.000000 0.930000
0.788168 0.000000 0.930000
1.060000 0.000000 0.930000
0.000000 0.245000 0.930000
0.254205 0.245000 0.930000
0.519093 0.245000 0.930000
0.788168 0.245000 0.930000
1.060000 0.245000 0.930000
0.000000 0.490000 0.930000
0.254205 0.490000 0.930000
0.519093 0.490000 0.930000
0.788168 0.490000 0.930000
1.060000 0.490000 0.930000
0.000000 0.735000 0.930000
0.254205 0.735000 0.930000
0.519093 0.735000 0.930000
0.788168 0.735000 0.930000
1.060000 0.735000 0.930000
0.000000 0.980000 0.930000
0.254205 0.980000 0.930000
0.519093 0.980000 0.930000
0.788168 0.980000 0.930000
1.060000 0.980000 0.930000
