public/assets/luts/b09_border.cube
TITLE "b09_border"
LUT_3D_SIZE 17
DOMAIN_MIN 0 0 0
DOMAIN_MAX 1 1 1
0.000000 0.000000 0.000000
0.060962 0.000000 0.000000
0.124487 0.000000 0.000000
0.189015 0.000000 0.000000
0.254205 0.000000 0.000000
0.319891 0.000000 0.000000
0.385974 0.000000 0.000000
0.452390 0.000000 0.000000
0.519093 0.000000 0.000000
0.586046 0.000000 0.000000
0.653224 0.000000 0.000000
0.720604 0.000000 0.000000
0.788168 0.000000 0.000000
0.855902 0.000000 0.000000
0.923792 0.000000 0.000000
0.991828 0.000000 0.000000
1.060000 0.000000 0.000000
0.000000 0.061250 0.000000
0.060962 0.061250 0.000000
0.124487 0.061250 0.000000
0.189015 0.061250 0.000000
0.254205 0.061250 0.000000
0.319891 0.061250 0.000000
0.385974 0.061250 0.000000
0.452390 0.061250 0.000000
0.519093 0.061250 0.000000
0.586046 0.061250 0.000000
0.653224 0.061250 0.000000
0.720604 0.061250 0.000000
0.788168 0.061250 0.000000
0.855902 0.061250 0.000000
0.923792 0.061250 0.000000
0.991828 0.061250 0.000000
1.060000 0.061250 0.000000
0.000000 0.122500 0.000000
0.060962 0.122500 0.000000
0.124487 0.122500 0.000000
0.189015 0.122500 0.000000
0.254205 0.122500 0.000000
0.319891 0.122500 0.000000
0.385974 0.122500 0.000000
0.452390 0.122500 0.000000
0.519093 0.122500 0.000000
0.586046 0.122500 0.000000
0.653224 0.122500 0.000000
0.720604 0.122500 0.000000
0.788168 0.122500 0.000000
0.855902 0.122500 0.000000
0.923792 0.122500 0.000000
0.991828 0.122500 0.000000
1.060000 0.122500 0.000000
0.000000 0.183750 0.000000
0.060962 0.183750 0.000000
0.124487 0.183750 0.000000
0.189015 0.183750 0.000000
0.254205 0.183750 0.000000
0.319891 0.183750 0.000000
0.385974 0.183750 0.000000
0.452390 0.183750 0.000000
0.519093 0.183750 0.000000
0.586046 0.183750 0.000000
0.653224 0.183750 0.000000
0.720604 0.183750 0.000000
0.788168 0.183750 0.000000
0.855902 0.183750 0.000000
0.923792 0.183750 0.000000
0.991828 0.183750 0.000000
1.060000 0.183750 0.000000
0.000000 0.245000 0.000000
0.060962 0.245000 0.000000
0.124487 0.245000 0.000000
0.189015 0.245000 0.000000
0.254205 0.245000 0.000000
0.319891 0.245000 0.000000
0.385974 0.245000 0.000000
0.452390 0.245000 0.000000
0.519093 0.245000 0.000000
0.586046 0.245000 0.000000
0.653224 0.245000 0.000000
0.720604 0.245000 0.000000
0.788168 0.245000 0.000000
0.855902 0.245000 0.000000
0.923792 0.245000 0.000000
0.991828 0.245000 0.000000
1.060000 0.245000 0.000000
0.000000 0.306250 0.000000
0.060962 0.306250 0.000000
0.124487 0.306250 0.000000
0.189015 0.306250 0.000000
0.254205 0.306250 0.000000
0.319891 0.306250 0.000000
0.385974 0.306250 0.000000
0.452390 0.306250 0.000000
0.519093 0.306250 0.000000
0.586046 0.306250 0.000000
0.653224 0.306250 0.000000
0.720604 0.306250 0.000000
0.788168 0.306250 0.000000
0.855902 0.306250 0.000000
0.923792 0.306250 0.000000
0.991828 0.306250 0.000000
1.060000 0.306250 0.000000
0.000000 0.367500 0.000000
0.060962 0.367500 0.000000
0.124487 0.367500 0.000000
0.189015 0.367500 0.000000
0.254205 0.367500 0.000000
0.319891 0.367500 0.000000
0.385974 0.367500 0.000000
0.452390 0.367500 0.000000
0.519093 0.367500 0.000000
0.586046 0.367500 0.000000
0.653224 0.367500 0.000000
0.720604 0.367500 0.000000
0.788168 0.367500 0.000000
0.855902 0.367500 0.000000
0.923792 0.367500 0.000000
0.991828 0.367500 0.000000
1.060000 0.367500 0.000000
0.000000 0.428750 0.000000
0.060962 0.428750 0.000000
0.124487 0.428750 0.000000
0.189015 0.428750 0.000000
0.254205 0.428750 0.000000
0.319891 0.428750 0.000000
0.385974 0.428750 0.000000
0.452390 0.428750 0.000000
0.519093 0.428750 0.000000
0.586046 0.428750 0.000000
0.653224 0.428750 0.000000
0.720604 0.428750 0.000000
0.788168 0.428750 0.000000
0.855902 0.428750 0.000000
0.923792 0.428750 0.000000
0.991828 0.428750 0.000000
1.060000 0.428750 0.000000
0.000000 0.490000 0.000000
0.060962 0.490000 0.000000
0.124487 0.490000 0.000000
0.189015 0.490000 0.000000
0.254205 0.490000 0.000000
0.319891 0.490000 0.000000
0.385974 0.490000 0.000000
0.452390 0.490000 0.000000
0.519093 0.490000 0.000000
0.586046 0.490000 0.000000
0.653224 0.490000 0.000000
0.720604 0.490000 0.000000
0.788168 0.490000 0.000000
0.855902 0.490000 0.000000
0.923792 0.490000 0.000000
0.991828 0.490000 0.000000
1.060000 0.490000 0.000000
0.000000 0.551250 0.000000
0.060962 0.551250 0.000000
0.124487 0.551250 0.000000
0.189015 0.551250 0.000000
0.254205 0.551250 0.000000
0.319891 0.551250 0.000000
0.385974 0.551250 0.000000
0.452390 0.551250 0.000000
0.519093 0.551250 0.000000
0.586046 0.551250 0.000000
0.653224 0.551250 0.000000
0.720604 0.551250 0.000000
0.788168 0.551250 0.000000
0.855902 0.551250 0.000000
0.923792 0.551250 0.000000
0.991828 0.551250 0.000000
1.060000 0.551250 0.000000
0.000000 0.612500 0.000000
0.060962 0.612500 0.000000
0.124487 0.612500 0.000000
0.189015 0.612500 0.000000
0.254205 0.612500 0.000000
0.319891 0.612500 0.000000
0.385974 0.612500 0.000000
0.452390 0.612500 0.000000
0.519093 0.612500 0.000000
0.586046 0.612500 0.000000
0.653224 0.612500 0.000000
0.720604 0.612500 0.000000
0.788168 0.612500 0.000000
0.855902 0.612500 0.000000
0.923792 0.612500 0.000000
0.991828 0.612500 0.000000
1.060000 0.612500 0.000000
0.000000 0.673750 0.000000
0.060962 0.673750 0.000000
0.124487 0.673750 0.000000
0.189015 0.673750 0.000000
0.254205 0.673750 0.000000
0.319891 0.673750 0.000000
0.385974 0.673750 0.000000
0.452390 0.673750 0.000000
0.519093 0.673750 0.000000
0.586046 0.673750 0.000000
0.653224 0.673750 0.000000
0.720604 0.673750 0.000000
0.788168 0.673750 0.000000
0.855902 0.673750 0.000000
0.923792 0.673750 0.000000
0.991828 0.673750 0.000000
1.060000 0.673750 0.000000
0.000000 0.735000 0.000000
0.060962 0.735000 0.000000
0.124487 0.735000 0.000000
0.189015 0.735000 0.000000
0.254205 0.735000 0.000000
0.319891 0.735000 0.000000
0.385974 0.735000 0.000000
0.452390 0.735000 0.000000
0.519093 0.735000 0.000000
0.586046 0.735000 0.000000
0.653224 0.735000 0.000000
0.720604 0.735000 0.000000
0.788168 0.735000 0.000000
0.855902 0.735000 0.000000
0.923792 0.735000 0.000000
0.991828 0.735000 0.000000
1.060000 0.735000 0.000000
0.000000 0.796250 0.000000
0.060962 0.796250 0.000000
0.124487 0.796250 0.000000
0.189015 0.796250 0.000000
0.254205 0.796250 0.000000
0.319891 0.796250 0.000000
0.385974 0.796250 0.000000
0.452390 0.796250 0.000000
0.519093 0.796250 0.000000
0.586046 0.796250 0.000000
0.653224 0.796250 0.000000
0.720604 0.796250 0.000000
0.788168 0.796250 0.000000
0.855902 0.796250 0.000000
0.923792 0.796250 0.000000
0.991828 0.796250 0.000000
1.060000 0.796250 0.000000
0.000000 0.857500 0.000000
0.060962 0.857500 0.000000
0.124487 0.857500 0.000000
0.189015 0.857500 0.000000
0.254205 0.857500 0.000000
0.319891 0.857500 0.000000
0.385974 0.857500 0.000000
0.452390 0.857500 0.000000
0.519093 0.857500 0.000000
0.586046 0.857500 0.000000
0.653224 0.857500 0.000000
0.720604 0.857500 0.000000
0.788168 0.857500 0.000000
0.855902 0.857500 0.000000
0.923792 0.857500 0.000000
0.991828 0.857500 0.000000
1.060000 0.857500 0.000000
0.000000 0.918750 0.000000
0.060962 0.918750 0.000000
0.124487 0.918750 0.000000
0.189015 0.918750 0.000000
0.254205 0.918750 0.000000
0.319891 0.918750 0.000000
0.385974 0.918750 0.000000
0.452390 0.918750 0.000000
0.519093 0.918750 0.000000
0.586046 0.918750 0.000000
0.653224 0.918750 0.000000
0.720604 0.918750 0.000000
0.788168 0.918750 0.000000
0.855902 0.918750 0.000000
0.923792 0.918750 0.000000
0.991828 0.918750 0.000000
1.060000 0.918750 0.000000
0.000000 0.980000 0.000000
0.060962 0.980000 0.000000
0.124487 0.980000 0.000000
0.189015 0.980000 0.000000
0.254205 0.980000 0.000000
0.319891 0.980000 0.000000
0.385974 0.980000 0.000000
0.452390 0.980000 0.000000
0.519093 0.980000 0.000000
0.586046 0.980000 0.000000
0.653224 0.980000 0.000000
0.720604 0.980000 0.000000
0.788168 0.980000 0.000000
0.855902 0.980000 0.000000
0.923792 0.980000 0.000000
0.991828 0.980000 0.000000
1.060000 0.980000 0.000000
0.000000 0.000000 0.063166
0.060962 0.000000 0.063166
0.124487 0.000000 0.063166
0.189015 0.000000 0.063166
0.254205 0.000000 0.063166
0.319891 0.000000 0.063166
0.385974 0.000000 0.063166
0.452390 0.000000 0.063166
0.519093 0.000000 0.063166
0.586046 0.000000 0.063166
0.653224 0.000000 0.063166
0.720604 0.000000 0.063166
0.788168 0.000000 0.063166
0.855902 0.000000 0.063166
0.923792 0.000000 0.063166
0.991828 0.000000 0.063166
1.060000 0.000000 0.063166
0.000000 0.061250 0.063166
0.060962 0.061250 0.063166
0.124487 0.061250 0.063166
0.189015 0.061250 0.063166
0.254205 0.061250 0.063166
0.319891 0.061250 0.063166
0.385974 0.061250 0.063166
0.452390 0.061250 0.063166
0.519093 0.061250 0.063166
0.586046 0.061250 0.063166
0.653224 0.061250 0.063166
0.720604 0.061250 0.063166
0.788168 0.061250 0.063166
0.855902 0.061250 0.063166
0.923792 0.061250 0.063166
0.991828 0.061250 0.063166
1.060000 0.061250 0.063166
0.000000 0.122500 0.063166
0.060962 0.122500 0.063166
0.124487 0.122500 0.063166
0.189015 0.122500 0.063166
0.254205 0.122500 0.063166
0.319891 0.122500 0.063166
0.385974 0.122500 0.063166
0.452390 0.122500 0.063166
0.519093 0.122500 0.063166
0.586046 0.122500 0.063166
0.653224 0.122500 0.063166
0.720604 0.122500 0.063166
0.788168 0.122500 0.063166
0.855902 0.122500 0.063166
0.923792 0.122500 0.063166
0.991828 0.122500 0.063166
1.060000 0.122500 0.063166
0.000000 0.183750 0.063166
0.060962 0.183750 0.063166
0.124487 0.183750 0.063166
0.189015 0.183750 0.063166
0.254205 0.183750 0.063166
0.319891 0.183750 0.063166
0.385974 0.183750 0.063166
0.452390 0.183750 0.063166
0.519093 0.183750 0.063166
0.586046 0.183750 0.063166
0.653224 0.183750 0.063166
0.720604 0.183750 0.063166
0.788168 0.183750 0.063166
0.855902 0.183750 0.063166
0.923792 0.183750 0.063166
0.991828 0.183750 0.063166
1.060000 0.183750 0.063166
0.000000 0.245000 0.063166
0.060962 0.245000 0.063166
0.124487 0.245000 0.063166
0.189015 0.245000 0.063166
0.254205 0.245000 0.063166
0.319891 0.245000 0.063166
0.385974 0.245000 0.063166
0.452390 0.245000 0.063166
0.519093 0.245000 0.063166
0.586046 0.245000 0.063166
0.653224 0.245000 0.063166
0.720604 0.245000 0.063166
0.788168 0.245000 0.063166
0.855902 0.245000 0.063166
0.923792 0.245000 0.063166
0.991828 0.245000 0.063166
1.060000 0.245000 0.063166
0.000000 0.306250 0.063166
0.060962 0.306250 0.063166
0.124487 0.306250 0.063166
0.189015 0.306250 0.063166
0.254205 0.306250 0.063166
0.319891 0.306250 0.063166
0.385974 0.306250 0.063166
0.452390 0.306250 0.063166
0.519093 0.306250 0.063166
0.586046 0.306250 0.063166
0.653224 0.306250 0.063166
0.720604 0.306250 0.063166
0.788168 0.306250 0.063166
0.855902 0.306250 0.063166
0.923792 0.306250 0.063166
0.991828 0.306250 0.063166
1.060000 0.306250 0.063166
0.000000 0.367500 0.063166
0.060962 0.367500 0.063166
0.124487 0.367500 0.063166
0.189015 0.367500 0.063166
0.254205 0.367500 0.063166
0.319891 0.367500 0.063166
0.385974 0.367500 0.063166
0.452390 0.367500 0.063166
0.519093 0.367500 0.063166
0.586046 0.367500 0.063166
0.653224 0.367500 0.063166
0.720604 0.367500 0.063166
0.788168 0.367500 0.063166
0.855902 0.367500 0.063166
0.923792 0.367500 0.063166
0.991828 0.367500 0.063166
1.060000 0.367500 0.063166
0.000000 0.428750 0.063166
0.060962 0.428750 0.063166
0.124487 0.428750 0.063166
0.189015 0.428750 0.063166
0.254205 0.428750 0.063166
0.319891 0.428750 0.063166
0.385974 0.428750 0.063166
0.452390 0.428750 0.063166
0.519093 0.428750 0.063166
0.586046 0.428750 0.063166
0.653224 0.428750 0.063166
0.720604 0.428750 0.063166
0.788168 0.428750 0.063166
0.855902 0.428750 0.063166
0.923792 0.428750 0.063166
0.991828 0.428750 0.063166
1.060000 0.428750 0.063166
0.000000 0.490000 0.063166
0.060962 0.490000 0.063166
0.124487 0.490000 0.063166
0.189015 0.490000 0.063166
0.254205 0.490000 0.063166
0.319891 0.490000 0.063166
0.385974 0.490000 0.063166
0.452390 0.490000 0.063166
0.519093 0.490000 0.063166
0.586046 0.490000 0.063166
0.653224 0.490000 0.063166
0.720604 0.490000 0.063166
0.788168 0.490000 0.063166
0.855902 0.490000 0.063166
0.923792 0.490000 0.063166
0.991828 0.490000 0.063166
1.060000 0.490000 0.063166
0.000000 0.551250 0.063166
0.060962 0.551250 0.063166
0.124487 0.551250 0.063166
0.189015 0.551250 0.063166
0.254205 0.551250 0.063166
0.319891 0.551250 0.063166
0.385974 0.551250 0.063166
0.452390 0.551250 0.063166
0.519093 0.551250 0.063166
0.586046 0.551250 0.063166
0.653224 0.551250 0.063166
0.720604 0.551250 0.063166
0.788168 0.551250 0.063166
0.855902 0.551250 0.063166
0.923792 0.551250 0.063166
0.991828 0.551250 0.063166
1.060000 0.551250 0.063166
0.000000 0.612500 0.063166
0.060962 0.612500 0.063166
0.124487 0.612500 0.063166
0.189015 0.612500 0.063166
0.254205 0.612500 0.063166
0.319891 0.612500 0.063166
0.385974 0.612500 0.063166
0.452390 0.612500 0.063166
0.519093 0.612500 0.063166
0.586046 0.612500 0.063166
0.653224 0.612500 0.063166
0.720604 0.612500 0.063166
0.788168 0.612500 0.063166
0.855902 0.612500 0.063166
0.923792 0.612500 0.063166
0.991828 0.612500 0.063166
1.060000 0.612500 0.063166
0.000000 0.673750 0.063166
0.060962 0.673750 0.063166
0.124487 0.673750 0.063166
0.189015 0.673750 0.063166
0.254205 0.673750 0.063166
0.319891 0.673750 0.063166
0.385974 0.673750 0.063166
0.452390 0.673750 0.063166
0.519093 0.673750 0.063166
0.586046 0.673750 0.063166
0.653224 0.673750 0.063166
0.720604 0.673750 0.063166
0.788168 0.673750 0.063166
0.855902 0.673750 0.063166
0.923792 0.673750 0.063166
0.991828 0.673750 0.063166
1.060000 0.673750 0.063166
0.000000 0.735000 0.063166
0.060962 0.735000 0.063166
0.124487 0.735000 0.063166
0.189015 0.735000 0.063166
0.254205 0.735000 0.063166
0.319891 0.735000 0.063166
0.385974 0.735000 0.063166
0.452390 0.735000 0.063166
0.519093 0.735000 0.063166
0.586046 0.735000 0.063166
0.653224 0.735000 0.063166
0.720604 0.735000 0.063166
0.788168 0.735000 0.063166
0.855902 0.735000 0.063166
0.923792 0.735000 0.063166
0.991828 0.735000 0.063166
1.060000 0.735000 0.063166
0.000000 0.796250 0.063166
0.060962 0.796250 0.063166
0.124487 0.796250 0.063166
0.189015 0.796250 0.063166
0.254205 0.796250 0.063166
0.319891 0.796250 0.063166
0.385974 0.796250 0.063166
0.452390 0.796250 0.063166
0.519093 0.796250 0.063166
0.586046 0.796250 0.063166
0.653224 0.796250 0.063166
0.720604 0.796250 0.063166
0.788168 0.796250 0.063166
0.855902 0.796250 0.063166
0.923792 0.796250 0.063166
0.991828 0.796250 0.063166
1.060000 0.796250 0.063166
0.000000 0.857500 0.063166
0.060962 0.857500 0.063166
0.124487 0.857500 0.063166
0.189015 0.857500 0.063166
0.254205 0.857500 0.063166
0.319891 0.857500 0.063166
0.385974 0.857500 0.063166
0.452390 0.857500 0.063166
0.519093 0.857500 0.063166
0.586046 0.857500 0.063166
0.653224 0.857500 0.063166
0.720604 0.857500 0.063166
0.788168 0.857500 0.063166
0.855902 0.857500 0.063166
0.923792 0.857500 0.063166
0.991828 0.857500 0.063166
1.060000 0.857500 0.063166
0.000000 0.918750 0.063166
0.060962 0.918750 0.063166
0.124487 0.918750 0.063166
0.189015 0.918750 0.063166
0.254205 0.918750 0.063166
0.319891 0.918750 0.063166
0.385974 0.918750 0.063166
0.452390 0.918750 0.063166
0.519093 0.918750 0.063166
0.586046 0.918750 0.063166
0.653224 0.918750 0.063166
0.720604 0.918750 0.063166
0.788168 0.918750 0.063166
0.855902 0.918750 0.063166
0.923792 0.918750 0.063166
0.991828 0.918750 0.063166
1.060000 0.918750 0.063166
0.000000 0.980000 0.063166
0.060962 0.980000 0.063166
0.124487 0.980000 0.063166
0.189015 0.980000 0.063166
0.254205 0.980000 0.063166
0.319891 0.980000 0.063166
0.385974 0.980000 0.063166
0.452390 0.980000 0.063166
0.519093 0.980000 0.063166
0.586046 0.980000 0.063166
0.653224 0.980000 0.063166
0.720604 0.980000 0.063166
0.788168 0.980000 0.063166
0.855902 0.980000 0.063166
0.923792 0.980000 0.063166
0.991828 0.980000 0.063166
1.060000 0.980000 0.063166
0.000000 0.000000 0.123733
0.060962 0.000000 0.123733
0.124487 0.000000 0.123733
0.189015 0.000000 0.123733
0.254205 0.000000 0.123733
0.319891 0.000000 0.123733
0.385974 0.000000 0.123733
0.452390 0.000000 0.123733
0.519093 0.000000 0.123733
0.586046 0.000000 0.123733
0.653224 0.000000 0.123733
0.720604 0.000000 0.123733
0.788168 0.000000 0.123733
0.855902 0.000000 0.123733
0.923792 0.000000 0.123733
0.991828 0.000000 0.123733
1.060000 0.000000 0.123733
0.000000 0.061250 0.123733
0.060962 0.061250 0.123733
0.124487 0.061250 0.123733
0.189015 0.061250 0.123733
0.254205 0.061250 0.123733
0.319891 0.061250 0.123733
0.385974 0.061250 0.123733
0.452390 0.061250 0.123733
0.519093 0.061250 0.123733
0.586046 0.061250 0.123733
0.653224 0.061250 0.123733
0.720604 0.061250 0.123733
0.788168 0.061250 0.123733
0.855902 0.061250 0.123733
0.923792 0.061250 0.123733
0.991828 0.061250 0.123733
1.060000 0.061250 0.123733
0.000000 0.122500 0.123733
0.060962 0.122500 0.123733
0.124487 0.122500 0.123733
0.189015 0.122500 0.123733
0.254205 0.122500 0.123733
0.319891 0.122500 0.123733
0.385974 0.122500 0.123733
0.452390 0.122500 0.123733
0.519093 0.122500 0.123733
0.586046 0.122500 0.123733
0.653224 0.122500 0.123733
0.720604 0.122500 0.123733
0.788168 0.122500 0.123733
0.855902 0.122500 0.123733
0.923792 0.122500 0.123733
0.991828 0.122500 0.123733
1.060000 0.122500 0.123733
0.000000 0.183750 0.123733
0.060962 0.183750 0.123733
0.124487 0.183750 0.123733
0.189015 0.183750 0.123733
0.254205 0.183750 0.123733
0.319891 0.183750 0.123733
0.385974 0.183750 0.123733
0.452390 0.183750 0.123733
0.519093 0.183750 0.123733
0.586046 0.183750 0.123733
0.653224 0.183750 0.123733
0.720604 0.183750 0.123733
0.788168 0.183750 0.123733
0.855902 0.183750 0.123733
0.923792 0.183750 0.123733
0.991828 0.183750 0.123733
1.060000 0.183750 0.123733
0.000000 0.245000 0.123733
0.060962 0.245000 0.123733
0.124487 0.245000 0.123733
0.189015 0.245000 0.123733
0.254205 0.245000 0.123733
0.319891 0.245000 0.123733
0.385974 0.245000 0.123733
0.452390 0.245000 0.123733
0.519093 0.245000 0.123733
0.586046 0.245000 0.123733
0.653224 0.245000 0.123733
0.720604 0.245000 0.123733
0.788168 0.245000 0.123733
0.855902 0.245000 0.123733
0.923792 0.245000 0.123733
0.991828 0.245000 0.123733
1.060000 0.245000 0.123733
0.000000 0.306250 0.123733
0.060962 0.306250 0.123733
0.124487 0.306250 0.123733
0.189015 0.306250 0.123733
0.254205 0.306250 0.123733
0.319891 0.306250 0.123733
0.385974 0.306250 0.123733
0.452390 0.306250 0.123733
0.519093 0.306250 0.123733
0.586046 0.306250 0.123733
0.653224 0.306250 0.123733
0.720604 0.306250 0.123733
0.788168 0.306250 0.123733
0.855902 0.306250 0.123733
0.923792 0.306250 0.123733
0.991828 0.306250 0.123733
1.060000 0.306250 0.123733
0.000000 0.367500 0.123733
0.060962 0.367500 0.123733
0.124487 0.367500 0.123733
0.189015 0.367500 0.123733
0.254205 0.367500 0.123733
0.319891 0.367500 0.123733
0.385974 0.367500 0.123733
0.452390 0.367500 0.123733
0.519093 0.367500 0.123733
0.586046 0.367500 0.123733
0.653224 0.367500 0.123733
0.720604 0.367500 0.123733
0.788168 0.367500 0.123733
0.855902 0.367500 0.123733
0.923792 0.367500 0.123733
0.991828 0.367500 0.123733
1.060000 0.367500 0.123733
0.000000 0.428750 0.123733
0.060962 0.428750 0.123733
0.124487 0.428750 0.123733
0.189015 0.428750 0.123733
0.254205 0.428750 0.123733
0.319891 0.428750 0.123733
0.385974 0.428750 0.123733
0.452390 0.428750 0.123733
0.519093 0.428750 0.123733
0.586046 0.428750 0.123733
0.653224 0.428750 0.123733
0.720604 0.428750 0.123733
0.788168 0.428750 0.123733
0.855902 0.428750 0.123733
0.923792 0.428750 0.123733
0.991828 0.428750 0.123733
1.060000 0.428750 0.123733
0.000000 0.490000 0.123733
0.060962 0.490000 0.123733
0.124487 0.490000 0.123733
0.189015 0.490000 0.123733
0.254205 0.490000 0.123733
0.319891 0.490000 0.123733
0.385974 0.490000 0.123733
0.452390 0.490000 0.123733
0.519093 0.490000 0.123733
0.586046 0.490000 0.123733
0.653224 0.490000 0.123733
0.720604 0.490000 0.123733
0.788168 0.490000 0.123733
0.855902 0.490000 0.123733
0.923792 0.490000 0.123733
0.991828 0.490000 0.123733
1.060000 0.490000 0.123733
0.000000 0.551250 0.123733
0.060962 0.551250 0.123733
0.124487 0.551250 0.123733
0.189015 0.551250 0.123733
0.254205 0.551250 0.123733
0.319891 0.551250 0.123733
0.385974 0.551250 0.123733
0.452390 0.551250 0.123733
0.519093 0.551250 0.123733
0.586046 0.551250 0.123733
0.653224 0.551250 0.123733
0.720604 0.551250 0.123733
0.788168 0.551250 0.123733
0.855902 0.551250 0.123733
0.923792 0.551250 0.123733
0.991828 0.551250 0.123733
1.060000 0.551250 0.123733
0.000000 0.612500 0.123733
0.060962 0.612500 0.123733
0.124487 0.612500 0.123733
0.189015 0.612500 0.123733
0.254205 0.612500 0.123733
0.319891 0.612500 0.123733
0.385974 0.612500 0.123733
0.452390 0.612500 0.123733
0.519093 0.612500 0.123733
0.586046 0.612500 0.123733
0.653224 0.612500 0.123733
0.720604 0.612500 0.123733
0.788168 0.612500 0.123733
0.855902 0.612500 0.123733
0.923792 0.612500 0.123733
0.991828 0.612500 0.123733
1.060000 0.612500 0.123733
0.000000 0.673750 0.123733
0.060962 0.673750 0.123733
0.124487 0.673750 0.123733
0.189015 0.673750 0.123733
0.254205 0.673750 0.123733
0.319891 0.673750 0.123733
0.385974 0.673750 0.123733
0.452390 0.673750 0.123733
0.519093 0.673750 0.123733
0.586046 0.673750 0.123733
0.653224 0.673750 0.123733
0.720604 0.673750 0.123733
0.788168 0.673750 0.123733
0.855902 0.673750 0.123733
0.923792 0.673750 0.123733
0.991828 0.673750 0.123733
1.060000 0.673750 0.123733
0.000000 0.735000 0.123733
0.060962 0.735000 0.123733
0.124487 0.735000 0.123733
0.189015 0.735000 0.123733
0.254205 0.735000 0.123733
0.319891 0.735000 0.123733
0.385974 0.735000 0.123733
0.452390 0.735000 0.123733
0.519093 0.735000 0.123733
0.586046 0.735000 0.123733
0.653224 0.735000 0.123733
0.720604 0.735000 0.123733
0.788168 0.735000 0.123733
0.855902 0.735000 0.123733
0.923792 0.735000 0.123733
0.991828 0.735000 0.123733
1.060000 0.735000 0.123733
0.000000 0.796250 0.123733
0.060962 0.796250 0.123733
0.124487 0.796250 0.123733
0.189015 0.796250 0.123733
0.254205 0.796250 0.123733
0.319891 0.796250 0.123733
0.385974 0.796250 0.123733
0.452390 0.796250 0.123733
0.519093 0.796250 0.123733
0.586046 0.796250 0.123733
0.653224 0.796250 0.123733
0.720604 0.796250 0.123733
0.788168 0.796250 0.123733
0.855902 0.796250 0.123733
0.923792 0.796250 0.123733
0.991828 0.796250 0.123733
1.060000 0.796250 0.123733
0.000000 0.857500 0.123733
0.060962 0.857500 0.123733
0.124487 0.857500 0.123733
0.189015 0.857500 0.123733
0.254205 0.857500 0.123733
0.319891 0.857500 0.123733
0.385974 0.857500 0.123733
0.452390 0.857500 0.123733
0.519093 0.857500 0.123733
0.586046 0.857500 0.123733
0.653224 0.857500 0.123733
0.720604 0.857500 0.123733
0.788168 0.857500 0.123733
0.855902 0.857500 0.123733
0.923792 0.857500 0.123733
0.991828 0.857500 0.123733
1.060000 0.857500 0.123733
0.000000 0.918750 0.123733
0.060962 0.918750 0.123733
0.124487 0.918750 0.123733
0.189015 0.918750 0.123733
0.254205 0.918750 0.123733
0.319891 0.918750 0.123733
0.385974 0.918750 0.123733
0.452390 0.918750 0.123733
0.519093 0.918750 0.123733
0.586046 0.918750 0.123733
0.653224 0.918750 0.123733
0.720604 0.918750 0.123733
0.788168 0.918750 0.123733
0.855902 0.918750 0.123733
0.923792 0.918750 0.123733
0.991828 0.918750 0.123733
1.060000 0.918750 0.123733
0.000000 0.980000 0.123733
0.060962 0.980000 0.123733
0.124487 0.980000 0.123733
0.189015 0.980000 0.123733
0.254205 0.980000 0.123733
0.319891 0.980000 0.123733
0.385974 0.980000 0.123733
0.452390 0.980000 0.123733
0.519093 0.980000 0.123733
0.586046 0.980000 0.123733
0.653224 0.980000 0.123733
0.720604 0.980000 0.123733
0.788168 0.980000 0.123733
0.855902 0.980000 0.123733
0.923792 0.980000 0.123733
0.991828 0.980000 0.123733
1.060000 0.980000 0.123733
0.000000 0.000000 0.183356
0.060962 0.000000 0.183356
0.124487 0.000000 0.183356
0.189015 0.000000 0.183356
0.254205 0.000000 0.183356
0.319891 0.000000 0.183356
0.385974 0.000000 0.183356
0.452390 0.000000 0.183356
0.519093 0.000000 0.183356
0.586046 0.000000 0.183356
0.653224 0.000000 0.183356
0.720604 0.000000 0.183356
0.788168 0.000000 0.183356
0.855902 0.000000 0.183356
0.923792 0.000000 0.183356
0.991828 0.000000 0.183356
1.060000 0.000000 0.183356
0.000000 0.061250 0.183356
0.060962 0.061250 0.183356
