public/assets/luts/b10_cathedral.cube
TITLE "b10_cathedral"
LUT_3D_SIZE 5
DOMAIN_MIN 0 0 0
DOMAIN_MAX 1 1 1
0.000000 0.000000 0.000000
0.251807 0.000000 0.000000
0.514196 0.000000 0.000000
0.780733 0.000000 0.000000
1.050000 0.000000 0.000000
0.000000 0.242500 0.000000
0.251807 0.242500 0.000000
0.514196 0.242500 0.000000
0.780733 0.242500 0.000000
1.050000 0.242500 0.000000
0.000000 0.485000 0.000000
0.251807 0.485000 0.000000
0.514196 0.485000 0.000000
0.780733 0.485000 0.000000
1.050000 0.485000 0.000000
0.000000 0.727500 0.000000
0.251807 0.727500 0.000000
0.514196 0.727500 0.000000
0.780733 0.727500 0.000000
1.050000 0.727500 0.000000
0.000000 0.970000 0.000000
0.251807 0.970000 0.000000
0.514196 0.970000 0.000000
0.780733 0.970000 0.000000
1.050000 0.970000 0.000000
0.000000 0.000000 0.242373
0.251807 0.000000 0.242373
0.514196 0.000000 0.242373
0.780733 0.000000 0.242373
1.050000 0.000000 0.242373
0.000000 0.242500 0.242373
0.251807 0.242500 0.242373
0.514196 0.242500 0.242373
0.780733 0.242500 0.242373
1.050000 0.242500 0.242373
0.000000 0.485000 0.242373
0.251807 0.485000 0.242373
0.514196 0.485000 0.242373
0.780733 0.485000 0.242373
1.050000 0.485000 0.242373
0.000000 0.727500 0.242373
0.251807 0.727500 0.242373
0.514196 0.727500 0.242373
0.780733 0.727500 0.242373
1.050000 0.727500 0.242373
0.000000 0.970000 0.242373
0.251807 0.970000 0.242373
0.514196 0.970000 0.242373
0.780733 0.970000 0.242373
1.050000 0.970000 0.242373
0.000000 0.000000 0.474771
0.251807 0.000000 0.474771
0.514196 0.000000 0.474771
0.780733 0.000000 0.474771
1.050000 0.000000 0.474771
0.000000 0.242500 0.474771
0.251807 0.242500 0.474771
0.514196 0.242500 0.474771
0.780733 0.242500 0.474771
1.050000 0.242500 0.474771
0.000000 0.485000 0.474771
0.251807 0.485000 0.474771
0.514196 0.485000 0.474771
0.780733 0.485000 0.474771
1.050000 0.485000 0.474771
0.000000 0.727500 0.474771
0.251807 0.727500 0.474771
0.514196 0.727500 0.474771
0.780733 0.727500 0.474771
1.050000 0.727500 0.474771
0.000000 0.970000 0.474771
0.251807 0.970000 0.474771
0.514196 0.970000 0.474771
0.780733 0.970000 0.474771
1.050000 0.970000 0.474771
0.000000 0.000000 0.703546
0.251807 0.000000 0.703546
0.514196 0.000000 0.703546
0.780733 0.000000 0.703546
1.050000 0.000000 0.703546
0.000000 0.242500 0.703546
0.251807 0.242500 0.703546
0.514196 0.242500 0.703546
0.780733 0.242500 0.703546
1.050000 0.242500 0.703546
0.000000 0.485000 0.703546
0.251807 0.485000 0.703546
0.514196 0.485000 0.703546
0.780733 0.485000 0.703546
1.050000 0.485000 0.703546
0.000000 0.727500 0.703546
0.251807 0.727500 0.703546
0.514196 0.727500 0.703546
0.780733 0.727500 0.703546
1.050000 0.727500 0.703546
0.000000 0.970000 0.703546
0.251807 0.970000 0.703546
0.514196 0.970000 0.703546
0.780733 0.970000 0.703546
1.050000 0.970000 0.703546
0.000000 0.000000 0.930000
0.251807 0.000000 0.930000
0.514196 0.000000 0.930000
0.780733 0.000000 0.930000
1.050000 0.000000 0.930000
0.000000 0.242500 0.930000
0.251807 0.242500 0.930000
0.514196 0.242500 0.930000
0.780733 0.242500 0.930000
1.050000 0.242500 0.930000
0.000000 0.485000 0.930000
0.251807 0.485000 0.930000
0.514196 0.485000 0.930000
0.780733 0.485000 0.930000
1.050000 0.485000 0.930000
0.000000 0.727500 0.930000
0.251807 0.727500 0.930000
0.514196 0.727500 0.930000
0.780733 0.727500 0.930000
1.050000 0.727500 0.930000
0.000000 0.970000 0.930000
0.251807 0.970000 0.930000
0.514196 0.970000 0.930000
0.780733 0.970000 0.930000
1.050000 0.970000 0.930000
