public/assets/luts/b10_cathedral.cube
TITLE "b10_cathedral"
LUT_3D_SIZE 17
DOMAIN_MIN 0 0 0
DOMAIN_MAX 1 1 1
0.000000 0.000000 0.000000
0.060387 0.000000 0.000000
0.123312 0.000000 0.000000
0.187232 0.000000 0.000000
0.251807 0.000000 0.000000
0.316873 0.000000 0.000000
0.382333 0.000000 0.000000
0.448122 0.000000 0.000000
0.514196 0.000000 0.000000
0.580518 0.000000 0.000000
0.647062 0.000000 0.000000
0.713806 0.000000 0.000000
0.780733 0.000000 0.000000
0.847827 0.000000 0.000000
0.915077 0.000000 0.000000
0.982471 0.000000 0.000000
1.050000 0.000000 0.000000
0.000000 0.060625 0.000000
0.060387 0.060625 0.000000
0.123312 0.060625 0.000000
0.187232 0.060625 0.000000
0.251807 0.060625 0.000000
0.316873 0.060625 0.000000
0.382333 0.060625 0.000000
0.448122 0.060625 0.000000
0.514196 0.060625 0.000000
0.580518 0.060625 0.000000
0.647062 0.060625 0.000000
0.713806 0.060625 0.000000
0.780733 0.060625 0.000000
0.847827 0.060625 0.000000
0.915077 0.060625 0.000000
0.982471 0.060625 0.000000
1.050000 0.060625 0.000000
0.000000 0.121250 0.000000
0.060387 0.121250 0.000000
0.123312 0.121250 0.000000
0.187232 0.121250 0.000000
0.251807 0.121250 0.000000
0.316873 0.121250 0.000000
0.382333 0.121250 0.000000
0.448122 0.121250 0.000000
0.514196 0.121250 0.000000
0.580518 0.121250 0.000000
0.647062 0.121250 0.000000
0.713806 0.121250 0.000000
0.780733 0.121250 0.000000
0.847827 0.121250 0.000000
0.915077 0.121250 0.000000
0.982471 0.121250 0.000000
1.050000 0.121250 0.000000
0.000000 0.181875 0.000000
0.060387 0.181875 0.000000
0.123312 0.181875 0.000000
0.187232 0.181875 0.000000
0.251807 0.181875 0.000000
0.316873 0.181875 0.000000
0.382333 0.181875 0.000000
0.448122 0.181875 0.000000
0.514196 0.181875 0.000000
0.580518 0.181875 0.000000
0.647062 0.181875 0.000000
0.713806 0.181875 0.000000
0.780733 0.181875 0.000000
0.847827 0.181875 0.000000
0.915077 0.181875 0.000000
0.982471 0.181875 0.000000
1.050000 0.181875 0.000000
0.000000 0.242500 0.000000
0.060387 0.242500 0.000000
0.123312 0.242500 0.000000
0.187232 0.242500 0.000000
0.251807 0.242500 0.000000
0.316873 0.242500 0.000000
0.382333 0.242500 0.000000
0.448122 0.242500 0.000000
0.514196 0.242500 0.000000
0.580518 0.242500 0.000000
0.647062 0.242500 0.000000
0.713806 0.242500 0.000000
0.780733 0.242500 0.000000
0.847827 0.242500 0.000000
0.915077 0.242500 0.000000
0.982471 0.242500 0.000000
1.050000 0.242500 0.000000
0.000000 0.303125 0.000000
0.060387 0.303125 0.000000
0.123312 0.303125 0.000000
0.187232 0.303125 0.000000
0.251807 0.303125 0.000000
0.316873 0.303125 0.000000
0.382333 0.303125 0.000000
0.448122 0.303125 0.000000
0.514196 0.303125 0.000000
0.580518 0.303125 0.000000
0.647062 0.303125 0.000000
0.713806 0.303125 0.000000
0.780733 0.303125 0.000000
0.847827 0.303125 0.000000
0.915077 0.303125 0.000000
0.982471 0.303125 0.000000
1.050000 0.303125 0.000000
0.000000 0.363750 0.000000
0.060387 0.363750 0.000000
0.123312 0.363750 0.000000
0.187232 0.363750 0.000000
0.251807 0.363750 0.000000
0.316873 0.363750 0.000000
0.382333 0.363750 0.000000
0.448122 0.363750 0.000000
0.514196 0.363750 0.000000
0.580518 0.363750 0.000000
0.647062 0.363750 0.000000
0.713806 0.363750 0.000000
0.780733 0.363750 0.000000
0.847827 0.363750 0.000000
0.915077 0.363750 0.000000
0.982471 0.363750 0.000000
1.050000 0.363750 0.000000
0.000000 0.424375 0.000000
0.060387 0.424375 0.000000
0.123312 0.424375 0.000000
0.187232 0.424375 0.000000
0.251807 0.424375 0.000000
0.316873 0.424375 0.000000
0.382333 0.424375 0.000000
0.448122 0.424375 0.000000
0.514196 0.424375 0.000000
0.580518 0.424375 0.000000
0.647062 0.424375 0.000000
0.713806 0.424375 0.000000
0.780733 0.424375 0.000000
0.847827 0.424375 0.000000
0.915077 0.424375 0.000000
0.982471 0.424375 0.000000
1.050000 0.424375 0.000000
0.000000 0.485000 0.000000
0.060387 0.485000 0.000000
0.123312 0.485000 0.000000
0.187232 0.485000 0.000000
0.251807 0.485000 0.000000
0.316873 0.485000 0.000000
0.382333 0.485000 0.000000
0.448122 0.485000 0.000000
0.514196 0.485000 0.000000
0.580518 0.485000 0.000000
0.647062 0.485000 0.000000
0.713806 0.485000 0.000000
0.780733 0.485000 0.000000
0.847827 0.485000 0.000000
0.915077 0.485000 0.000000
0.982471 0.485000 0.000000
1.050000 0.485000 0.000000
0.000000 0.545625 0.000000
0.060387 0.545625 0.000000
0.123312 0.545625 0.000000
0.187232 0.545625 0.000000
0.251807 0.545625 0.000000
0.316873 0.545625 0.000000
0.382333 0.545625 0.000000
0.448122 0.545625 0.000000
0.514196 0.545625 0.000000
0.580518 0.545625 0.000000
0.647062 0.545625 0.000000
0.713806 0.545625 0.000000
0.780733 0.545625 0.000000
0.847827 0.545625 0.000000
0.915077 0.545625 0.000000
0.982471 0.545625 0.000000
1.050000 0.545625 0.000000
0.000000 0.606250 0.000000
0.060387 0.606250 0.000000
0.123312 0.606250 0.000000
0.187232 0.606250 0.000000
0.251807 0.606250 0.000000
0.316873 0.606250 0.000000
0.382333 0.606250 0.000000
0.448122 0.606250 0.000000
0.514196 0.606250 0.000000
0.580518 0.606250 0.000000
0.647062 0.606250 0.000000
0.713806 0.606250 0.000000
0.780733 0.606250 0.000000
0.847827 0.606250 0.000000
0.915077 0.606250 0.000000
0.982471 0.606250 0.000000
1.050000 0.606250 0.000000
0.000000 0.666875 0.000000
0.060387 0.666875 0.000000
0.123312 0.666875 0.000000
0.187232 0.666875 0.000000
0.251807 0.666875 0.000000
0.316873 0.666875 0.000000
0.382333 0.666875 0.000000
0.448122 0.666875 0.000000
0.514196 0.666875 0.000000
0.580518 0.666875 0.000000
0.647062 0.666875 0.000000
0.713806 0.666875 0.000000
0.780733 0.666875 0.000000
0.847827 0.666875 0.000000
0.915077 0.666875 0.000000
0.982471 0.666875 0.000000
1.050000 0.666875 0.000000
0.000000 0.727500 0.000000
0.060387 0.727500 0.000000
0.123312 0.727500 0.000000
0.187232 0.727500 0.000000
0.251807 0.727500 0.000000
0.316873 0.727500 0.000000
0.382333 0.727500 0.000000
0.448122 0.727500 0.000000
0.514196 0.727500 0.000000
0.580518 0.727500 0.000000
0.647062 0.727500 0.000000
0.713806 0.727500 0.000000
0.780733 0.727500 0.000000
0.847827 0.727500 0.000000
0.915077 0.727500 0.000000
0.982471 0.727500 0.000000
1.050000 0.727500 0.000000
0.000000 0.788125 0.000000
0.060387 0.788125 0.000000
0.123312 0.788125 0.000000
0.187232 0.788125 0.000000
0.251807 0.788125 0.000000
0.316873 0.788125 0.000000
0.382333 0.788125 0.000000
0.448122 0.788125 0.000000
0.514196 0.788125 0.000000
0.580518 0.788125 0.000000
0.647062 0.788125 0.000000
0.713806 0.788125 0.000000
0.780733 0.788125 0.000000
0.847827 0.788125 0.000000
0.915077 0.788125 0.000000
0.982471 0.788125 0.000000
1.050000 0.788125 0.000000
0.000000 0.848750 0.000000
0.060387 0.848750 0.000000
0.123312 0.848750 0.000000
0.187232 0.848750 0.000000
0.251807 0.848750 0.000000
0.316873 0.848750 0.000000
0.382333 0.848750 0.000000
0.448122 0.848750 0.000000
0.514196 0.848750 0.000000
0.580518 0.848750 0.000000
0.647062 0.848750 0.000000
0.713806 0.848750 0.000000
0.780733 0.848750 0.000000
0.847827 0.848750 0.000000
0.915077 0.848750 0.000000
0.982471 0.848750 0.000000
1.050000 0.848750 0.000000
0.000000 0.909375 0.000000
0.060387 0.909375 0.000000
0.123312 0.909375 0.000000
0.187232 0.909375 0.000000
0.251807 0.909375 0.000000
0.316873 0.909375 0.000000
0.382333 0.909375 0.000000
0.448122 0.909375 0.000000
0.514196 0.909375 0.000000
0.580518 0.909375 0.000000
0.647062 0.909375 0.000000
0.713806 0.909375 0.000000
0.780733 0.909375 0.000000
0.847827 0.909375 0.000000
0.915077 0.909375 0.000000
0.982471 0.909375 0.000000
1.050000 0.909375 0.000000
0.000000 0.970000 0.000000
0.060387 0.970000 0.000000
0.123312 0.970000 0.000000
0.187232 0.970000 0.000000
0.251807 0.970000 0.000000
0.316873 0.970000 0.000000
0.382333 0.970000 0.000000
0.448122 0.970000 0.000000
0.514196 0.970000 0.000000
0.580518 0.970000 0.000000
0.647062 0.970000 0.000000
0.713806 0.970000 0.000000
0.780733 0.970000 0.000000
0.847827 0.970000 0.000000
0.915077 0.970000 0.000000
0.982471 0.970000 0.000000
1.050000 0.970000 0.000000
0.000000 0.000000 0.063166
0.060387 0.000000 0.063166
0.123312 0.000000 0.063166
0.187232 0.000000 0.063166
0.251807 0.000000 0.063166
0.316873 0.000000 0.063166
0.382333 0.000000 0.063166
0.448122 0.000000 0.063166
0.514196 0.000000 0.063166
0.580518 0.000000 0.063166
0.647062 0.000000 0.063166
0.713806 0.000000 0.063166
0.780733 0.000000 0.063166
0.847827 0.000000 0.063166
0.915077 0.000000 0.063166
0.982471 0.000000 0.063166
1.050000 0.000000 0.063166
0.000000 0.060625 0.063166
0.060387 0.060625 0.063166
0.123312 0.060625 0.063166
0.187232 0.060625 0.063166
0.251807 0.060625 0.063166
0.316873 0.060625 0.063166
0.382333 0.060625 0.063166
0.448122 0.060625 0.063166
0.514196 0.060625 0.063166
0.580518 0.060625 0.063166
0.647062 0.060625 0.063166
0.713806 0.060625 0.063166
0.780733 0.060625 0.063166
0.847827 0.060625 0.063166
0.915077 0.060625 0.063166
0.982471 0.060625 0.063166
1.050000 0.060625 0.063166
0.000000 0.121250 0.063166
0.060387 0.121250 0.063166
0.123312 0.121250 0.063166
0.187232 0.121250 0.063166
0.251807 0.121250 0.063166
0.316873 0.121250 0.063166
0.382333 0.121250 0.063166
0.448122 0.121250 0.063166
0.514196 0.121250 0.063166
0.580518 0.121250 0.063166
0.647062 0.121250 0.063166
0.713806 0.121250 0.063166
0.780733 0.121250 0.063166
0.847827 0.121250 0.063166
0.915077 0.121250 0.063166
0.982471 0.121250 0.063166
1.050000 0.121250 0.063166
0.000000 0.181875 0.063166
0.060387 0.181875 0.063166
0.123312 0.181875 0.063166
0.187232 0.181875 0.063166
0.251807 0.181875 0.063166
0.316873 0.181875 0.063166
0.382333 0.181875 0.063166
0.448122 0.181875 0.063166
0.514196 0.181875 0.063166
0.580518 0.181875 0.063166
0.647062 0.181875 0.063166
0.713806 0.181875 0.063166
0.780733 0.181875 0.063166
0.847827 0.181875 0.063166
0.915077 0.181875 0.063166
0.982471 0.181875 0.063166
1.050000 0.181875 0.063166
0.000000 0.242500 0.063166
0.060387 0.242500 0.063166
0.123312 0.242500 0.063166
0.187232 0.242500 0.063166
0.251807 0.242500 0.063166
0.316873 0.242500 0.063166
0.382333 0.242500 0.063166
0.448122 0.242500 0.063166
0.514196 0.242500 0.063166
0.580518 0.242500 0.063166
0.647062 0.242500 0.063166
0.713806 0.242500 0.063166
0.780733 0.242500 0.063166
0.847827 0.242500 0.063166
0.915077 0.242500 0.063166
0.982471 0.242500 0.063166
1.050000 0.242500 0.063166
0.000000 0.303125 0.063166
0.060387 0.303125 0.063166
0.123312 0.303125 0.063166
0.187232 0.303125 0.063166
0.251807 0.303125 0.063166
0.316873 0.303125 0.063166
0.382333 0.303125 0.063166
0.448122 0.303125 0.063166
0.514196 0.303125 0.063166
0.580518 0.303125 0.063166
0.647062 0.303125 0.063166
0.713806 0.303125 0.063166
0.780733 0.303125 0.063166
0.847827 0.303125 0.063166
0.915077 0.303125 0.063166
0.982471 0.303125 0.063166
1.050000 0.303125 0.063166
0.000000 0.363750 0.063166
0.060387 0.363750 0.063166
0.123312 0.363750 0.063166
0.187232 0.363750 0.063166
0.251807 0.363750 0.063166
0.316873 0.363750 0.063166
0.382333 0.363750 0.063166
0.448122 0.363750 0.063166
0.514196 0.363750 0.063166
0.580518 0.363750 0.063166
0.647062 0.363750 0.063166
0.713806 0.363750 0.063166
0.780733 0.363750 0.063166
0.847827 0.363750 0.063166
0.915077 0.363750 0.063166
0.982471 0.363750 0.063166
1.050000 0.363750 0.063166
0.000000 0.424375 0.063166
0.060387 0.424375 0.063166
0.123312 0.424375 0.063166
0.187232 0.424375 0.063166
0.251807 0.424375 0.063166
0.316873 0.424375 0.063166
0.382333 0.424375 0.063166
0.448122 0.424375 0.063166
0.514196 0.424375 0.063166
0.580518 0.424375 0.063166
0.647062 0.424375 0.063166
0.713806 0.424375 0.063166
0.780733 0.424375 0.063166
0.847827 0.424375 0.063166
0.915077 0.424375 0.063166
0.982471 0.424375 0.063166
1.050000 0.424375 0.063166
0.000000 0.485000 0.063166
0.060387 0.485000 0.063166
0.123312 0.485000 0.063166
0.187232 0.485000 0.063166
0.251807 0.485000 0.063166
0.316873 0.485000 0.063166
0.382333 0.485000 0.063166
0.448122 0.485000 0.063166
0.514196 0.485000 0.063166
0.580518 0.485000 0.063166
0.647062 0.485000 0.063166
0.713806 0.485000 0.063166
0.780733 0.485000 0.063166
0.847827 0.485000 0.063166
0.915077 0.485000 0.063166
0.982471 0.485000 0.063166
1.050000 0.485000 0.063166
0.000000 0.545625 0.063166
0.060387 0.545625 0.063166
0.123312 0.545625 0.063166
0.187232 0.545625 0.063166
0.251807 0.545625 0.063166
0.316873 0.545625 0.063166
0.382333 0.545625 0.063166
0.448122 0.545625 0.063166
0.514196 0.545625 0.063166
0.580518 0.545625 0.063166
0.647062 0.545625 0.063166
0.713806 0.545625 0.063166
0.780733 0.545625 0.063166
0.847827 0.545625 0.063166
0.915077 0.545625 0.063166
0.982471 0.545625 0.063166
1.050000 0.545625 0.063166
0.000000 0.606250 0.063166
0.060387 0.606250 0.063166
0.123312 0.606250 0.063166
0.187232 0.606250 0.063166
0.251807 0.606250 0.063166
0.316873 0.606250 0.063166
0.382333 0.606250 0.063166
0.448122 0.606250 0.063166
0.514196 0.606250 0.063166
0.580518 0.606250 0.063166
0.647062 0.606250 0.063166
0.713806 0.606250 0.063166
0.780733 0.606250 0.063166
0.847827 0.606250 0.063166
0.915077 0.606250 0.063166
0.982471 0.606250 0.063166
1.050000 0.606250 0.063166
0.000000 0.666875 0.063166
0.060387 0.666875 0.063166
0.123312 0.666875 0.063166
0.187232 0.666875 0.063166
0.251807 0.666875 0.063166
0.316873 0.666875 0.063166
0.382333 0.666875 0.063166
0.448122 0.666875 0.063166
0.514196 0.666875 0.063166
0.580518 0.666875 0.063166
0.647062 0.666875 0.063166
0.713806 0.666875 0.063166
0.780733 0.666875 0.063166
0.847827 0.666875 0.063166
0.915077 0.666875 0.063166
0.982471 0.666875 0.063166
1.050000 0.666875 0.063166
0.000000 0.727500 0.063166
0.060387 0.727500 0.063166
0.123312 0.727500 0.063166
0.187232 0.727500 0.063166
0.251807 0.727500 0.063166
0.316873 0.727500 0.063166
0.382333 0.727500 0.063166
0.448122 0.727500 0.063166
0.514196 0.727500 0.063166
0.580518 0.727500 0.063166
0.647062 0.727500 0.063166
0.713806 0.727500 0.063166
0.780733 0.727500 0.063166
0.847827 0.727500 0.063166
0.915077 0.727500 0.063166
0.982471 0.727500 0.063166
1.050000 0.727500 0.063166
0.000000 0.788125 0.063166
0.060387 0.788125 0.063166
0.123312 0.788125 0.063166
0.187232 0.788125 0.063166
0.251807 0.788125 0.063166
0.316873 0.788125 0.063166
0.382333 0.788125 0.063166
0.448122 0.788125 0.063166
0.514196 0.788125 0.063166
0.580518 0.788125 0.063166
0.647062 0.788125 0.063166
0.713806 0.788125 0.063166
0.780733 0.788125 0.063166
0.847827 0.788125 0.063166
0.915077 0.788125 0.063166
0.982471 0.788125 0.063166
1.050000 0.788125 0.063166
0.000000 0.848750 0.063166
0.060387 0.848750 0.063166
0.123312 0.848750 0.063166
0.187232 0.848750 0.063166
0.251807 0.848750 0.063166
0.316873 0.848750 0.063166
0.382333 0.848750 0.063166
0.448122 0.848750 0.063166
0.514196 0.848750 0.063166
0.580518 0.848750 0.063166
0.647062 0.848750 0.063166
0.713806 0.848750 0.063166
0.780733 0.848750 0.063166
0.847827 0.848750 0.063166
0.915077 0.848750 0.063166
0.982471 0.848750 0.063166
1.050000 0.848750 0.063166
0.000000 0.909375 0.063166
0.060387 0.909375 0.063166
0.123312 0.909375 0.063166
0.187232 0.909375 0.063166
0.251807 0.909375 0.063166
0.316873 0.909375 0.063166
0.382333 0.909375 0.063166
0.448122 0.909375 0.063166
0.514196 0.909375 0.063166
0.580518 0.909375 0.063166
0.647062 0.909375 0.063166
0.713806 0.909375 0.063166
0.780733 0.909375 0.063166
0.847827 0.909375 0.063166
0.915077 0.909375 0.063166
0.982471 0.909375 0.063166
1.050000 0.909375 0.063166
0.000000 0.970000 0.063166
0.060387 0.970000 0.063166
0.123312 0.970000 0.063166
0.187232 0.970000 0.063166
0.251807 0.970000 0.063166
0.316873 0.970000 0.063166
0.382333 0.970000 0.063166
0.448122 0.970000 0.063166
0.514196 0.970000 0.063166
0.580518 0.970000 0.063166
0.647062 0.970000 0.063166
0.713806 0.970000 0.063166
0.780733 0.970000 0.063166
0.847827 0.970000 0.063166
0.915077 0.970000 0.063166
0.982471 0.970000 0.063166
1.050000 0.970000 0.063166
0.000000 0.000000 0.123733
0.060387 0.000000 0.123733
0.123312 0.000000 0.123733
0.187232 0.000000 0.123733
0.251807 0.000000 0.123733
0.316873 0.000000 0.123733
0.382333 0.000000 0.123733
0.448122 0.000000 0.123733
0.514196 0.000000 0.123733
0.580518 0.000000 0.123733
0.647062 0.000000 0.123733
0.713806 0.000000 0.123733
0.780733 0.000000 0.123733
0.847827 0.000000 0.123733
0.915077 0.000000 0.123733
0.982471 0.000000 0.123733
1.050000 0.000000 0.123733
0.000000 0.060625 0.123733
0.060387 0.060625 0.123733
0.123312 0.060625 0.123733
0.187232 0.060625 0.123733
0.251807 0.060625 0.123733
0.316873 0.060625 0.123733
0.382333 0.060625 0.123733
0.448122 0.060625 0.123733
0.514196 0.060625 0.123733
0.580518 0.060625 0.123733
0.647062 0.060625 0.123733
0.713806 0.060625 0.123733
0.780733 0.060625 0.123733
0.847827 0.060625 0.123733
0.915077 0.060625 0.123733
0.982471 0.060625 0.123733
1.050000 0.060625 0.123733
0.000000 0.121250 0.123733
0.060387 0.121250 0.123733
0.123312 0.121250 0.123733
0.187232 0.121250 0.123733
0.251807 0.121250 0.123733
0.316873 0.121250 0.123733
0.382333 0.121250 0.123733
0.448122 0.121250 0.123733
0.514196 0.121250 0.123733
0.580518 0.121250 0.123733
0.647062 0.121250 0.123733
0.713806 0.121250 0.123733
0.780733 0.121250 0.123733
0.847827 0.121250 0.123733
0.915077 0.121250 0.123733
0.982471 0.121250 0.123733
1.050000 0.121250 0.123733
0.000000 0.181875 0.123733
0.060387 0.181875 0.123733
0.123312 0.181875 0.123733
0.187232 0.181875 0.123733
0.251807 0.181875 0.123733
0.316873 0.181875 0.123733
0.382333 0.181875 0.123733
0.448122 0.181875 0.123733
0.514196 0.181875 0.123733
0.580518 0.181875 0.123733
0.647062 0.181875 0.123733
0.713806 0.181875 0.123733
0.780733 0.181875 0.123733
0.847827 0.181875 0.123733
0.915077 0.181875 0.123733
0.982471 0.181875 0.123733
1.050000 0.181875 0.123733
0.000000 0.242500 0.123733
0.060387 0.242500 0.123733
0.123312 0.242500 0.123733
0.187232 0.242500 0.123733
0.251807 0.242500 0.123733
0.316873 0.242500 0.123733
0.382333 0.242500 0.123733
0.448122 0.242500 0.123733
0.514196 0.242500 0.123733
0.580518 0.242500 0.123733
0.647062 0.242500 0.123733
0.713806 0.242500 0.123733
0.780733 0.242500 0.123733
0.847827 0.242500 0.123733
0.915077 0.242500 0.123733
0.982471 0.242500 0.123733
1.050000 0.242500 0.123733
0.000000 0.303125 0.123733
0.060387 0.303125 0.123733
0.123312 0.303125 0.123733
0.187232 0.303125 0.123733
0.251807 0.303125 0.123733
0.316873 0.303125 0.123733
0.382333 0.303125 0.123733
0.448122 0.303125 0.123733
0.514196 0.303125 0.123733
0.580518 0.303125 0.123733
0.647062 0.303125 0.123733
0.713806 0.303125 0.123733
0.780733 0.303125 0.123733
0.847827 0.303125 0.123733
0.915077 0.303125 0.123733
0.982471 0.303125 0.123733
1.050000 0.303125 0.123733
0.000000 0.363750 0.123733
0.060387 0.363750 0.123733
0.123312 0.363750 0.123733
0.187232 0.363750 0.123733
0.251807 0.363750 0.123733
0.316873 0.363750 0.123733
0.382333 0.363750 0.123733
0.448122 0.363750 0.123733
0.514196 0.363750 0.123733
0.580518 0.363750 0.123733
0.647062 0.363750 0.123733
0.713806 0.363750 0.123733
0.780733 0.363750 0.123733
0.847827 0.363750 0.123733
0.915077 0.363750 0.123733
0.982471 0.363750 0.123733
1.050000 0.363750 0.123733
0.000000 0.424375 0.123733
0.060387 0.424375 0.123733
0.123312 0.424375 0.123733
0.187232 0.424375 0.123733
0.251807 0.424375 0.123733
0.316873 0.424375 0.123733
0.382333 0.424375 0.123733
0.448122 0.424375 0.123733
0.514196 0.424375 0.123733
0.580518 0.424375 0.123733
0.647062 0.424375 0.123733
0.713806 0.424375 0.123733
0.780733 0.424375 0.123733
0.847827 0.424375 0.123733
0.915077 0.424375 0.123733
0.982471 0.424375 0.123733
1.050000 0.424375 0.123733
0.000000 0.485000 0.123733
0.060387 0.485000 0.123733
0.123312 0.485000 0.123733
0.187232 0.485000 0.123733
0.251807 0.485000 0.123733
0.316873 0.485000 0.123733
0.382333 0.485000 0.123733
0.448122 0.485000 0.123733
0.514196 0.485000 0.123733
0.580518 0.485000 0.123733
0.647062 0.485000 0.123733
0.713806 0.485000 0.123733
0.780733 0.485000 0.123733
0.847827 0.485000 0.123733
0.915077 0.485000 0.123733
0.982471 0.485000 0.123733
1.050000 0.485000 0.123733
0.000000 0.545625 0.123733
0.060387 0.545625 0.123733
0.123312 0.545625 0.123733
0.187232 0.545625 0.123733
0.251807 0.545625 0.123733
0.316873 0.545625 0.123733
0.382333 0.545625 0.123733
0.448122 0.545625 0.123733
0.514196 0.545625 0.123733
0.580518 0.545625 0.123733
0.647062 0.545625 0.123733
0.713806 0.545625 0.123733
0.780733 0.545625 0.123733
0.847827 0.545625 0.123733
0.915077 0.545625 0.123733
0.982471 0.545625 0.123733
1.050000 0.545625 0.123733
0.000000 0.606250 0.123733
0.060387 0.606250 0.123733
0.123312 0.606250 0.123733
0.187232 0.606250 0.123733
0.251807 0.606250 0.123733
0.316873 0.606250 0.123733
0.382333 0.606250 0.123733
0.448122 0.606250 0.123733
0.514196 0.606250 0.123733
0.580518 0.606250 0.123733
0.647062 0.606250 0.123733
0.713806 0.606250 0.123733
0.780733 0.606250 0.123733
0.847827 0.606250 0.123733
0.915077 0.606250 0.123733
0.982471 0.606250 0.123733
1.050000 0.606250 0.123733
0.000000 0.666875 0.123733
0.060387 0.666875 0.123733
0.123312 0.666875 0.123733
0.187232 0.666875 0.123733
0.251807 0.666875 0.123733
0.316873 0.666875 0.123733
0.382333 0.666875 0.123733
0.448122 0.666875 0.123733
0.514196 0.666875 0.123733
0.580518 0.666875 0.123733
0.647062 0.666875 0.123733
0.713806 0.666875 0.123733
0.780733 0.666875 0.123733
0.847827 0.666875 0.123733
0.915077 0.666875 0.123733
0.982471 0.666875 0.123733
1.050000 0.666875 0.123733
0.000000 0.727500 0.123733
0.060387 0.727500 0.123733
0.123312 0.727500 0.123733
0.187232 0.727500 0.123733
0.251807 0.727500 0.123733
0.316873 0.727500 0.123733
0.382333 0.727500 0.123733
0.448122 0.727500 0.123733
0.514196 0.727500 0.123733
0.580518 0.727500 0.123733
0.647062 0.727500 0.123733
0.713806 0.727500 0.123733
0.780733 0.727500 0.123733
0.847827 0.727500 0.123733
0.915077 0.727500 0.123733
0.982471 0.727500 0.123733
1.050000 0.727500 0.123733
0.000000 0.788125 0.123733
0.060387 0.788125 0.123733
0.123312 0.788125 0.123733
0.187232 0.788125 0.123733
0.251807 0.788125 0.123733
0.316873 0.788125 0.123733
0.382333 0.788125 0.123733
0.448122 0.788125 0.123733
0.514196 0.788125 0.123733
0.580518 0.788125 0.123733
0.647062 0.788125 0.123733
0.713806 0.788125 0.123733
0.780733 0.788125 0.123733
0.847827 0.788125 0.123733
0.915077 0.788125 0.123733
0.982471 0.788125 0.123733
1.050000 0.788125 0.123733
0.000000 0.848750 0.123733
0.060387 0.848750 0.123733
0.123312 0.848750 0.123733
0.187232 0.848750 0.123733
0.251807 0.848750 0.123733
0.316873 0.848750 0.123733
0.382333 0.848750 0.123733
0.448122 0.848750 0.123733
0.514196 0.848750 0.123733
0.580518 0.848750 0.123733
0.647062 0.848750 0.123733
0.713806 0.848750 0.123733
0.780733 0.848750 0.123733
0.847827 0.848750 0.123733
0.915077 0.848750 0.123733
0.982471 0.848750 0.123733
1.050000 0.848750 0.123733
0.000000 0.909375 0.123733
0.060387 0.909375 0.123733
0.123312 0.909375 0.123733
0.187232 0.909375 0.123733
0.251807 0.909375 0.123733
0.316873 0.909375 0.123733
0.382333 0.909375 0.123733
0.448122 0.909375 0.123733
0.514196 0.909375 0.123733
0.580518 0.909375 0.123733
0.647062 0.909375 0.123733
0.713806 0.909375 0.123733
0.780733 0.909375 0.123733
0.847827 0.909375 0.123733
0.915077 0.909375 0.123733
0.982471 0.909375 0.123733
1.050000 0.909375 0.123733
0.000000 0.970000 0.123733
0.060387 0.970000 0.123733
0.123312 0.970000 0.123733
0.187232 0.970000 0.123733
0.251807 0.970000 0.123733
0.316873 0.970000 0.123733
0.382333 0.970000 0.123733
0.448122 0.970000 0.123733
0.514196 0.970000 0.123733
0.580518 0.970000 0.123733
0.647062 0.970000 0.123733
0.713806 0.970000 0.123733
0.780733 0.970000 0.123733
0.847827 0.970000 0.123733
0.915077 0.970000 0.123733
0.982471 0.970000 0.123733
1.050000 0.970000 0.123733
0.000000 0.000000 0.183356
0.060387 0.000000 0.183356
0.123312 0.000000 0.183356
0.187232 0.000000 0.183356
0.251807 0.000000 0.183356
0.316873 0.000000 0.183356
0.382333 0.000000 0.183356
0.448122 0.000000 0.183356
0.514196 0.000000 0.183356
0.580518 0.000000 0.183356
0.647062 0.000000 0.183356
0.713806 0.000000 0.183356
0.780733 0.000000 0.183356
0.847827 0.000000 0.183356
0.915077 0.000000 0.183356
0.982471 0.000000 0.183356
1.050000 0.000000 0.183356
0.000000 0.060625 0.183356
0.060387 0.060625 0.183356
