public/assets/luts/b10_cathedral.cube
TITLE "b10_cathedral"
LUT_3D_SIZE 9
DOMAIN_MIN 0 0 0
DOMAIN_MAX 1 1 1
0.000000 0.000000 0.000000
0.123312 0.000000 0.000000
0.251807 0.000000 0.000000
0.382333 0.000000 0.000000
0.514196 0.000000 0.000000
0.647062 0.000000 0.000000
0.780733 0.000000 0.000000
0.915077 0.000000 0.000000
1.050000 0.000000 0.000000
0.000000 0.121250 0.000000
0.123312 0.121250 0.000000
0.251807 0.121250 0.000000
0.382333 0.121250 0.000000
0.514196 0.121250 0.000000
0.647062 0.121250 0.000000
0.780733 0.121250 0.000000
0.915077 0.121250 0.000000
1.050000 0.121250 0.000000
0.000000 0.242500 0.000000
0.123312 0.242500 0.000000
0.251807 0.242500 0.000000
0.382333 0.242500 0.000000
0.514196 0.242500 0.000000
0.647062 0.242500 0.000000
0.780733 0.242500 0.000000
0.915077 0.242500 0.000000
1.050000 0.242500 0.000000
0.000000 0.363750 0.000000
0.123312 0.363750 0.000000
0.251807 0.363750 0.000000
0.382333 0.363750 0.000000
0.514196 0.363750 0.000000
0.647062 0.363750 0.000000
0.780733 0.363750 0.000000
0.915077 0.363750 0.000000
1.050000 0.363750 0.000000
0.000000 0.485000 0.000000
0.123312 0.485000 0.000000
0.251807 0.485000 0.000000
0.382333 0.485000 0.000000
0.514196 0.485000 0.000000
0.647062 0.485000 0.000000
0.780733 0.485000 0.000000
0.915077 0.485000 0.000000
1.050000 0.485000 0.000000
0.000000 0.606250 0.000000
0.123312 0.606250 0.000000
0.251807 0.606250 0.000000
0.382333 0.606250 0.000000
0.514196 0.606250 0.000000
0.647062 0.606250 0.000000
0.780733 0.606250 0.000000
0.915077 0.606250 0.000000
1.050000 0.606250 0.000000
0.000000 0.727500 0.000000
0.123312 0.727500 0.000000
0.251807 0.727500 0.000000
0.382333 0.727500 0.000000
0.514196 0.727500 0.000000
0.647062 0.727500 0.000000
0.780733 0.727500 0.000000
0.915077 0.727500 0.000000
1.050000 0.727500 0.000000
0.000000 0.848750 0.000000
0.123312 0.848750 0.000000
0.251807 0.848750 0.000000
0.382333 0.848750 0.000000
0.514196 0.848750 0.000000
0.647062 0.848750 0.000000
0.780733 0.848750 0.000000
0.915077 0.848750 0.000000
1.050000 0.848750 0.000000
0.000000 0.970000 0.000000
0.123312 0.970000 0.000000
0.251807 0.970000 0.000000
0.382333 0.970000 0.000000
0.514196 0.970000 0.000000
0.647062 0.970000 0.000000
0.780733 0.970000 0.000000
0.915077 0.970000 0.000000
1.050000 0.970000 0.000000
0.000000 0.000000 0.123733
0.123312 0.000000 0.123733
0.251807 0.000000 0.123733
0.382333 0.000000 0.123733
0.514196 0.000000 0.123733
0.647062 0.000000 0.123733
0.780733 0.000000 0.123733
0.915077 0.000000 0.123733
1.050000 0.000000 0.123733
0.000000 0.121250 0.123733
0.123312 0.121250 0.123733
0.251807 0.121250 0.123733
0.382333 0.121250 0.123733
0.514196 0.121250 0.123733
0.647062 0.121250 0.123733
0.780733 0.121250 0.123733
0.915077 0.121250 0.123733
1.050000 0.121250 0.123733
0.000000 0.242500 0.123733
0.123312 0.242500 0.123733
0.251807 0.242500 0.123733
0.382333 0.242500 0.123733
0.514196 0.242500 0.123733
0.647062 0.242500 0.123733
0.780733 0.242500 0.123733
0.915077 0.242500 0.123733
1.050000 0.242500 0.123733
0.000000 0.363750 0.123733
0.123312 0.363750 0.123733
0.251807 0.363750 0.123733
0.382333 0.363750 0.123733
0.514196 0.363750 0.123733
0.647062 0.363750 0.123733
0.780733 0.363750 0.123733
0.915077 0.363750 0.123733
1.050000 0.363750 0.123733
0.000000 0.485000 0.123733
0.123312 0.485000 0.123733
0.251807 0.485000 0.123733
0.382333 0.485000 0.123733
0.514196 0.485000 0.123733
0.647062 0.485000 0.123733
0.780733 0.485000 0.123733
0.915077 0.485000 0.123733
1.050000 0.485000 0.123733
0.000000 0.606250 0.123733
0.123312 0.606250 0.123733
0.251807 0.606250 0.123733
0.382333 0.606250 0.123733
0.514196 0.606250 0.123733
0.647062 0.606250 0.123733
0.780733 0.606250 0.123733
0.915077 0.606250 0.123733
1.050000 0.606250 0.123733
0.000000 0.727500 0.123733
0.123312 0.727500 0.123733
0.251807 0.727500 0.123733
0.382333 0.727500 0.123733
0.514196 0.727500 0.123733
0.647062 0.727500 0.123733
0.780733 0.727500 0.123733
0.915077 0.727500 0.123733
1.050000 0.727500 0.123733
0.000000 0.848750 0.123733
0.123312 0.848750 0.123733
0.251807 0.848750 0.123733
0.382333 0.848750 0.123733
0.514196 0.848750 0.123733
0.647062 0.848750 0.123733
0.780733 0.848750 0.123733
0.915077 0.848750 0.123733
1.050000 0.848750 0.123733
0.000000 0.970000 0.123733
0.123312 0.970000 0.123733
0.251807 0.970000 0.123733
0.382333 0.970000 0.123733
0.514196 0.970000 0.123733
0.647062 0.970000 0.123733
0.780733 0.970000 0.123733
0.915077 0.970000 0.123733
1.050000 0.970000 0.123733
0.000000 0.000000 0.242373
0.123312 0.000000 0.242373
0.251807 0.000000 0.242373
0.382333 0.000000 0.242373
0.514196 0.000000 0.242373
0.647062 0.000000 0.242373
0.780733 0.000000 0.242373
0.915077 0.000000 0.242373
1.050000 0.000000 0.242373
0.000000 0.121250 0.242373
0.123312 0.121250 0.242373
0.251807 0.121250 0.242373
0.382333 0.121250 0.242373
0.514196 0.121250 0.242373
0.647062 0.121250 0.242373
0.780733 0.121250 0.242373
0.915077 0.121250 0.242373
1.050000 0.121250 0.242373
0.000000 0.242500 0.242373
0.123312 0.242500 0.242373
0.251807 0.242500 0.242373
0.382333 0.242500 0.242373
0.514196 0.242500 0.242373
0.647062 0.242500 0.242373
0.780733 0.242500 0.242373
0.915077 0.242500 0.242373
1.050000 0.242500 0.242373
0.000000 0.363750 0.242373
0.123312 0.363750 0.242373
0.251807 0.363750 0.242373
0.382333 0.363750 0.242373
0.514196 0.363750 0.242373
0.647062 0.363750 0.242373
0.780733 0.363750 0.242373
0.915077 0.363750 0.242373
1.050000 0.363750 0.242373
0.000000 0.485000 0.242373
0.123312 0.485000 0.242373
0.251807 0.485000 0.242373
0.382333 0.485000 0.242373
0.514196 0.485000 0.242373
0.647062 0.485000 0.242373
0.780733 0.485000 0.242373
0.915077 0.485000 0.242373
1.050000 0.485000 0.242373
0.000000 0.606250 0.242373
0.123312 0.606250 0.242373
0.251807 0.606250 0.242373
0.382333 0.606250 0.242373
0.514196 0.606250 0.242373
0.647062 0.606250 0.242373
0.780733 0.606250 0.242373
0.915077 0.606250 0.242373
1.050000 0.606250 0.242373
0.000000 0.727500 0.242373
0.123312 0.727500 0.242373
0.251807 0.727500 0.242373
0.382333 0.727500 0.242373
0.514196 0.727500 0.242373
0.647062 0.727500 0.242373
0.780733 0.727500 0.242373
0.915077 0.727500 0.242373
1.050000 0.727500 0.242373
0.000000 0.848750 0.242373
0.123312 0.848750 0.242373
0.251807 0.848750 0.242373
0.382333 0.848750 0.242373
0.514196 0.848750 0.242373
0.647062 0.848750 0.242373
0.780733 0.848750 0.242373
0.915077 0.848750 0.242373
1.050000 0.848750 0.242373
0.000000 0.970000 0.242373
0.123312 0.970000 0.242373
0.251807 0.970000 0.242373
0.382333 0.970000 0.242373
0.514196 0.970000 0.242373
0.647062 0.970000 0.242373
0.780733 0.970000 0.242373
0.915077 0.970000 0.242373
1.050000 0.970000 0.242373
0.000000 0.000000 0.359164
0.123312 0.000000 0.359164
0.251807 0.000000 0.359164
0.382333 0.000000 0.359164
0.514196 0.000000 0.359164
0.647062 0.000000 0.359164
0.780733 0.000000 0.359164
0.915077 0.000000 0.359164
1.050000 0.000000 0.359164
0.000000 0.121250 0.359164
0.123312 0.121250 0.359164
0.251807 0.121250 0.359164
0.382333 0.121250 0.359164
0.514196 0.121250 0.359164
0.647062 0.121250 0.359164
0.780733 0.121250 0.359164
0.915077 0.121250 0.359164
1.050000 0.121250 0.359164
0.000000 0.242500 0.359164
0.123312 0.242500 0.359164
0.251807 0.242500 0.359164
0.382333 0.242500 0.359164
0.514196 0.242500 0.359164
0.647062 0.242500 0.359164
0.780733 0.242500 0.359164
0.915077 0.242500 0.359164
1.050000 0.242500 0.359164
0.000000 0.363750 0.359164
0.123312 0.363750 0.359164
0.251807 0.363750 0.359164
0.382333 0.363750 0.359164
0.514196 0.363750 0.359164
0.647062 0.363750 0.359164
0.780733 0.363750 0.359164
0.915077 0.363750 0.359164
1.050000 0.363750 0.359164
0.000000 0.485000 0.359164
0.123312 0.485000 0.359164
0.251807 0.485000 0.359164
0.382333 0.485000 0.359164
0.514196 0.485000 0.359164
0.647062 0.485000 0.359164
0.780733 0.485000 0.359164
0.915077 0.485000 0.359164
1.050000 0.485000 0.359164
0.000000 0.606250 0.359164
0.123312 0.606250 0.359164
0.251807 0.606250 0.359164
0.382333 0.606250 0.359164
0.514196 0.606250 0.359164
0.647062 0.606250 0.359164
0.780733 0.606250 0.359164
0.915077 0.606250 0.359164
1.050000 0.606250 0.359164
0.000000 0.727500 0.359164
0.123312 0.727500 0.359164
0.251807 0.727500 0.359164
0.382333 0.727500 0.359164
0.514196 0.727500 0.359164
0.647062 0.727500 0.359164
0.780733 0.727500 0.359164
0.915077 0.727500 0.359164
1.050000 0.727500 0.359164
0.000000 0.848750 0.359164
0.123312 0.848750 0.359164
0.251807 0.848750 0.359164
0.382333 0.848750 0.359164
0.514196 0.848750 0.359164
0.647062 0.848750 0.359164
0.780733 0.848750 0.359164
0.915077 0.848750 0.359164
1.050000 0.848750 0.359164
0.000000 0.970000 0.359164
0.123312 0.970000 0.359164
0.251807 0.970000 0.359164
0.382333 0.970000 0.359164
0.514196 0.970000 0.359164
0.647062 0.970000 0.359164
0.780733 0.970000 0.359164
0.915077 0.970000 0.359164
1.050000 0.970000 0.359164
0.000000 0.000000 0.474771
0.123312 0.000000 0.474771
0.251807 0.000000 0.474771
0.382333 0.000000 0.474771
0.514196 0.000000 0.474771
0.647062 0.000000 0.474771
0.780733 0.000000 0.474771
0.915077 0.000000 0.474771
1.050000 0.000000 0.474771
0.000000 0.121250 0.474771
0.123312 0.121250 0.474771
0.251807 0.121250 0.474771
0.382333 0.121250 0.474771
0.514196 0.121250 0.474771
0.647062 0.121250 0.474771
0.780733 0.121250 0.474771
0.915077 0.121250 0.474771
1.050000 0.121250 0.474771
0.000000 0.242500 0.474771
0.123312 0.242500 0.474771
0.251807 0.242500 0.474771
0.382333 0.242500 0.474771
0.514196 0.242500 0.474771
0.647062 0.242500 0.474771
0.780733 0.242500 0.474771
0.915077 0.242500 0.474771
1.050000 0.242500 0.474771
0.000000 0.363750 0.474771
0.123312 0.363750 0.474771
0.251807 0.363750 0.474771
0.382333 0.363750 0.474771
0.514196 0.363750 0.474771
0.647062 0.363750 0.474771
0.780733 0.363750 0.474771
0.915077 0.363750 0.474771
1.050000 0.363750 0.474771
0.000000 0.485000 0.474771
0.123312 0.485000 0.474771
0.251807 0.485000 0.474771
0.382333 0.485000 0.474771
0.514196 0.485000 0.474771
0.647062 0.485000 0.474771
0.780733 0.485000 0.474771
0.915077 0.485000 0.474771
1.050000 0.485000 0.474771
0.000000 0.606250 0.474771
0.123312 0.606250 0.474771
0.251807 0.606250 0.474771
0.382333 0.606250 0.474771
0.514196 0.606250 0.474771
0.647062 0.606250 0.474771
0.780733 0.606250 0.474771
0.915077 0.606250 0.474771
1.050000 0.606250 0.474771
0.000000 0.727500 0.474771
0.123312 0.727500 0.474771
0.251807 0.727500 0.474771
0.382333 0.727500 0.474771
0.514196 0.727500 0.474771
0.647062 0.727500 0.474771
0.780733 0.727500 0.474771
0.915077 0.727500 0.474771
1.050000 0.727500 0.474771
0.000000 0.848750 0.474771
0.123312 0.848750 0.474771
0.251807 0.848750 0.474771
0.382333 0.848750 0.474771
0.514196 0.848750 0.474771
0.647062 0.848750 0.474771
0.780733 0.848750 0.474771
0.915077 0.848750 0.474771
1.050000 0.848750 0.474771
0.000000 0.970000 0.474771
0.123312 0.970000 0.474771
0.251807 0.970000 0.474771
0.382333 0.970000 0.474771
0.514196 0.970000 0.474771
0.647062 0.970000 0.474771
0.780733 0.970000 0.474771
0.915077 0.970000 0.474771
1.050000 0.970000 0.474771
0.000000 0.000000 0.589504
0.123312 0.000000 0.589504
0.251807 0.000000 0.589504
0.382333 0.000000 0.589504
0.514196 0.000000 0.589504
0.647062 0.000000 0.589504
0.780733 0.000000 0.589504
0.915077 0.000000 0.589504
1.050000 0.000000 0.589504
0.000000 0.121250 0.589504
0.123312 0.121250 0.589504
0.251807 0.121250 0.589504
0.382333 0.121250 0.589504
0.514196 0.121250 0.589504
0.647062 0.121250 0.589504
0.780733 0.121250 0.589504
0.915077 0.121250 0.589504
1.050000 0.121250 0.589504
0.000000 0.242500 0.589504
0.123312 0.242500 0.589504
0.251807 0.242500 0.589504
0.382333 0.242500 0.589504
0.514196 0.242500 0.589504
0.647062 0.242500 0.589504
0.780733 0.242500 0.589504
0.915077 0.242500 0.589504
1.050000 0.242500 0.589504
0.000000 0.363750 0.589504
0.123312 0.363750 0.589504
0.251807 0.363750 0.589504
0.382333 0.363750 0.589504
0.514196 0.363750 0.589504
0.647062 0.363750 0.589504
0.780733 0.363750 0.589504
0.915077 0.363750 0.589504
1.050000 0.363750 0.589504
0.000000 0.485000 0.589504
0.123312 0.485000 0.589504
0.251807 0.485000 0.589504
0.382333 0.485000 0.589504
0.514196 0.485000 0.589504
0.647062 0.485000 0.589504
0.780733 0.485000 0.589504
0.915077 0.485000 0.589504
1.050000 0.485000 0.589504
0.000000 0.606250 0.589504
0.123312 0.606250 0.589504
0.251807 0.606250 0.589504
0.382333 0.606250 0.589504
0.514196 0.606250 0.589504
0.647062 0.606250 0.589504
0.780733 0.606250 0.589504
0.915077 0.606250 0.589504
1.050000 0.606250 0.589504
0.000000 0.727500 0.589504
0.123312 0.727500 0.589504
0.251807 0.727500 0.589504
0.382333 0.727500 0.589504
0.514196 0.727500 0.589504
0.647062 0.727500 0.589504
0.780733 0.727500 0.589504
0.915077 0.727500 0.589504
1.050000 0.727500 0.589504
0.000000 0.848750 0.589504
0.123312 0.848750 0.589504
0.251807 0.848750 0.589504
0.382333 0.848750 0.589504
0.514196 0.848750 0.589504
0.647062 0.848750 0.589504
0.780733 0.848750 0.589504
0.915077 0.848750 0.589504
1.050000 0.848750 0.589504
0.000000 0.970000 0.589504
0.123312 0.970000 0.589504
0.251807 0.970000 0.589504
0.382333 0.970000 0.589504
0.514196 0.970000 0.589504
0.647062 0.970000 0.589504
0.780733 0.970000 0.589504
0.915077 0.970000 0.589504
1.050000 0.970000 0.589504
0.000000 0.000000 0.703546
0.123312 0.000000 0.703546
0.251807 0.000000 0.703546
0.382333 0.000000 0.703546
0.514196 0.000000 0.703546
0.647062 0.000000 0.703546
0.780733 0.000000 0.703546
0.915077 0.000000 0.703546
1.050000 0.000000 0.703546
0.000000 0.121250 0.703546
0.123312 0.121250 0.703546
0.251807 0.121250 0.703546
0.382333 0.121250 0.703546
0.514196 0.121250 0.703546
0.647062 0.121250 0.703546
0.780733 0.121250 0.703546
0.915077 0.121250 0.703546
1.050000 0.121250 0.703546
0.000000 0.242500 0.703546
0.123312 0.242500 0.703546
0.251807 0.242500 0.703546
0.382333 0.242500 0.703546
0.514196 0.242500 0.703546
0.647062 0.242500 0.703546
0.780733 0.242500 0.703546
0.915077 0.242500 0.703546
1.050000 0.242500 0.703546
0.000000 0.363750 0.703546
0.123312 0.363750 0.703546
0.251807 0.363750 0.703546
0.382333 0.363750 0.703546
0.514196 0.363750 0.703546
0.647062 0.363750 0.703546
0.780733 0.363750 0.703546
0.915077 0.363750 0.703546
1.050000 0.363750 0.703546
0.000000 0.485000 0.703546
0.123312 0.485000 0.703546
0.251807 0.485000 0.703546
0.382333 0.485000 0.703546
0.514196 0.485000 0.703546
0.647062 0.485000 0.703546
0.780733 0.485000 0.703546
0.915077 0.485000 0.703546
1.050000 0.485000 0.703546
0.000000 0.606250 0.703546
0.123312 0.606250 0.703546
0.251807 0.606250 0.703546
0.382333 0.606250 0.703546
0.514196 0.606250 0.703546
0.647062 0.606250 0.703546
0.780733 0.606250 0.703546
0.915077 0.606250 0.703546
1.050000 0.606250 0.703546
0.000000 0.727500 0.703546
0.123312 0.727500 0.703546
0.251807 0.727500 0.703546
0.382333 0.727500 0.703546
0.514196 0.727500 0.703546
0.647062 0.727500 0.703546
0.780733 0.727500 0.703546
0.915077 0.727500 0.703546
1.050000 0.727500 0.703546
0.000000 0.848750 0.703546
0.123312 0.848750 0.703546
0.251807 0.848750 0.703546
0.382333 0.848750 0.703546
0.514196 0.848750 0.703546
0.647062 0.848750 0.703546
0.780733 0.848750 0.703546
0.915077 0.848750 0.703546
1.050000 0.848750 0.703546
0.000000 0.970000 0.703546
0.123312 0.970000 0.703546
0.251807 0.970000 0.703546
0.382333 0.970000 0.703546
0.514196 0.970000 0.703546
0.647062 0.970000 0.703546
0.780733 0.970000 0.703546
0.915077 0.970000 0.703546
1.050000 0.970000 0.703546
0.000000 0.000000 0.817016
0.123312 0.000000 0.817016
0.251807 0.000000 0.817016
0.382333 0.000000 0.817016
0.514196 0.000000 0.817016
0.647062 0.000000 0.817016
0.780733 0.000000 0.817016
0.915077 0.000000 0.817016
1.050000 0.000000 0.817016
0.000000 0.121250 0.817016
0.123312 0.121250 0.817016
0.251807 0.121250 0.817016
0.382333 0.121250 0.817016
0.514196 0.121250 0.817016
0.647062 0.121250 0.817016
0.780733 0.121250 0.817016
0.915077 0.121250 0.817016
1.050000 0.121250 0.817016
0.000000 0.242500 0.817016
0.123312 0.242500 0.817016
0.251807 0.242500 0.817016
0.382333 0.242500 0.817016
0.514196 0.242500 0.817016
0.647062 0.242500 0.817016
0.780733 0.242500 0.817016
0.915077 0.242500 0.817016
1.050000 0.242500 0.817016
0.000000 0.363750 0.817016
0.123312 0.363750 0.817016
0.251807 0.363750 0.817016
0.382333 0.363750 0.817016
0.514196 0.363750 0.817016
0.647062 0.363750 0.817016
0.780733 0.363750 0.817016
0.915077 0.363750 0.817016
1.050000 0.363750 0.817016
0.000000 0.485000 0.817016
0.123312 0.485000 0.817016
0.251807 0.485000 0.817016
0.382333 0.485000 0.817016
0.514196 0.485000 0.817016
0.647062 0.485000 0.817016
0.780733 0.485000 0.817016
0.915077 0.485000 0.817016
1.050000 0.485000 0.817016
0.000000 0.606250 0.817016
0.123312 0.606250 0.817016
0.251807 0.606250 0.817016
0.382333 0.606250 0.817016
0.514196 0.606250 0.817016
0.647062 0.606250 0.817016
0.780733 0.606250 0.817016
0.915077 0.606250 0.817016
1.050000 0.606250 0.817016
0.000000 0.727500 0.817016
0.123312 0.727500 0.817016
0.251807 0.727500 0.817016
0.382333 0.727500 0.817016
0.514196 0.727500 0.817016
0.647062 0.727500 0.817016
0.780733 0.727500 0.817016
0.915077 0.727500 0.817016
1.050000 0.727500 0.817016
0.000000 0.848750 0.817016
0.123312 0.848750 0.817016
0.251807 0.848750 0.817016
0.382333 0.848750 0.817016
0.514196 0.848750 0.817016
0.647062 0.848750 0.817016
0.780733 0.848750 0.817016
0.915077 0.848750 0.817016
1.050000 0.848750 0.817016
0.000000 0.970000 0.817016
0.123312 0.970000 0.817016
0.251807 0.970000 0.817016
0.382333 0.970000 0.817016
0.514196 0.970000 0.817016
0.647062 0.970000 0.817016
0.780733 0.970000 0.817016
0.915077 0.970000 0.817016
1.050000 0.970000 0.817016
0.000000 0.000000 0.930000
0.123312 0.000000 0.930000
0.251807 0.000000 0.930000
0.382333 0.000000 0.930000
0.514196 0.000000 0.930000
0.647062 0.000000 0.930000
0.780733 0.000000 0.930000
0.915077 0.000000 0.930000
1.050000 0.000000 0.930000
0.000000 0.121250 0.930000
0.123312 0.121250 0.930000
0.251807 0.121250 0.930000
0.382333 0.121250 0.930000
0.514196 0.121250 0.930000
0.647062 0.121250 0.930000
0.780733 0.121250 0.930000
0.915077 0.121250 0.930000
1.050000 0.121250 0.930000
0.000000 0.242500 0.930000
0.123312 0.242500 0.930000
0.251807 0.242500 0.930000
0.382333 0.242500 0.930000
0.514196 0.242500 0.930000
0.647062 0.242500 0.930000
0.780733 0.242500 0.930000
0.915077 0.242500 0.930000
1.050000 0.242500 0.930000
0.000000 0.363750 0.930000
0.123312 0.363750 0.930000
0.251807 0.363750 0.930000
0.382333 0.363750 0.930000
0.514196 0.363750 0.930000
0.647062 0.363750 0.930000
0.780733 0.363750 0.930000
0.915077 0.363750 0.930000
1.050000 0.363750 0.930000
0.000000 0.485000 0.930000
0.123312 0.485000 0.930000
0.251807 0.485000 0.930000
0.382333 0.485000 0.930000
0.514196 0.485000 0.930000
0.647062 0.485000 0.930000
0.780733 0.485000 0.930000
0.915077 0.485000 0.930000
1.050000 0.485000 0.930000
0.000000 0.606250 0.930000
0.123312 0.606250 0.930000
0.251807 0.606250 0.930000
0.382333 0.606250 0.930000
0.514196 0.606250 0.930000
0.647062 0.606250 0.930000
0.780733 0.606250 0.930000
0.915077 0.606250 0.930000
1.050000 0.606250 0.930000
0.000000 0.727500 0.930000
0.123312 0.727500 0.930000
0.251807 0.727500 0.930000
0.382333 0.727500 0.930000
0.514196 0.727500 0.930000
0.647062 0.727500 0.930000
0.780733 0.727500 0.930000
0.915077 0.727500 0.930000
1.050000 0.727500 0.930000
0.000000 0.848750 0.930000
0.123312 0.848750 0.930000
0.251807 0.848750 0.930000
0.382333 0.848750 0.930000
0.514196 0.848750 0.930000
0.647062 0.848750 0.930000
0.780733 0.848750 0.930000
0.915077 0.848750 0.930000
1.050000 0.848750 0.930000
0.000000 0.970000 0.930000
0.123312 0.970000 0.930000
0.251807 0.970000 0.930000
0.382333 0.970000 0.930000
0.514196 0.970000 0.930000
0.647062 0.970000 0.930000
0.780733 0.970000 0.930000
0.915077 0.970000 0.930000
1.050000 0.970000 0.930000
