public/assets/luts/b11_freighter.cube
TITLE "b11_freighter"
LUT_3D_SIZE 17
DOMAIN_MIN 0 0 0
DOMAIN_MAX 1 1 1
0.000000 0.000000 0.000000
0.055786 0.000000 0.000000
0.113917 0.000000 0.000000
0.172967 0.000000 0.000000
0.232622 0.000000 0.000000
0.292730 0.000000 0.000000
0.353203 0.000000 0.000000
0.413980 0.000000 0.000000
0.475019 0.000000 0.000000
0.536288 0.000000 0.000000
0.597762 0.000000 0.000000
0.659421 0.000000 0.000000
0.721248 0.000000 0.000000
0.783231 0.000000 0.000000
0.845357 0.000000 0.000000
0.907616 0.000000 0.000000
0.970000 0.000000 0.000000
0.000000 0.061250 0.000000
0.055786 0.061250 0.000000
0.113917 0.061250 0.000000
0.172967 0.061250 0.000000
0.232622 0.061250 0.000000
0.292730 0.061250 0.000000
0.353203 0.061250 0.000000
0.413980 0.061250 0.000000
0.475019 0.061250 0.000000
0.536288 0.061250 0.000000
0.597762 0.061250 0.000000
0.659421 0.061250 0.000000
0.721248 0.061250 0.000000
0.783231 0.061250 0.000000
0.845357 0.061250 0.000000
0.907616 0.061250 0.000000
0.970000 0.061250 0.000000
0.000000 0.122500 0.000000
0.055786 0.122500 0.000000
0.113917 0.122500 0.000000
0.172967 0.122500 0.000000
0.232622 0.122500 0.000000
0.292730 0.122500 0.000000
0.353203 0.122500 0.000000
0.413980 0.122500 0.000000
0.475019 0.122500 0.000000
0.536288 0.122500 0.000000
0.597762 0.122500 0.000000
0.659421 0.122500 0.000000
0.721248 0.122500 0.000000
0.783231 0.122500 0.000000
0.845357 0.122500 0.000000
0.907616 0.122500 0.000000
0.970000 0.122500 0.000000
0.000000 0.183750 0.000000
0.055786 0.183750 0.000000
0.113917 0.183750 0.000000
0.172967 0.183750 0.000000
0.232622 0.183750 0.000000
0.292730 0.183750 0.000000
0.353203 0.183750 0.000000
0.413980 0.183750 0.000000
0.475019 0.183750 0.000000
0.536288 0.183750 0.000000
0.597762 0.183750 0.000000
0.659421 0.183750 0.000000
0.721248 0.183750 0.000000
0.783231 0.183750 0.000000
0.845357 0.183750 0.000000
0.907616 0.183750 0.000000
0.970000 0.183750 0.000000
0.000000 0.245000 0.000000
0.055786 0.245000 0.000000
0.113917 0.245000 0.000000
0.172967 0.245000 0.000000
0.232622 0.245000 0.000000
0.292730 0.245000 0.000000
0.353203 0.245000 0.000000
0.413980 0.245000 0.000000
0.475019 0.245000 0.000000
0.536288 0.245000 0.000000
0.597762 0.245000 0.000000
0.659421 0.245000 0.000000
0.721248 0.245000 0.000000
0.783231 0.245000 0.000000
0.845357 0.245000 0.000000
0.907616 0.245000 0.000000
0.970000 0.245000 0.000000
0.000000 0.306250 0.000000
0.055786 0.306250 0.000000
0.113917 0.306250 0.000000
0.172967 0.306250 0.000000
0.232622 0.306250 0.000000
0.292730 0.306250 0.000000
0.353203 0.306250 0.000000
0.413980 0.306250 0.000000
0.475019 0.306250 0.000000
0.536288 0.306250 0.000000
0.597762 0.306250 0.000000
0.659421 0.306250 0.000000
0.721248 0.306250 0.000000
0.783231 0.306250 0.000000
0.845357 0.306250 0.000000
0.907616 0.306250 0.000000
0.970000 0.306250 0.000000
0.000000 0.367500 0.000000
0.055786 0.367500 0.000000
0.113917 0.367500 0.000000
0.172967 0.367500 0.000000
0.232622 0.367500 0.000000
0.292730 0.367500 0.000000
0.353203 0.367500 0.000000
0.413980 0.367500 0.000000
0.475019 0.367500 0.000000
0.536288 0.367500 0.000000
0.597762 0.367500 0.000000
0.659421 0.367500 0.000000
0.721248 0.367500 0.000000
0.783231 0.367500 0.000000
0.845357 0.367500 0.000000
0.907616 0.367500 0.000000
0.970000 0.367500 0.000000
0.000000 0.428750 0.000000
0.055786 0.428750 0.000000
0.113917 0.428750 0.000000
0.172967 0.428750 0.000000
0.232622 0.428750 0.000000
0.292730 0.428750 0.000000
0.353203 0.428750 0.000000
0.413980 0.428750 0.000000
0.475019 0.428750 0.000000
0.536288 0.428750 0.000000
0.597762 0.428750 0.000000
0.659421 0.428750 0.000000
0.721248 0.428750 0.000000
0.783231 0.428750 0.000000
0.845357 0.428750 0.000000
0.907616 0.428750 0.000000
0.970000 0.428750 0.000000
0.000000 0.490000 0.000000
0.055786 0.490000 0.000000
0.113917 0.490000 0.000000
0.172967 0.490000 0.000000
0.232622 0.490000 0.000000
0.292730 0.490000 0.000000
0.353203 0.490000 0.000000
0.413980 0.490000 0.000000
0.475019 0.490000 0.000000
0.536288 0.490000 0.000000
0.597762 0.490000 0.000000
0.659421 0.490000 0.000000
0.721248 0.490000 0.000000
0.783231 0.490000 0.000000
0.845357 0.490000 0.000000
0.907616 0.490000 0.000000
0.970000 0.490000 0.000000
0.000000 0.551250 0.000000
0.055786 0.551250 0.000000
0.113917 0.551250 0.000000
0.172967 0.551250 0.000000
0.232622 0.551250 0.000000
0.292730 0.551250 0.000000
0.353203 0.551250 0.000000
0.413980 0.551250 0.000000
0.475019 0.551250 0.000000
0.536288 0.551250 0.000000
0.597762 0.551250 0.000000
0.659421 0.551250 0.000000
0.721248 0.551250 0.000000
0.783231 0.551250 0.000000
0.845357 0.551250 0.000000
0.907616 0.551250 0.000000
0.970000 0.551250 0.000000
0.000000 0.612500 0.000000
0.055786 0.612500 0.000000
0.113917 0.612500 0.000000
0.172967 0.612500 0.000000
0.232622 0.612500 0.000000
0.292730 0.612500 0.000000
0.353203 0.612500 0.000000
0.413980 0.612500 0.000000
0.475019 0.612500 0.000000
0.536288 0.612500 0.000000
0.597762 0.612500 0.000000
0.659421 0.612500 0.000000
0.721248 0.612500 0.000000
0.783231 0.612500 0.000000
0.845357 0.612500 0.000000
0.907616 0.612500 0.000000
0.970000 0.612500 0.000000
0.000000 0.673750 0.000000
0.055786 0.673750 0.000000
0.113917 0.673750 0.000000
0.172967 0.673750 0.000000
0.232622 0.673750 0.000000
0.292730 0.673750 0.000000
0.353203 0.673750 0.000000
0.413980 0.673750 0.000000
0.475019 0.673750 0.000000
0.536288 0.673750 0.000000
0.597762 0.673750 0.000000
0.659421 0.673750 0.000000
0.721248 0.673750 0.000000
0.783231 0.673750 0.000000
0.845357 0.673750 0.000000
0.907616 0.673750 0.000000
0.970000 0.673750 0.000000
0.000000 0.735000 0.000000
0.055786 0.735000 0.000000
0.113917 0.735000 0.000000
0.172967 0.735000 0.000000
0.232622 0.735000 0.000000
0.292730 0.735000 0.000000
0.353203 0.735000 0.000000
0.413980 0.735000 0.000000
0.475019 0.735000 0.000000
0.536288 0.735000 0.000000
0.597762 0.735000 0.000000
0.659421 0.735000 0.000000
0.721248 0.735000 0.000000
0.783231 0.735000 0.000000
0.845357 0.735000 0.000000
0.907616 0.735000 0.000000
0.970000 0.735000 0.000000
0.000000 0.796250 0.000000
0.055786 0.796250 0.000000
0.113917 0.796250 0.000000
0.172967 0.796250 0.000000
0.232622 0.796250 0.000000
0.292730 0.796250 0.000000
0.353203 0.796250 0.000000
0.413980 0.796250 0.000000
0.475019 0.796250 0.000000
0.536288 0.796250 0.000000
0.597762 0.796250 0.000000
0.659421 0.796250 0.000000
0.721248 0.796250 0.000000
0.783231 0.796250 0.000000
0.845357 0.796250 0.000000
0.907616 0.796250 0.000000
0.970000 0.796250 0.000000
0.000000 0.857500 0.000000
0.055786 0.857500 0.000000
0.113917 0.857500 0.000000
0.172967 0.857500 0.000000
0.232622 0.857500 0.000000
0.292730 0.857500 0.000000
0.353203 0.857500 0.000000
0.413980 0.857500 0.000000
0.475019 0.857500 0.000000
0.536288 0.857500 0.000000
0.597762 0.857500 0.000000
0.659421 0.857500 0.000000
0.721248 0.857500 0.000000
0.783231 0.857500 0.000000
0.845357 0.857500 0.000000
0.907616 0.857500 0.000000
0.970000 0.857500 0.000000
0.000000 0.918750 0.000000
0.055786 0.918750 0.000000
0.113917 0.918750 0.000000
0.172967 0.918750 0.000000
0.232622 0.918750 0.000000
0.292730 0.918750 0.000000
0.353203 0.918750 0.000000
0.413980 0.918750 0.000000
0.475019 0.918750 0.000000
0.536288 0.918750 0.000000
0.597762 0.918750 0.000000
0.659421 0.918750 0.000000
0.721248 0.918750 0.000000
0.783231 0.918750 0.000000
0.845357 0.918750 0.000000
0.907616 0.918750 0.000000
0.970000 0.918750 0.000000
0.000000 0.980000 0.000000
0.055786 0.980000 0.000000
0.113917 0.980000 0.000000
0.172967 0.980000 0.000000
0.232622 0.980000 0.000000
0.292730 0.980000 0.000000
0.353203 0.980000 0.000000
0.413980 0.980000 0.000000
0.475019 0.980000 0.000000
0.536288 0.980000 0.000000
0.597762 0.980000 0.000000
0.659421 0.980000 0.000000
0.721248 0.980000 0.000000
0.783231 0.980000 0.000000
0.845357 0.980000 0.000000
0.907616 0.980000 0.000000
0.970000 0.980000 0.000000
0.000000 0.000000 0.070638
0.055786 0.000000 0.070638
0.113917 0.000000 0.070638
0.172967 0.000000 0.070638
0.232622 0.000000 0.070638
0.292730 0.000000 0.070638
0.353203 0.000000 0.070638
0.413980 0.000000 0.070638
0.475019 0.000000 0.070638
0.536288 0.000000 0.070638
0.597762 0.000000 0.070638
0.659421 0.000000 0.070638
0.721248 0.000000 0.070638
0.783231 0.000000 0.070638
0.845357 0.000000 0.070638
0.907616 0.000000 0.070638
0.970000 0.000000 0.070638
0.000000 0.061250 0.070638
0.055786 0.061250 0.070638
0.113917 0.061250 0.070638
0.172967 0.061250 0.070638
0.232622 0.061250 0.070638
0.292730 0.061250 0.070638
0.353203 0.061250 0.070638
0.413980 0.061250 0.070638
0.475019 0.061250 0.070638
0.536288 0.061250 0.070638
0.597762 0.061250 0.070638
0.659421 0.061250 0.070638
0.721248 0.061250 0.070638
0.783231 0.061250 0.070638
0.845357 0.061250 0.070638
0.907616 0.061250 0.070638
0.970000 0.061250 0.070638
0.000000 0.122500 0.070638
0.055786 0.122500 0.070638
0.113917 0.122500 0.070638
0.172967 0.122500 0.070638
0.232622 0.122500 0.070638
0.292730 0.122500 0.070638
0.353203 0.122500 0.070638
0.413980 0.122500 0.070638
0.475019 0.122500 0.070638
0.536288 0.122500 0.070638
0.597762 0.122500 0.070638
0.659421 0.122500 0.070638
0.721248 0.122500 0.070638
0.783231 0.122500 0.070638
0.845357 0.122500 0.070638
0.907616 0.122500 0.070638
0.970000 0.122500 0.070638
0.000000 0.183750 0.070638
0.055786 0.183750 0.070638
0.113917 0.183750 0.070638
0.172967 0.183750 0.070638
0.232622 0.183750 0.070638
0.292730 0.183750 0.070638
0.353203 0.183750 0.070638
0.413980 0.183750 0.070638
0.475019 0.183750 0.070638
0.536288 0.183750 0.070638
0.597762 0.183750 0.070638
0.659421 0.183750 0.070638
0.721248 0.183750 0.070638
0.783231 0.183750 0.070638
0.845357 0.183750 0.070638
0.907616 0.183750 0.070638
0.970000 0.183750 0.070638
0.000000 0.245000 0.070638
0.055786 0.245000 0.070638
0.113917 0.245000 0.070638
0.172967 0.245000 0.070638
0.232622 0.245000 0.070638
0.292730 0.245000 0.070638
0.353203 0.245000 0.070638
0.413980 0.245000 0.070638
0.475019 0.245000 0.070638
0.536288 0.245000 0.070638
0.597762 0.245000 0.070638
0.659421 0.245000 0.070638
0.721248 0.245000 0.070638
0.783231 0.245000 0.070638
0.845357 0.245000 0.070638
0.907616 0.245000 0.070638
0.970000 0.245000 0.070638
0.000000 0.306250 0.070638
0.055786 0.306250 0.070638
0.113917 0.306250 0.070638
0.172967 0.306250 0.070638
0.232622 0.306250 0.070638
0.292730 0.306250 0.070638
0.353203 0.306250 0.070638
0.413980 0.306250 0.070638
0.475019 0.306250 0.070638
0.536288 0.306250 0.070638
0.597762 0.306250 0.070638
0.659421 0.306250 0.070638
0.721248 0.306250 0.070638
0.783231 0.306250 0.070638
0.845357 0.306250 0.070638
0.907616 0.306250 0.070638
0.970000 0.306250 0.070638
0.000000 0.367500 0.070638
0.055786 0.367500 0.070638
0.113917 0.367500 0.070638
0.172967 0.367500 0.070638
0.232622 0.367500 0.070638
0.292730 0.367500 0.070638
0.353203 0.367500 0.070638
0.413980 0.367500 0.070638
0.475019 0.367500 0.070638
0.536288 0.367500 0.070638
0.597762 0.367500 0.070638
0.659421 0.367500 0.070638
0.721248 0.367500 0.070638
0.783231 0.367500 0.070638
0.845357 0.367500 0.070638
0.907616 0.367500 0.070638
0.970000 0.367500 0.070638
0.000000 0.428750 0.070638
0.055786 0.428750 0.070638
0.113917 0.428750 0.070638
0.172967 0.428750 0.070638
0.232622 0.428750 0.070638
0.292730 0.428750 0.070638
0.353203 0.428750 0.070638
0.413980 0.428750 0.070638
0.475019 0.428750 0.070638
0.536288 0.428750 0.070638
0.597762 0.428750 0.070638
0.659421 0.428750 0.070638
0.721248 0.428750 0.070638
0.783231 0.428750 0.070638
0.845357 0.428750 0.070638
0.907616 0.428750 0.070638
0.970000 0.428750 0.070638
0.000000 0.490000 0.070638
0.055786 0.490000 0.070638
0.113917 0.490000 0.070638
0.172967 0.490000 0.070638
0.232622 0.490000 0.070638
0.292730 0.490000 0.070638
0.353203 0.490000 0.070638
0.413980 0.490000 0.070638
0.475019 0.490000 0.070638
0.536288 0.490000 0.070638
0.597762 0.490000 0.070638
0.659421 0.490000 0.070638
0.721248 0.490000 0.070638
0.783231 0.490000 0.070638
0.845357 0.490000 0.070638
0.907616 0.490000 0.070638
0.970000 0.490000 0.070638
0.000000 0.551250 0.070638
0.055786 0.551250 0.070638
0.113917 0.551250 0.070638
0.172967 0.551250 0.070638
0.232622 0.551250 0.070638
0.292730 0.551250 0.070638
0.353203 0.551250 0.070638
0.413980 0.551250 0.070638
0.475019 0.551250 0.070638
0.536288 0.551250 0.070638
0.597762 0.551250 0.070638
0.659421 0.551250 0.070638
0.721248 0.551250 0.070638
0.783231 0.551250 0.070638
0.845357 0.551250 0.070638
0.907616 0.551250 0.070638
0.970000 0.551250 0.070638
0.000000 0.612500 0.070638
0.055786 0.612500 0.070638
0.113917 0.612500 0.070638
0.172967 0.612500 0.070638
0.232622 0.612500 0.070638
0.292730 0.612500 0.070638
0.353203 0.612500 0.070638
0.413980 0.612500 0.070638
0.475019 0.612500 0.070638
0.536288 0.612500 0.070638
0.597762 0.612500 0.070638
0.659421 0.612500 0.070638
0.721248 0.612500 0.070638
0.783231 0.612500 0.070638
0.845357 0.612500 0.070638
0.907616 0.612500 0.070638
0.970000 0.612500 0.070638
0.000000 0.673750 0.070638
0.055786 0.673750 0.070638
0.113917 0.673750 0.070638
0.172967 0.673750 0.070638
0.232622 0.673750 0.070638
0.292730 0.673750 0.070638
0.353203 0.673750 0.070638
0.413980 0.673750 0.070638
0.475019 0.673750 0.070638
0.536288 0.673750 0.070638
0.597762 0.673750 0.070638
0.659421 0.673750 0.070638
0.721248 0.673750 0.070638
0.783231 0.673750 0.070638
0.845357 0.673750 0.070638
0.907616 0.673750 0.070638
0.970000 0.673750 0.070638
0.000000 0.735000 0.070638
0.055786 0.735000 0.070638
0.113917 0.735000 0.070638
0.172967 0.735000 0.070638
0.232622 0.735000 0.070638
0.292730 0.735000 0.070638
0.353203 0.735000 0.070638
0.413980 0.735000 0.070638
0.475019 0.735000 0.070638
0.536288 0.735000 0.070638
0.597762 0.735000 0.070638
0.659421 0.735000 0.070638
0.721248 0.735000 0.070638
0.783231 0.735000 0.070638
0.845357 0.735000 0.070638
0.907616 0.735000 0.070638
0.970000 0.735000 0.070638
0.000000 0.796250 0.070638
0.055786 0.796250 0.070638
0.113917 0.796250 0.070638
0.172967 0.796250 0.070638
0.232622 0.796250 0.070638
0.292730 0.796250 0.070638
0.353203 0.796250 0.070638
0.413980 0.796250 0.070638
0.475019 0.796250 0.070638
0.536288 0.796250 0.070638
0.597762 0.796250 0.070638
0.659421 0.796250 0.070638
0.721248 0.796250 0.070638
0.783231 0.796250 0.070638
0.845357 0.796250 0.070638
0.907616 0.796250 0.070638
0.970000 0.796250 0.070638
0.000000 0.857500 0.070638
0.055786 0.857500 0.070638
0.113917 0.857500 0.070638
0.172967 0.857500 0.070638
0.232622 0.857500 0.070638
0.292730 0.857500 0.070638
0.353203 0.857500 0.070638
0.413980 0.857500 0.070638
0.475019 0.857500 0.070638
0.536288 0.857500 0.070638
0.597762 0.857500 0.070638
0.659421 0.857500 0.070638
0.721248 0.857500 0.070638
0.783231 0.857500 0.070638
0.845357 0.857500 0.070638
0.907616 0.857500 0.070638
0.970000 0.857500 0.070638
0.000000 0.918750 0.070638
0.055786 0.918750 0.070638
0.113917 0.918750 0.070638
0.172967 0.918750 0.070638
0.232622 0.918750 0.070638
0.292730 0.918750 0.070638
0.353203 0.918750 0.070638
0.413980 0.918750 0.070638
0.475019 0.918750 0.070638
0.536288 0.918750 0.070638
0.597762 0.918750 0.070638
0.659421 0.918750 0.070638
0.721248 0.918750 0.070638
0.783231 0.918750 0.070638
0.845357 0.918750 0.070638
0.907616 0.918750 0.070638
0.970000 0.918750 0.070638
0.000000 0.980000 0.070638
0.055786 0.980000 0.070638
0.113917 0.980000 0.070638
0.172967 0.980000 0.070638
0.232622 0.980000 0.070638
0.292730 0.980000 0.070638
0.353203 0.980000 0.070638
0.413980 0.980000 0.070638
0.475019 0.980000 0.070638
0.536288 0.980000 0.070638
0.597762 0.980000 0.070638
0.659421 0.980000 0.070638
0.721248 0.980000 0.070638
0.783231 0.980000 0.070638
0.845357 0.980000 0.070638
0.907616 0.980000 0.070638
0.970000 0.980000 0.070638
0.000000 0.000000 0.138368
0.055786 0.000000 0.138368
0.113917 0.000000 0.138368
0.172967 0.000000 0.138368
0.232622 0.000000 0.138368
0.292730 0.000000 0.138368
0.353203 0.000000 0.138368
0.413980 0.000000 0.138368
0.475019 0.000000 0.138368
0.536288 0.000000 0.138368
0.597762 0.000000 0.138368
0.659421 0.000000 0.138368
0.721248 0.000000 0.138368
0.783231 0.000000 0.138368
0.845357 0.000000 0.138368
0.907616 0.000000 0.138368
0.970000 0.000000 0.138368
0.000000 0.061250 0.138368
0.055786 0.061250 0.138368
0.113917 0.061250 0.138368
0.172967 0.061250 0.138368
0.232622 0.061250 0.138368
0.292730 0.061250 0.138368
0.353203 0.061250 0.138368
0.413980 0.061250 0.138368
0.475019 0.061250 0.138368
0.536288 0.061250 0.138368
0.597762 0.061250 0.138368
0.659421 0.061250 0.138368
0.721248 0.061250 0.138368
0.783231 0.061250 0.138368
0.845357 0.061250 0.138368
0.907616 0.061250 0.138368
0.970000 0.061250 0.138368
0.000000 0.122500 0.138368
0.055786 0.122500 0.138368
0.113917 0.122500 0.138368
0.172967 0.122500 0.138368
0.232622 0.122500 0.138368
0.292730 0.122500 0.138368
0.353203 0.122500 0.138368
0.413980 0.122500 0.138368
0.475019 0.122500 0.138368
0.536288 0.122500 0.138368
0.597762 0.122500 0.138368
0.659421 0.122500 0.138368
0.721248 0.122500 0.138368
0.783231 0.122500 0.138368
0.845357 0.122500 0.138368
0.907616 0.122500 0.138368
0.970000 0.122500 0.138368
0.000000 0.183750 0.138368
0.055786 0.183750 0.138368
0.113917 0.183750 0.138368
0.172967 0.183750 0.138368
0.232622 0.183750 0.138368
0.292730 0.183750 0.138368
0.353203 0.183750 0.138368
0.413980 0.183750 0.138368
0.475019 0.183750 0.138368
0.536288 0.183750 0.138368
0.597762 0.183750 0.138368
0.659421 0.183750 0.138368
0.721248 0.183750 0.138368
0.783231 0.183750 0.138368
0.845357 0.183750 0.138368
0.907616 0.183750 0.138368
0.970000 0.183750 0.138368
0.000000 0.245000 0.138368
0.055786 0.245000 0.138368
0.113917 0.245000 0.138368
0.172967 0.245000 0.138368
0.232622 0.245000 0.138368
0.292730 0.245000 0.138368
0.353203 0.245000 0.138368
0.413980 0.245000 0.138368
0.475019 0.245000 0.138368
0.536288 0.245000 0.138368
0.597762 0.245000 0.138368
0.659421 0.245000 0.138368
0.721248 0.245000 0.138368
0.783231 0.245000 0.138368
0.845357 0.245000 0.138368
0.907616 0.245000 0.138368
0.970000 0.245000 0.138368
0.000000 0.306250 0.138368
0.055786 0.306250 0.138368
0.113917 0.306250 0.138368
0.172967 0.306250 0.138368
0.232622 0.306250 0.138368
0.292730 0.306250 0.138368
0.353203 0.306250 0.138368
0.413980 0.306250 0.138368
0.475019 0.306250 0.138368
0.536288 0.306250 0.138368
0.597762 0.306250 0.138368
0.659421 0.306250 0.138368
0.721248 0.306250 0.138368
0.783231 0.306250 0.138368
0.845357 0.306250 0.138368
0.907616 0.306250 0.138368
0.970000 0.306250 0.138368
0.000000 0.367500 0.138368
0.055786 0.367500 0.138368
0.113917 0.367500 0.138368
0.172967 0.367500 0.138368
0.232622 0.367500 0.138368
0.292730 0.367500 0.138368
0.353203 0.367500 0.138368
0.413980 0.367500 0.138368
0.475019 0.367500 0.138368
0.536288 0.367500 0.138368
0.597762 0.367500 0.138368
0.659421 0.367500 0.138368
0.721248 0.367500 0.138368
0.783231 0.367500 0.138368
0.845357 0.367500 0.138368
0.907616 0.367500 0.138368
0.970000 0.367500 0.138368
0.000000 0.428750 0.138368
0.055786 0.428750 0.138368
0.113917 0.428750 0.138368
0.172967 0.428750 0.138368
0.232622 0.428750 0.138368
0.292730 0.428750 0.138368
0.353203 0.428750 0.138368
0.413980 0.428750 0.138368
0.475019 0.428750 0.138368
0.536288 0.428750 0.138368
0.597762 0.428750 0.138368
0.659421 0.428750 0.138368
0.721248 0.428750 0.138368
0.783231 0.428750 0.138368
0.845357 0.428750 0.138368
0.907616 0.428750 0.138368
0.970000 0.428750 0.138368
0.000000 0.490000 0.138368
0.055786 0.490000 0.138368
0.113917 0.490000 0.138368
0.172967 0.490000 0.138368
0.232622 0.490000 0.138368
0.292730 0.490000 0.138368
0.353203 0.490000 0.138368
0.413980 0.490000 0.138368
0.475019 0.490000 0.138368
0.536288 0.490000 0.138368
0.597762 0.490000 0.138368
0.659421 0.490000 0.138368
0.721248 0.490000 0.138368
0.783231 0.490000 0.138368
0.845357 0.490000 0.138368
0.907616 0.490000 0.138368
0.970000 0.490000 0.138368
0.000000 0.551250 0.138368
0.055786 0.551250 0.138368
0.113917 0.551250 0.138368
0.172967 0.551250 0.138368
0.232622 0.551250 0.138368
0.292730 0.551250 0.138368
0.353203 0.551250 0.138368
0.413980 0.551250 0.138368
0.475019 0.551250 0.138368
0.536288 0.551250 0.138368
0.597762 0.551250 0.138368
0.659421 0.551250 0.138368
0.721248 0.551250 0.138368
0.783231 0.551250 0.138368
0.845357 0.551250 0.138368
0.907616 0.551250 0.138368
0.970000 0.551250 0.138368
0.000000 0.612500 0.138368
0.055786 0.612500 0.138368
0.113917 0.612500 0.138368
0.172967 0.612500 0.138368
0.232622 0.612500 0.138368
0.292730 0.612500 0.138368
0.353203 0.612500 0.138368
0.413980 0.612500 0.138368
0.475019 0.612500 0.138368
0.536288 0.612500 0.138368
0.597762 0.612500 0.138368
0.659421 0.612500 0.138368
0.721248 0.612500 0.138368
0.783231 0.612500 0.138368
0.845357 0.612500 0.138368
0.907616 0.612500 0.138368
0.970000 0.612500 0.138368
0.000000 0.673750 0.138368
0.055786 0.673750 0.138368
0.113917 0.673750 0.138368
0.172967 0.673750 0.138368
0.232622 0.673750 0.138368
0.292730 0.673750 0.138368
0.353203 0.673750 0.138368
0.413980 0.673750 0.138368
0.475019 0.673750 0.138368
0.536288 0.673750 0.138368
0.597762 0.673750 0.138368
0.659421 0.673750 0.138368
0.721248 0.673750 0.138368
0.783231 0.673750 0.138368
0.845357 0.673750 0.138368
0.907616 0.673750 0.138368
0.970000 0.673750 0.138368
0.000000 0.735000 0.138368
0.055786 0.735000 0.138368
0.113917 0.735000 0.138368
0.172967 0.735000 0.138368
0.232622 0.735000 0.138368
0.292730 0.735000 0.138368
0.353203 0.735000 0.138368
0.413980 0.735000 0.138368
0.475019 0.735000 0.138368
0.536288 0.735000 0.138368
0.597762 0.735000 0.138368
0.659421 0.735000 0.138368
0.721248 0.735000 0.138368
0.783231 0.735000 0.138368
0.845357 0.735000 0.138368
0.907616 0.735000 0.138368
0.970000 0.735000 0.138368
0.000000 0.796250 0.138368
0.055786 0.796250 0.138368
0.113917 0.796250 0.138368
0.172967 0.796250 0.138368
0.232622 0.796250 0.138368
0.292730 0.796250 0.138368
0.353203 0.796250 0.138368
0.413980 0.796250 0.138368
0.475019 0.796250 0.138368
0.536288 0.796250 0.138368
0.597762 0.796250 0.138368
0.659421 0.796250 0.138368
0.721248 0.796250 0.138368
0.783231 0.796250 0.138368
0.845357 0.796250 0.138368
0.907616 0.796250 0.138368
0.970000 0.796250 0.138368
0.000000 0.857500 0.138368
0.055786 0.857500 0.138368
0.113917 0.857500 0.138368
0.172967 0.857500 0.138368
0.232622 0.857500 0.138368
0.292730 0.857500 0.138368
0.353203 0.857500 0.138368
0.413980 0.857500 0.138368
0.475019 0.857500 0.138368
0.536288 0.857500 0.138368
0.597762 0.857500 0.138368
0.659421 0.857500 0.138368
0.721248 0.857500 0.138368
0.783231 0.857500 0.138368
0.845357 0.857500 0.138368
0.907616 0.857500 0.138368
0.970000 0.857500 0.138368
0.000000 0.918750 0.138368
0.055786 0.918750 0.138368
0.113917 0.918750 0.138368
0.172967 0.918750 0.138368
0.232622 0.918750 0.138368
0.292730 0.918750 0.138368
0.353203 0.918750 0.138368
0.413980 0.918750 0.138368
0.475019 0.918750 0.138368
0.536288 0.918750 0.138368
0.597762 0.918750 0.138368
0.659421 0.918750 0.138368
0.721248 0.918750 0.138368
0.783231 0.918750 0.138368
0.845357 0.918750 0.138368
0.907616 0.918750 0.138368
0.970000 0.918750 0.138368
0.000000 0.980000 0.138368
0.055786 0.980000 0.138368
0.113917 0.980000 0.138368
0.172967 0.980000 0.138368
0.232622 0.980000 0.138368
0.292730 0.980000 0.138368
0.353203 0.980000 0.138368
0.413980 0.980000 0.138368
0.475019 0.980000 0.138368
0.536288 0.980000 0.138368
0.597762 0.980000 0.138368
0.659421 0.980000 0.138368
0.721248 0.980000 0.138368
0.783231 0.980000 0.138368
0.845357 0.980000 0.138368
0.907616 0.980000 0.138368
0.970000 0.980000 0.138368
0.000000 0.000000 0.205043
0.055786 0.000000 0.205043
0.113917 0.000000 0.205043
0.172967 0.000000 0.205043
0.232622 0.000000 0.205043
0.292730 0.000000 0.205043
0.353203 0.000000 0.205043
0.413980 0.000000 0.205043
0.475019 0.000000 0.205043
0.536288 0.000000 0.205043
0.597762 0.000000 0.205043
0.659421 0.000000 0.205043
0.721248 0.000000 0.205043
0.783231 0.000000 0.205043
0.845357 0.000000 0.205043
0.907616 0.000000 0.205043
0.970000 0.000000 0.205043
0.000000 0.061250 0.205043
0.055786 0.061250 0.205043
