public/assets/luts/b11_freighter.cube
TITLE "b11_freighter"
LUT_3D_SIZE 5
DOMAIN_MIN 0 0 0
DOMAIN_MAX 1 1 1
0.000000 0.000000 0.000000
0.232622 0.000000 0.000000
0.475019 0.000000 0.000000
0.721248 0.000000 0.000000
0.970000 0.000000 0.000000
0.000000 0.245000 0.000000
0.232622 0.245000 0.000000
0.475019 0.245000 0.000000
0.721248 0.245000 0.000000
0.970000 0.245000 0.000000
0.000000 0.490000 0.000000
0.232622 0.490000 0.000000
0.475019 0.490000 0.000000
0.721248 0.490000 0.000000
0.970000 0.490000 0.000000
0.000000 0.735000 0.000000
0.232622 0.735000 0.000000
0.475019 0.735000 0.000000
0.721248 0.735000 0.000000
0.970000 0.735000 0.000000
0.000000 0.980000 0.000000
0.232622 0.980000 0.000000
0.475019 0.980000 0.000000
0.721248 0.980000 0.000000
0.970000 0.980000 0.000000
0.000000 0.000000 0.271041
0.232622 0.000000 0.271041
0.475019 0.000000 0.271041
0.721248 0.000000 0.271041
0.970000 0.000000 0.271041
0.000000 0.245000 0.271041
0.232622 0.245000 0.271041
0.475019 0.245000 0.271041
0.721248 0.245000 0.271041
0.970000 0.245000 0.271041
0.000000 0.490000 0.271041
0.232622 0.490000 0.271041
0.475019 0.490000 0.271041
0.721248 0.490000 0.271041
0.970000 0.490000 0.271041
0.000000 0.735000 0.271041
0.232622 0.735000 0.271041
0.475019 0.735000 0.271041
0.721248 0.735000 0.271041
0.970000 0.735000 0.271041
0.000000 0.980000 0.271041
0.232622 0.980000 0.271041
0.475019 0.980000 0.271041
0.721248 0.980000 0.271041
0.970000 0.980000 0.271041
0.000000 0.000000 0.530926
0.232622 0.000000 0.530926
0.475019 0.000000 0.530926
0.721248 0.000000 0.530926
0.970000 0.000000 0.530926
0.000000 0.245000 0.530926
0.232622 0.245000 0.530926
0.475019 0.245000 0.530926
0.721248 0.245000 0.530926
0.970000 0.245000 0.530926
0.000000 0.490000 0.530926
0.232622 0.490000 0.530926
0.475019 0.490000 0.530926
0.721248 0.490000 0.530926
0.970000 0.490000 0.530926
0.000000 0.735000 0.530926
0.232622 0.735000 0.530926
0.475019 0.735000 0.530926
0.721248 0.735000 0.530926
0.970000 0.735000 0.530926
0.000000 0.980000 0.530926
0.232622 0.980000 0.530926
0.475019 0.980000 0.530926
0.721248 0.980000 0.530926
0.970000 0.980000 0.530926
0.000000 0.000000 0.786761
0.232622 0.000000 0.786761
0.475019 0.000000 0.786761
0.721248 0.000000 0.786761
0.970000 0.000000 0.786761
0.000000 0.245000 0.786761
0.232622 0.245000 0.786761
0.475019 0.245000 0.786761
0.721248 0.245000 0.786761
0.970000 0.245000 0.786761
0.000000 0.490000 0.786761
0.232622 0.490000 0.786761
0.475019 0.490000 0.786761
0.721248 0.490000 0.786761
0.970000 0.490000 0.786761
0.000000 0.735000 0.786761
0.232622 0.735000 0.786761
0.475019 0.735000 0.786761
0.721248 0.735000 0.786761
0.970000 0.735000 0.786761
0.000000 0.980000 0.786761
0.232622 0.980000 0.786761
0.475019 0.980000 0.786761
0.721248 0.980000 0.786761
0.970000 0.980000 0.786761
0.000000 0.000000 1.040000
0.232622 0.000000 1.040000
0.475019 0.000000 1.040000
0.721248 0.000000 1.040000
0.970000 0.000000 1.040000
0.000000 0.245000 1.040000
0.232622 0.245000 1.040000
0.475019 0.245000 1.040000
0.721248 0.245000 1.040000
0.970000 0.245000 1.040000
0.000000 0.490000 1.040000
0.232622 0.490000 1.040000
0.475019 0.490000 1.040000
0.721248 0.490000 1.040000
0.970000 0.490000 1.040000
0.000000 0.735000 1.040000
0.232622 0.735000 1.040000
0.475019 0.735000 1.040000
0.721248 0.735000 1.040000
0.970000 0.735000 1.040000
0.000000 0.980000 1.040000
0.232622 0.980000 1.040000
0.475019 0.980000 1.040000
0.721248 0.980000 1.040000
0.970000 0.980000 1.040000
