public/assets/luts/b11_freighter.cube
TITLE "b11_freighter"
LUT_3D_SIZE 9
DOMAIN_MIN 0 0 0
DOMAIN_MAX 1 1 1
0.000000 0.000000 0.000000
0.113917 0.000000 0.000000
0.232622 0.000000 0.000000
0.353203 0.000000 0.000000
0.475019 0.000000 0.000000
0.597762 0.000000 0.000000
0.721248 0.000000 0.000000
0.845357 0.000000 0.000000
0.970000 0.000000 0.000000
0.000000 0.122500 0.000000
0.113917 0.122500 0.000000
0.232622 0.122500 0.000000
0.353203 0.122500 0.000000
0.475019 0.122500 0.000000
0.597762 0.122500 0.000000
0.721248 0.122500 0.000000
0.845357 0.122500 0.000000
0.970000 0.122500 0.000000
0.000000 0.245000 0.000000
0.113917 0.245000 0.000000
0.232622 0.245000 0.000000
0.353203 0.245000 0.000000
0.475019 0.245000 0.000000
0.597762 0.245000 0.000000
0.721248 0.245000 0.000000
0.845357 0.245000 0.000000
0.970000 0.245000 0.000000
0.000000 0.367500 0.000000
0.113917 0.367500 0.000000
0.232622 0.367500 0.000000
0.353203 0.367500 0.000000
0.475019 0.367500 0.000000
0.597762 0.367500 0.000000
0.721248 0.367500 0.000000
0.845357 0.367500 0.000000
0.970000 0.367500 0.000000
0.000000 0.490000 0.000000
0.113917 0.490000 0.000000
0.232622 0.490000 0.000000
0.353203 0.490000 0.000000
0.475019 0.490000 0.000000
0.597762 0.490000 0.000000
0.721248 0.490000 0.000000
0.845357 0.490000 0.000000
0.970000 0.490000 0.000000
0.000000 0.612500 0.000000
0.113917 0.612500 0.000000
0.232622 0.612500 0.000000
0.353203 0.612500 0.000000
0.475019 0.612500 0.000000
0.597762 0.612500 0.000000
0.721248 0.612500 0.000000
0.845357 0.612500 0.000000
0.970000 0.612500 0.000000
0.000000 0.735000 0.000000
0.113917 0.735000 0.000000
0.232622 0.735000 0.000000
0.353203 0.735000 0.000000
0.475019 0.735000 0.000000
0.597762 0.735000 0.000000
0.721248 0.735000 0.000000
0.845357 0.735000 0.000000
0.970000 0.735000 0.000000
0.000000 0.857500 0.000000
0.113917 0.857500 0.000000
0.232622 0.857500 0.000000
0.353203 0.857500 0.000000
0.475019 0.857500 0.000000
0.597762 0.857500 0.000000
0.721248 0.857500 0.000000
0.845357 0.857500 0.000000
0.970000 0.857500 0.000000
0.000000 0.980000 0.000000
0.113917 0.980000 0.000000
0.232622 0.980000 0.000000
0.353203 0.980000 0.000000
0.475019 0.980000 0.000000
0.597762 0.980000 0.000000
0.721248 0.980000 0.000000
0.845357 0.980000 0.000000
0.970000 0.980000 0.000000
0.000000 0.000000 0.138368
0.113917 0.000000 0.138368
0.232622 0.000000 0.138368
0.353203 0.000000 0.138368
0.475019 0.000000 0.138368
0.597762 0.000000 0.138368
0.721248 0.000000 0.138368
0.845357 0.000000 0.138368
0.970000 0.000000 0.138368
0.000000 0.122500 0.138368
0.113917 0.122500 0.138368
0.232622 0.122500 0.138368
0.353203 0.122500 0.138368
0.475019 0.122500 0.138368
0.597762 0.122500 0.138368
0.721248 0.122500 0.138368
0.845357 0.122500 0.138368
0.970000 0.122500 0.138368
0.000000 0.245000 0.138368
0.113917 0.245000 0.138368
0.232622 0.245000 0.138368
0.353203 0.245000 0.138368
0.475019 0.245000 0.138368
0.597762 0.245000 0.138368
0.721248 0.245000 0.138368
0.845357 0.245000 0.138368
0.970000 0.245000 0.138368
0.000000 0.367500 0.138368
0.113917 0.367500 0.138368
0.232622 0.367500 0.138368
0.353203 0.367500 0.138368
0.475019 0.367500 0.138368
0.597762 0.367500 0.138368
0.721248 0.367500 0.138368
0.845357 0.367500 0.138368
0.970000 0.367500 0.138368
0.000000 0.490000 0.138368
0.113917 0.490000 0.138368
0.232622 0.490000 0.138368
0.353203 0.490000 0.138368
0.475019 0.490000 0.138368
0.597762 0.490000 0.138368
0.721248 0.490000 0.138368
0.845357 0.490000 0.138368
0.970000 0.490000 0.138368
0.000000 0.612500 0.138368
0.113917 0.612500 0.138368
0.232622 0.612500 0.138368
0.353203 0.612500 0.138368
0.475019 0.612500 0.138368
0.597762 0.612500 0.138368
0.721248 0.612500 0.138368
0.845357 0.612500 0.138368
0.970000 0.612500 0.138368
0.000000 0.735000 0.138368
0.113917 0.735000 0.138368
0.232622 0.735000 0.138368
0.353203 0.735000 0.138368
0.475019 0.735000 0.138368
0.597762 0.735000 0.138368
0.721248 0.735000 0.138368
0.845357 0.735000 0.138368
0.970000 0.735000 0.138368
0.000000 0.857500 0.138368
0.113917 0.857500 0.138368
0.232622 0.857500 0.138368
0.353203 0.857500 0.138368
0.475019 0.857500 0.138368
0.597762 0.857500 0.138368
0.721248 0.857500 0.138368
0.845357 0.857500 0.138368
0.970000 0.857500 0.138368
0.000000 0.980000 0.138368
0.113917 0.980000 0.138368
0.232622 0.980000 0.138368
0.353203 0.980000 0.138368
0.475019 0.980000 0.138368
0.597762 0.980000 0.138368
0.721248 0.980000 0.138368
0.845357 0.980000 0.138368
0.970000 0.980000 0.138368
0.000000 0.000000 0.271041
0.113917 0.000000 0.271041
0.232622 0.000000 0.271041
0.353203 0.000000 0.271041
0.475019 0.000000 0.271041
0.597762 0.000000 0.271041
0.721248 0.000000 0.271041
0.845357 0.000000 0.271041
0.970000 0.000000 0.271041
0.000000 0.122500 0.271041
0.113917 0.122500 0.271041
0.232622 0.122500 0.271041
0.353203 0.122500 0.271041
0.475019 0.122500 0.271041
0.597762 0.122500 0.271041
0.721248 0.122500 0.271041
0.845357 0.122500 0.271041
0.970000 0.122500 0.271041
0.000000 0.245000 0.271041
0.113917 0.245000 0.271041
0.232622 0.245000 0.271041
0.353203 0.245000 0.271041
0.475019 0.245000 0.271041
0.597762 0.245000 0.271041
0.721248 0.245000 0.271041
0.845357 0.245000 0.271041
0.970000 0.245000 0.271041
0.000000 0.367500 0.271041
0.113917 0.367500 0.271041
0.232622 0.367500 0.271041
0.353203 0.367500 0.271041
0.475019 0.367500 0.271041
0.597762 0.367500 0.271041
0.721248 0.367500 0.271041
0.845357 0.367500 0.271041
0.970000 0.367500 0.271041
0.000000 0.490000 0.271041
0.113917 0.490000 0.271041
0.232622 0.490000 0.271041
0.353203 0.490000 0.271041
0.475019 0.490000 0.271041
0.597762 0.490000 0.271041
0.721248 0.490000 0.271041
0.845357 0.490000 0.271041
0.970000 0.490000 0.271041
0.000000 0.612500 0.271041
0.113917 0.612500 0.271041
0.232622 0.612500 0.271041
0.353203 0.612500 0.271041
0.475019 0.612500 0.271041
0.597762 0.612500 0.271041
0.721248 0.612500 0.271041
0.845357 0.612500 0.271041
0.970000 0.612500 0.271041
0.000000 0.735000 0.271041
0.113917 0.735000 0.271041
0.232622 0.735000 0.271041
0.353203 0.735000 0.271041
0.475019 0.735000 0.271041
0.597762 0.735000 0.271041
0.721248 0.735000 0.271041
0.845357 0.735000 0.271041
0.970000 0.735000 0.271041
0.000000 0.857500 0.271041
0.113917 0.857500 0.271041
0.232622 0.857500 0.271041
0.353203 0.857500 0.271041
0.475019 0.857500 0.271041
0.597762 0.857500 0.271041
0.721248 0.857500 0.271041
0.845357 0.857500 0.271041
0.970000 0.857500 0.271041
0.000000 0.980000 0.271041
0.113917 0.980000 0.271041
0.232622 0.980000 0.271041
0.353203 0.980000 0.271041
0.475019 0.980000 0.271041
0.597762 0.980000 0.271041
0.721248 0.980000 0.271041
0.845357 0.980000 0.271041
0.970000 0.980000 0.271041
0.000000 0.000000 0.401646
0.113917 0.000000 0.401646
0.232622 0.000000 0.401646
0.353203 0.000000 0.401646
0.475019 0.000000 0.401646
0.597762 0.000000 0.401646
0.721248 0.000000 0.401646
0.845357 0.000000 0.401646
0.970000 0.000000 0.401646
0.000000 0.122500 0.401646
0.113917 0.122500 0.401646
0.232622 0.122500 0.401646
0.353203 0.122500 0.401646
0.475019 0.122500 0.401646
0.597762 0.122500 0.401646
0.721248 0.122500 0.401646
0.845357 0.122500 0.401646
0.970000 0.122500 0.401646
0.000000 0.245000 0.401646
0.113917 0.245000 0.401646
0.232622 0.245000 0.401646
0.353203 0.245000 0.401646
0.475019 0.245000 0.401646
0.597762 0.245000 0.401646
0.721248 0.245000 0.401646
0.845357 0.245000 0.401646
0.970000 0.245000 0.401646
0.000000 0.367500 0.401646
0.113917 0.367500 0.401646
0.232622 0.367500 0.401646
0.353203 0.367500 0.401646
0.475019 0.367500 0.401646
0.597762 0.367500 0.401646
0.721248 0.367500 0.401646
0.845357 0.367500 0.401646
0.970000 0.367500 0.401646
0.000000 0.490000 0.401646
0.113917 0.490000 0.401646
0.232622 0.490000 0.401646
0.353203 0.490000 0.401646
0.475019 0.490000 0.401646
0.597762 0.490000 0.401646
0.721248 0.490000 0.401646
0.845357 0.490000 0.401646
0.970000 0.490000 0.401646
0.000000 0.612500 0.401646
0.113917 0.612500 0.401646
0.232622 0.612500 0.401646
0.353203 0.612500 0.401646
0.475019 0.612500 0.401646
0.597762 0.612500 0.401646
0.721248 0.612500 0.401646
0.845357 0.612500 0.401646
0.970000 0.612500 0.401646
0.000000 0.735000 0.401646
0.113917 0.735000 0.401646
0.232622 0.735000 0.401646
0.353203 0.735000 0.401646
0.475019 0.735000 0.401646
0.597762 0.735000 0.401646
0.721248 0.735000 0.401646
0.845357 0.735000 0.401646
0.970000 0.735000 0.401646
0.000000 0.857500 0.401646
0.113917 0.857500 0.401646
0.232622 0.857500 0.401646
0.353203 0.857500 0.401646
0.475019 0.857500 0.401646
0.597762 0.857500 0.401646
0.721248 0.857500 0.401646
0.845357 0.857500 0.401646
0.970000 0.857500 0.401646
0.000000 0.980000 0.401646
0.113917 0.980000 0.401646
0.232622 0.980000 0.401646
0.353203 0.980000 0.401646
0.475019 0.980000 0.401646
0.597762 0.980000 0.401646
0.721248 0.980000 0.401646
0.845357 0.980000 0.401646
0.970000 0.980000 0.401646
0.000000 0.000000 0.530926
0.113917 0.000000 0.530926
0.232622 0.000000 0.530926
0.353203 0.000000 0.530926
0.475019 0.000000 0.530926
0.597762 0.000000 0.530926
0.721248 0.000000 0.530926
0.845357 0.000000 0.530926
0.970000 0.000000 0.530926
0.000000 0.122500 0.530926
0.113917 0.122500 0.530926
0.232622 0.122500 0.530926
0.353203 0.122500 0.530926
0.475019 0.122500 0.530926
0.597762 0.122500 0.530926
0.721248 0.122500 0.530926
0.845357 0.122500 0.530926
0.970000 0.122500 0.530926
0.000000 0.245000 0.530926
0.113917 0.245000 0.530926
0.232622 0.245000 0.530926
0.353203 0.245000 0.530926
0.475019 0.245000 0.530926
0.597762 0.245000 0.530926
0.721248 0.245000 0.530926
0.845357 0.245000 0.530926
0.970000 0.245000 0.530926
0.000000 0.367500 0.530926
0.113917 0.367500 0.530926
0.232622 0.367500 0.530926
0.353203 0.367500 0.530926
0.475019 0.367500 0.530926
0.597762 0.367500 0.530926
0.721248 0.367500 0.530926
0.845357 0.367500 0.530926
0.970000 0.367500 0.530926
0.000000 0.490000 0.530926
0.113917 0.490000 0.530926
0.232622 0.490000 0.530926
0.353203 0.490000 0.530926
0.475019 0.490000 0.530926
0.597762 0.490000 0.530926
0.721248 0.490000 0.530926
0.845357 0.490000 0.530926
0.970000 0.490000 0.530926
0.000000 0.612500 0.530926
0.113917 0.612500 0.530926
0.232622 0.612500 0.530926
0.353203 0.612500 0.530926
0.475019 0.612500 0.530926
0.597762 0.612500 0.530926
0.721248 0.612500 0.530926
0.845357 0.612500 0.530926
0.970000 0.612500 0.530926
0.000000 0.735000 0.530926
0.113917 0.735000 0.530926
0.232622 0.735000 0.530926
0.353203 0.735000 0.530926
0.475019 0.735000 0.530926
0.597762 0.735000 0.530926
0.721248 0.735000 0.530926
0.845357 0.735000 0.530926
0.970000 0.735000 0.530926
0.000000 0.857500 0.530926
0.113917 0.857500 0.530926
0.232622 0.857500 0.530926
0.353203 0.857500 0.530926
0.475019 0.857500 0.530926
0.597762 0.857500 0.530926
0.721248 0.857500 0.530926
0.845357 0.857500 0.530926
0.970000 0.857500 0.530926
0.000000 0.980000 0.530926
0.113917 0.980000 0.530926
0.232622 0.980000 0.530926
0.353203 0.980000 0.530926
0.475019 0.980000 0.530926
0.597762 0.980000 0.530926
0.721248 0.980000 0.530926
0.845357 0.980000 0.530926
0.970000 0.980000 0.530926
0.000000 0.000000 0.659230
0.113917 0.000000 0.659230
0.232622 0.000000 0.659230
0.353203 0.000000 0.659230
0.475019 0.000000 0.659230
0.597762 0.000000 0.659230
0.721248 0.000000 0.659230
0.845357 0.000000 0.659230
0.970000 0.000000 0.659230
0.000000 0.122500 0.659230
0.113917 0.122500 0.659230
0.232622 0.122500 0.659230
0.353203 0.122500 0.659230
0.475019 0.122500 0.659230
0.597762 0.122500 0.659230
0.721248 0.122500 0.659230
0.845357 0.122500 0.659230
0.970000 0.122500 0.659230
0.000000 0.245000 0.659230
0.113917 0.245000 0.659230
0.232622 0.245000 0.659230
0.353203 0.245000 0.659230
0.475019 0.245000 0.659230
0.597762 0.245000 0.659230
0.721248 0.245000 0.659230
0.845357 0.245000 0.659230
0.970000 0.245000 0.659230
0.000000 0.367500 0.659230
0.113917 0.367500 0.659230
0.232622 0.367500 0.659230
0.353203 0.367500 0.659230
0.475019 0.367500 0.659230
0.597762 0.367500 0.659230
0.721248 0.367500 0.659230
0.845357 0.367500 0.659230
0.970000 0.367500 0.659230
0.000000 0.490000 0.659230
0.113917 0.490000 0.659230
0.232622 0.490000 0.659230
0.353203 0.490000 0.659230
0.475019 0.490000 0.659230
0.597762 0.490000 0.659230
0.721248 0.490000 0.659230
0.845357 0.490000 0.659230
0.970000 0.490000 0.659230
0.000000 0.612500 0.659230
0.113917 0.612500 0.659230
0.232622 0.612500 0.659230
0.353203 0.612500 0.659230
0.475019 0.612500 0.659230
0.597762 0.612500 0.659230
0.721248 0.612500 0.659230
0.845357 0.612500 0.659230
0.970000 0.612500 0.659230
0.000000 0.735000 0.659230
0.113917 0.735000 0.659230
0.232622 0.735000 0.659230
0.353203 0.735000 0.659230
0.475019 0.735000 0.659230
0.597762 0.735000 0.659230
0.721248 0.735000 0.659230
0.845357 0.735000 0.659230
0.970000 0.735000 0.659230
0.000000 0.857500 0.659230
0.113917 0.857500 0.659230
0.232622 0.857500 0.659230
0.353203 0.857500 0.659230
0.475019 0.857500 0.659230
0.597762 0.857500 0.659230
0.721248 0.857500 0.659230
0.845357 0.857500 0.659230
0.970000 0.857500 0.659230
0.000000 0.980000 0.659230
0.113917 0.980000 0.659230
0.232622 0.980000 0.659230
0.353203 0.980000 0.659230
0.475019 0.980000 0.659230
0.597762 0.980000 0.659230
0.721248 0.980000 0.659230
0.845357 0.980000 0.659230
0.970000 0.980000 0.659230
0.000000 0.000000 0.786761
0.113917 0.000000 0.786761
0.232622 0.000000 0.786761
0.353203 0.000000 0.786761
0.475019 0.000000 0.786761
0.597762 0.000000 0.786761
0.721248 0.000000 0.786761
0.845357 0.000000 0.786761
0.970000 0.000000 0.786761
0.000000 0.122500 0.786761
0.113917 0.122500 0.786761
0.232622 0.122500 0.786761
0.353203 0.122500 0.786761
0.475019 0.122500 0.786761
0.597762 0.122500 0.786761
0.721248 0.122500 0.786761
0.845357 0.122500 0.786761
0.970000 0.122500 0.786761
0.000000 0.245000 0.786761
0.113917 0.245000 0.786761
0.232622 0.245000 0.786761
0.353203 0.245000 0.786761
0.475019 0.245000 0.786761
0.597762 0.245000 0.786761
0.721248 0.245000 0.786761
0.845357 0.245000 0.786761
0.970000 0.245000 0.786761
0.000000 0.367500 0.786761
0.113917 0.367500 0.786761
0.232622 0.367500 0.786761
0.353203 0.367500 0.786761
0.475019 0.367500 0.786761
0.597762 0.367500 0.786761
0.721248 0.367500 0.786761
0.845357 0.367500 0.786761
0.970000 0.367500 0.786761
0.000000 0.490000 0.786761
0.113917 0.490000 0.786761
0.232622 0.490000 0.786761
0.353203 0.490000 0.786761
0.475019 0.490000 0.786761
0.597762 0.490000 0.786761
0.721248 0.490000 0.786761
0.845357 0.490000 0.786761
0.970000 0.490000 0.786761
0.000000 0.612500 0.786761
0.113917 0.612500 0.786761
0.232622 0.612500 0.786761
0.353203 0.612500 0.786761
0.475019 0.612500 0.786761
0.597762 0.612500 0.786761
0.721248 0.612500 0.786761
0.845357 0.612500 0.786761
0.970000 0.612500 0.786761
0.000000 0.735000 0.786761
0.113917 0.735000 0.786761
0.232622 0.735000 0.786761
0.353203 0.735000 0.786761
0.475019 0.735000 0.786761
0.597762 0.735000 0.786761
0.721248 0.735000 0.786761
0.845357 0.735000 0.786761
0.970000 0.735000 0.786761
0.000000 0.857500 0.786761
0.113917 0.857500 0.786761
0.232622 0.857500 0.786761
0.353203 0.857500 0.786761
0.475019 0.857500 0.786761
0.597762 0.857500 0.786761
0.721248 0.857500 0.786761
0.845357 0.857500 0.786761
0.970000 0.857500 0.786761
0.000000 0.980000 0.786761
0.113917 0.980000 0.786761
0.232622 0.980000 0.786761
0.353203 0.980000 0.786761
0.475019 0.980000 0.786761
0.597762 0.980000 0.786761
0.721248 0.980000 0.786761
0.845357 0.980000 0.786761
0.970000 0.980000 0.786761
0.000000 0.000000 0.913653
0.113917 0.000000 0.913653
0.232622 0.000000 0.913653
0.353203 0.000000 0.913653
0.475019 0.000000 0.913653
0.597762 0.000000 0.913653
0.721248 0.000000 0.913653
0.845357 0.000000 0.913653
0.970000 0.000000 0.913653
0.000000 0.122500 0.913653
0.113917 0.122500 0.913653
0.232622 0.122500 0.913653
0.353203 0.122500 0.913653
0.475019 0.122500 0.913653
0.597762 0.122500 0.913653
0.721248 0.122500 0.913653
0.845357 0.122500 0.913653
0.970000 0.122500 0.913653
0.000000 0.245000 0.913653
0.113917 0.245000 0.913653
0.232622 0.245000 0.913653
0.353203 0.245000 0.913653
0.475019 0.245000 0.913653
0.597762 0.245000 0.913653
0.721248 0.245000 0.913653
0.845357 0.245000 0.913653
0.970000 0.245000 0.913653
0.000000 0.367500 0.913653
0.113917 0.367500 0.913653
0.232622 0.367500 0.913653
0.353203 0.367500 0.913653
0.475019 0.367500 0.913653
0.597762 0.367500 0.913653
0.721248 0.367500 0.913653
0.845357 0.367500 0.913653
0.970000 0.367500 0.913653
0.000000 0.490000 0.913653
0.113917 0.490000 0.913653
0.232622 0.490000 0.913653
0.353203 0.490000 0.913653
0.475019 0.490000 0.913653
0.597762 0.490000 0.913653
0.721248 0.490000 0.913653
0.845357 0.490000 0.913653
0.970000 0.490000 0.913653
0.000000 0.612500 0.913653
0.113917 0.612500 0.913653
0.232622 0.612500 0.913653
0.353203 0.612500 0.913653
0.475019 0.612500 0.913653
0.597762 0.612500 0.913653
0.721248 0.612500 0.913653
0.845357 0.612500 0.913653
0.970000 0.612500 0.913653
0.000000 0.735000 0.913653
0.113917 0.735000 0.913653
0.232622 0.735000 0.913653
0.353203 0.735000 0.913653
0.475019 0.735000 0.913653
0.597762 0.735000 0.913653
0.721248 0.735000 0.913653
0.845357 0.735000 0.913653
0.970000 0.735000 0.913653
0.000000 0.857500 0.913653
0.113917 0.857500 0.913653
0.232622 0.857500 0.913653
0.353203 0.857500 0.913653
0.475019 0.857500 0.913653
0.597762 0.857500 0.913653
0.721248 0.857500 0.913653
0.845357 0.857500 0.913653
0.970000 0.857500 0.913653
0.000000 0.980000 0.913653
0.113917 0.980000 0.913653
0.232622 0.980000 0.913653
0.353203 0.980000 0.913653
0.475019 0.980000 0.913653
0.597762 0.980000 0.913653
0.721248 0.980000 0.913653
0.845357 0.980000 0.913653
0.970000 0.980000 0.913653
0.000000 0.000000 1.040000
0.113917 0.000000 1.040000
0.232622 0.000000 1.040000
0.353203 0.000000 1.040000
0.475019 0.000000 1.040000
0.597762 0.000000 1.040000
0.721248 0.000000 1.040000
0.845357 0.000000 1.040000
0.970000 0.000000 1.040000
0.000000 0.122500 1.040000
0.113917 0.122500 1.040000
0.232622 0.122500 1.040000
0.353203 0.122500 1.040000
0.475019 0.122500 1.040000
0.597762 0.122500 1.040000
0.721248 0.122500 1.040000
0.845357 0.122500 1.040000
0.970000 0.122500 1.040000
0.000000 0.245000 1.040000
0.113917 0.245000 1.040000
0.232622 0.245000 1.040000
0.353203 0.245000 1.040000
0.475019 0.245000 1.040000
0.597762 0.245000 1.040000
0.721248 0.245000 1.040000
0.845357 0.245000 1.040000
0.970000 0.245000 1.040000
0.000000 0.367500 1.040000
0.113917 0.367500 1.040000
0.232622 0.367500 1.040000
0.353203 0.367500 1.040000
0.475019 0.367500 1.040000
0.597762 0.367500 1.040000
0.721248 0.367500 1.040000
0.845357 0.367500 1.040000
0.970000 0.367500 1.040000
0.000000 0.490000 1.040000
0.113917 0.490000 1.040000
0.232622 0.490000 1.040000
0.353203 0.490000 1.040000
0.475019 0.490000 1.040000
0.597762 0.490000 1.040000
0.721248 0.490000 1.040000
0.845357 0.490000 1.040000
0.970000 0.490000 1.040000
0.000000 0.612500 1.040000
0.113917 0.612500 1.040000
0.232622 0.612500 1.040000
0.353203 0.612500 1.040000
0.475019 0.612500 1.040000
0.597762 0.612500 1.040000
0.721248 0.612500 1.040000
0.845357 0.612500 1.040000
0.970000 0.612500 1.040000
0.000000 0.735000 1.040000
0.113917 0.735000 1.040000
0.232622 0.735000 1.040000
0.353203 0.735000 1.040000
0.475019 0.735000 1.040000
0.597762 0.735000 1.040000
0.721248 0.735000 1.040000
0.845357 0.735000 1.040000
0.970000 0.735000 1.040000
0.000000 0.857500 1.040000
0.113917 0.857500 1.040000
0.232622 0.857500 1.040000
0.353203 0.857500 1.040000
0.475019 0.857500 1.040000
0.597762 0.857500 1.040000
0.721248 0.857500 1.040000
0.845357 0.857500 1.040000
0.970000 0.857500 1.040000
0.000000 0.980000 1.040000
0.113917 0.980000 1.040000
0.232622 0.980000 1.040000
0.353203 0.980000 1.040000
0.475019 0.980000 1.040000
0.597762 0.980000 1.040000
0.721248 0.980000 1.040000
0.845357 0.980000 1.040000
0.970000 0.980000 1.040000
