public/assets/luts/b12_spire.cube
TITLE "b12_spire"
LUT_3D_SIZE 9
DOMAIN_MIN 0 0 0
DOMAIN_MAX 1 1 1
0.000000 0.000000 0.000000
0.110394 0.000000 0.000000
0.225427 0.000000 0.000000
0.342279 0.000000 0.000000
0.460328 0.000000 0.000000
0.579274 0.000000 0.000000
0.698942 0.000000 0.000000
0.819212 0.000000 0.000000
0.940000 0.000000 0.000000
0.000000 0.120000 0.000000
0.110394 0.120000 0.000000
0.225427 0.120000 0.000000
0.342279 0.120000 0.000000
0.460328 0.120000 0.000000
0.579274 0.120000 0.000000
0.698942 0.120000 0.000000
0.819212 0.120000 0.000000
0.940000 0.120000 0.000000
0.000000 0.240000 0.000000
0.110394 0.240000 0.000000
0.225427 0.240000 0.000000
0.342279 0.240000 0.000000
0.460328 0.240000 0.000000
0.579274 0.240000 0.000000
0.698942 0.240000 0.000000
0.819212 0.240000 0.000000
0.940000 0.240000 0.000000
0.000000 0.360000 0.000000
0.110394 0.360000 0.000000
0.225427 0.360000 0.000000
0.342279 0.360000 0.000000
0.460328 0.360000 0.000000
0.579274 0.360000 0.000000
0.698942 0.360000 0.000000
0.819212 0.360000 0.000000
0.940000 0.360000 0.000000
0.000000 0.480000 0.000000
0.110394 0.480000 0.000000
0.225427 0.480000 0.000000
0.342279 0.480000 0.000000
0.460328 0.480000 0.000000
0.579274 0.480000 0.000000
0.698942 0.480000 0.000000
0.819212 0.480000 0.000000
0.940000 0.480000 0.000000
0.000000 0.600000 0.000000
0.110394 0.600000 0.000000
0.225427 0.600000 0.000000
0.342279 0.600000 0.000000
0.460328 0.600000 0.000000
0.579274 0.600000 0.000000
0.698942 0.600000 0.000000
0.819212 0.600000 0.000000
0.940000 0.600000 0.000000
0.000000 0.720000 0.000000
0.110394 0.720000 0.000000
0.225427 0.720000 0.000000
0.342279 0.720000 0.000000
0.460328 0.720000 0.000000
0.579274 0.720000 0.000000
0.698942 0.720000 0.000000
0.819212 0.720000 0.000000
0.940000 0.720000 0.000000
0.000000 0.840000 0.000000
0.110394 0.840000 0.000000
0.225427 0.840000 0.000000
0.342279 0.840000 0.000000
0.460328 0.840000 0.000000
0.579274 0.840000 0.000000
0.698942 0.840000 0.000000
0.819212 0.840000 0.000000
0.940000 0.840000 0.000000
0.000000 0.960000 0.000000
0.110394 0.960000 0.000000
0.225427 0.960000 0.000000
0.342279 0.960000 0.000000
0.460328 0.960000 0.000000
0.579274 0.960000 0.000000
0.698942 0.960000 0.000000
0.819212 0.960000 0.000000
0.940000 0.960000 0.000000
0.000000 0.000000 0.146351
0.110394 0.000000 0.146351
0.225427 0.000000 0.146351
0.342279 0.000000 0.146351
0.460328 0.000000 0.146351
0.579274 0.000000 0.146351
0.698942 0.000000 0.146351
0.819212 0.000000 0.146351
0.940000 0.000000 0.146351
0.000000 0.120000 0.146351
0.110394 0.120000 0.146351
0.225427 0.120000 0.146351
0.342279 0.120000 0.146351
0.460328 0.120000 0.146351
0.579274 0.120000 0.146351
0.698942 0.120000 0.146351
0.819212 0.120000 0.146351
0.940000 0.120000 0.146351
0.000000 0.240000 0.146351
0.110394 0.240000 0.146351
0.225427 0.240000 0.146351
0.342279 0.240000 0.146351
0.460328 0.240000 0.146351
0.579274 0.240000 0.146351
0.698942 0.240000 0.146351
0.819212 0.240000 0.146351
0.940000 0.240000 0.146351
0.000000 0.360000 0.146351
0.110394 0.360000 0.146351
0.225427 0.360000 0.146351
0.342279 0.360000 0.146351
0.460328 0.360000 0.146351
0.579274 0.360000 0.146351
0.698942 0.360000 0.146351
0.819212 0.360000 0.146351
0.940000 0.360000 0.146351
0.000000 0.480000 0.146351
0.110394 0.480000 0.146351
0.225427 0.480000 0.146351
0.342279 0.480000 0.146351
0.460328 0.480000 0.146351
0.579274 0.480000 0.146351
0.698942 0.480000 0.146351
0.819212 0.480000 0.146351
0.940000 0.480000 0.146351
0.000000 0.600000 0.146351
0.110394 0.600000 0.146351
0.225427 0.600000 0.146351
0.342279 0.600000 0.146351
0.460328 0.600000 0.146351
0.579274 0.600000 0.146351
0.698942 0.600000 0.146351
0.819212 0.600000 0.146351
0.940000 0.600000 0.146351
0.000000 0.720000 0.146351
0.110394 0.720000 0.146351
0.225427 0.720000 0.146351
0.342279 0.720000 0.146351
0.460328 0.720000 0.146351
0.579274 0.720000 0.146351
0.698942 0.720000 0.146351
0.819212 0.720000 0.146351
0.940000 0.720000 0.146351
0.000000 0.840000 0.146351
0.110394 0.840000 0.146351
0.225427 0.840000 0.146351
0.342279 0.840000 0.146351
0.460328 0.840000 0.146351
0.579274 0.840000 0.146351
0.698942 0.840000 0.146351
0.819212 0.840000 0.146351
0.940000 0.840000 0.146351
0.000000 0.960000 0.146351
0.110394 0.960000 0.146351
0.225427 0.960000 0.146351
0.342279 0.960000 0.146351
0.460328 0.960000 0.146351
0.579274 0.960000 0.146351
0.698942 0.960000 0.146351
0.819212 0.960000 0.146351
0.940000 0.960000 0.146351
0.000000 0.000000 0.286678
0.110394 0.000000 0.286678
0.225427 0.000000 0.286678
0.342279 0.000000 0.286678
0.460328 0.000000 0.286678
0.579274 0.000000 0.286678
0.698942 0.000000 0.286678
0.819212 0.000000 0.286678
0.940000 0.000000 0.286678
0.000000 0.120000 0.286678
0.110394 0.120000 0.286678
0.225427 0.120000 0.286678
0.342279 0.120000 0.286678
0.460328 0.120000 0.286678
0.579274 0.120000 0.286678
0.698942 0.120000 0.286678
0.819212 0.120000 0.286678
0.940000 0.120000 0.286678
0.000000 0.240000 0.286678
0.110394 0.240000 0.286678
0.225427 0.240000 0.286678
0.342279 0.240000 0.286678
0.460328 0.240000 0.286678
0.579274 0.240000 0.286678
0.698942 0.240000 0.286678
0.819212 0.240000 0.286678
0.940000 0.240000 0.286678
0.000000 0.360000 0.286678
0.110394 0.360000 0.286678
0.225427 0.360000 0.286678
0.342279 0.360000 0.286678
0.460328 0.360000 0.286678
0.579274 0.360000 0.286678
0.698942 0.360000 0.286678
0.819212 0.360000 0.286678
0.940000 0.360000 0.286678
0.000000 0.480000 0.286678
0.110394 0.480000 0.286678
0.225427 0.480000 0.286678
0.342279 0.480000 0.286678
0.460328 0.480000 0.286678
0.579274 0.480000 0.286678
0.698942 0.480000 0.286678
0.819212 0.480000 0.286678
0.940000 0.480000 0.286678
0.000000 0.600000 0.286678
0.110394 0.600000 0.286678
0.225427 0.600000 0.286678
0.342279 0.600000 0.286678
0.460328 0.600000 0.286678
0.579274 0.600000 0.286678
0.698942 0.600000 0.286678
0.819212 0.600000 0.286678
0.940000 0.600000 0.286678
0.000000 0.720000 0.286678
0.110394 0.720000 0.286678
0.225427 0.720000 0.286678
0.342279 0.720000 0.286678
0.460328 0.720000 0.286678
0.579274 0.720000 0.286678
0.698942 0.720000 0.286678
0.819212 0.720000 0.286678
0.940000 0.720000 0.286678
0.000000 0.840000 0.286678
0.110394 0.840000 0.286678
0.225427 0.840000 0.286678
0.342279 0.840000 0.286678
0.460328 0.840000 0.286678
0.579274 0.840000 0.286678
0.698942 0.840000 0.286678
0.819212 0.840000 0.286678
0.940000 0.840000 0.286678
0.000000 0.960000 0.286678
0.110394 0.960000 0.286678
0.225427 0.960000 0.286678
0.342279 0.960000 0.286678
0.460328 0.960000 0.286678
0.579274 0.960000 0.286678
0.698942 0.960000 0.286678
0.819212 0.960000 0.286678
0.940000 0.960000 0.286678
0.000000 0.000000 0.424818
0.110394 0.000000 0.424818
0.225427 0.000000 0.424818
0.342279 0.000000 0.424818
0.460328 0.000000 0.424818
0.579274 0.000000 0.424818
0.698942 0.000000 0.424818
0.819212 0.000000 0.424818
0.940000 0.000000 0.424818
0.000000 0.120000 0.424818
0.110394 0.120000 0.424818
0.225427 0.120000 0.424818
0.342279 0.120000 0.424818
0.460328 0.120000 0.424818
0.579274 0.120000 0.424818
0.698942 0.120000 0.424818
0.819212 0.120000 0.424818
0.940000 0.120000 0.424818
0.000000 0.240000 0.424818
0.110394 0.240000 0.424818
0.225427 0.240000 0.424818
0.342279 0.240000 0.424818
0.460328 0.240000 0.424818
0.579274 0.240000 0.424818
0.698942 0.240000 0.424818
0.819212 0.240000 0.424818
0.940000 0.240000 0.424818
0.000000 0.360000 0.424818
0.110394 0.360000 0.424818
0.225427 0.360000 0.424818
0.342279 0.360000 0.424818
0.460328 0.360000 0.424818
0.579274 0.360000 0.424818
0.698942 0.360000 0.424818
0.819212 0.360000 0.424818
0.940000 0.360000 0.424818
0.000000 0.480000 0.424818
0.110394 0.480000 0.424818
0.225427 0.480000 0.424818
0.342279 0.480000 0.424818
0.460328 0.480000 0.424818
0.579274 0.480000 0.424818
0.698942 0.480000 0.424818
0.819212 0.480000 0.424818
0.940000 0.480000 0.424818
0.000000 0.600000 0.424818
0.110394 0.600000 0.424818
0.225427 0.600000 0.424818
0.342279 0.600000 0.424818
0.460328 0.600000 0.424818
0.579274 0.600000 0.424818
0.698942 0.600000 0.424818
0.819212 0.600000 0.424818
0.940000 0.600000 0.424818
0.000000 0.720000 0.424818
0.110394 0.720000 0.424818
0.225427 0.720000 0.424818
0.342279 0.720000 0.424818
0.460328 0.720000 0.424818
0.579274 0.720000 0.424818
0.698942 0.720000 0.424818
0.819212 0.720000 0.424818
0.940000 0.720000 0.424818
0.000000 0.840000 0.424818
0.110394 0.840000 0.424818
0.225427 0.840000 0.424818
0.342279 0.840000 0.424818
0.460328 0.840000 0.424818
0.579274 0.840000 0.424818
0.698942 0.840000 0.424818
0.819212 0.840000 0.424818
0.940000 0.840000 0.424818
0.000000 0.960000 0.424818
0.110394 0.960000 0.424818
0.225427 0.960000 0.424818
0.342279 0.960000 0.424818
0.460328 0.960000 0.424818
0.579274 0.960000 0.424818
0.698942 0.960000 0.424818
0.819212 0.960000 0.424818
0.940000 0.960000 0.424818
0.000000 0.000000 0.561557
0.110394 0.000000 0.561557
0.225427 0.000000 0.561557
0.342279 0.000000 0.561557
0.460328 0.000000 0.561557
0.579274 0.000000 0.561557
0.698942 0.000000 0.561557
0.819212 0.000000 0.561557
0.940000 0.000000 0.561557
0.000000 0.120000 0.561557
0.110394 0.120000 0.561557
0.225427 0.120000 0.561557
0.342279 0.120000 0.561557
0.460328 0.120000 0.561557
0.579274 0.120000 0.561557
0.698942 0.120000 0.561557
0.819212 0.120000 0.561557
0.940000 0.120000 0.561557
0.000000 0.240000 0.561557
0.110394 0.240000 0.561557
0.225427 0.240000 0.561557
0.342279 0.240000 0.561557
0.460328 0.240000 0.561557
0.579274 0.240000 0.561557
0.698942 0.240000 0.561557
0.819212 0.240000 0.561557
0.940000 0.240000 0.561557
0.000000 0.360000 0.561557
0.110394 0.360000 0.561557
0.225427 0.360000 0.561557
0.342279 0.360000 0.561557
0.460328 0.360000 0.561557
0.579274 0.360000 0.561557
0.698942 0.360000 0.561557
0.819212 0.360000 0.561557
0.940000 0.360000 0.561557
0.000000 0.480000 0.561557
0.110394 0.480000 0.561557
0.225427 0.480000 0.561557
0.342279 0.480000 0.561557
0.460328 0.480000 0.561557
0.579274 0.480000 0.561557
0.698942 0.480000 0.561557
0.819212 0.480000 0.561557
0.940000 0.480000 0.561557
0.000000 0.600000 0.561557
0.110394 0.600000 0.561557
0.225427 0.600000 0.561557
0.342279 0.600000 0.561557
0.460328 0.600000 0.561557
0.579274 0.600000 0.561557
0.698942 0.600000 0.561557
0.819212 0.600000 0.561557
0.940000 0.600000 0.561557
0.000000 0.720000 0.561557
0.110394 0.720000 0.561557
0.225427 0.720000 0.561557
0.342279 0.720000 0.561557
0.460328 0.720000 0.561557
0.579274 0.720000 0.561557
0.698942 0.720000 0.561557
0.819212 0.720000 0.561557
0.940000 0.720000 0.561557
0.000000 0.840000 0.561557
0.110394 0.840000 0.561557
0.225427 0.840000 0.561557
0.342279 0.840000 0.561557
0.460328 0.840000 0.561557
0.579274 0.840000 0.561557
0.698942 0.840000 0.561557
0.819212 0.840000 0.561557
0.940000 0.840000 0.561557
0.000000 0.960000 0.561557
0.110394 0.960000 0.561557
0.225427 0.960000 0.561557
0.342279 0.960000 0.561557
0.460328 0.960000 0.561557
0.579274 0.960000 0.561557
0.698942 0.960000 0.561557
0.819212 0.960000 0.561557
0.940000 0.960000 0.561557
0.000000 0.000000 0.697262
0.110394 0.000000 0.697262
0.225427 0.000000 0.697262
0.342279 0.000000 0.697262
0.460328 0.000000 0.697262
0.579274 0.000000 0.697262
0.698942 0.000000 0.697262
0.819212 0.000000 0.697262
0.940000 0.000000 0.697262
0.000000 0.120000 0.697262
0.110394 0.120000 0.697262
0.225427 0.120000 0.697262
0.342279 0.120000 0.697262
0.460328 0.120000 0.697262
0.579274 0.120000 0.697262
0.698942 0.120000 0.697262
0.819212 0.120000 0.697262
0.940000 0.120000 0.697262
0.000000 0.240000 0.697262
0.110394 0.240000 0.697262
0.225427 0.240000 0.697262
0.342279 0.240000 0.697262
0.460328 0.240000 0.697262
0.579274 0.240000 0.697262
0.698942 0.240000 0.697262
0.819212 0.240000 0.697262
0.940000 0.240000 0.697262
0.000000 0.360000 0.697262
0.110394 0.360000 0.697262
0.225427 0.360000 0.697262
0.342279 0.360000 0.697262
0.460328 0.360000 0.697262
0.579274 0.360000 0.697262
0.698942 0.360000 0.697262
0.819212 0.360000 0.697262
0.940000 0.360000 0.697262
0.000000 0.480000 0.697262
0.110394 0.480000 0.697262
0.225427 0.480000 0.697262
0.342279 0.480000 0.697262
0.460328 0.480000 0.697262
0.579274 0.480000 0.697262
0.698942 0.480000 0.697262
0.819212 0.480000 0.697262
0.940000 0.480000 0.697262
0.000000 0.600000 0.697262
0.110394 0.600000 0.697262
0.225427 0.600000 0.697262
0.342279 0.600000 0.697262
0.460328 0.600000 0.697262
0.579274 0.600000 0.697262
0.698942 0.600000 0.697262
0.819212 0.600000 0.697262
0.940000 0.600000 0.697262
0.000000 0.720000 0.697262
0.110394 0.720000 0.697262
0.225427 0.720000 0.697262
0.342279 0.720000 0.697262
0.460328 0.720000 0.697262
0.579274 0.720000 0.697262
0.698942 0.720000 0.697262
0.819212 0.720000 0.697262
0.940000 0.720000 0.697262
0.000000 0.840000 0.697262
0.110394 0.840000 0.697262
0.225427 0.840000 0.697262
0.342279 0.840000 0.697262
0.460328 0.840000 0.697262
0.579274 0.840000 0.697262
0.698942 0.840000 0.697262
0.819212 0.840000 0.697262
0.940000 0.840000 0.697262
0.000000 0.960000 0.697262
0.110394 0.960000 0.697262
0.225427 0.960000 0.697262
0.342279 0.960000 0.697262
0.460328 0.960000 0.697262
0.579274 0.960000 0.697262
0.698942 0.960000 0.697262
0.819212 0.960000 0.697262
0.940000 0.960000 0.697262
0.000000 0.000000 0.832151
0.110394 0.000000 0.832151
0.225427 0.000000 0.832151
0.342279 0.000000 0.832151
0.460328 0.000000 0.832151
0.579274 0.000000 0.832151
0.698942 0.000000 0.832151
0.819212 0.000000 0.832151
0.940000 0.000000 0.832151
0.000000 0.120000 0.832151
0.110394 0.120000 0.832151
0.225427 0.120000 0.832151
0.342279 0.120000 0.832151
0.460328 0.120000 0.832151
0.579274 0.120000 0.832151
0.698942 0.120000 0.832151
0.819212 0.120000 0.832151
0.940000 0.120000 0.832151
0.000000 0.240000 0.832151
0.110394 0.240000 0.832151
0.225427 0.240000 0.832151
0.342279 0.240000 0.832151
0.460328 0.240000 0.832151
0.579274 0.240000 0.832151
0.698942 0.240000 0.832151
0.819212 0.240000 0.832151
0.940000 0.240000 0.832151
0.000000 0.360000 0.832151
0.110394 0.360000 0.832151
0.225427 0.360000 0.832151
0.342279 0.360000 0.832151
0.460328 0.360000 0.832151
0.579274 0.360000 0.832151
0.698942 0.360000 0.832151
0.819212 0.360000 0.832151
0.940000 0.360000 0.832151
0.000000 0.480000 0.832151
0.110394 0.480000 0.832151
0.225427 0.480000 0.832151
0.342279 0.480000 0.832151
0.460328 0.480000 0.832151
0.579274 0.480000 0.832151
0.698942 0.480000 0.832151
0.819212 0.480000 0.832151
0.940000 0.480000 0.832151
0.000000 0.600000 0.832151
0.110394 0.600000 0.832151
0.225427 0.600000 0.832151
0.342279 0.600000 0.832151
0.460328 0.600000 0.832151
0.579274 0.600000 0.832151
0.698942 0.600000 0.832151
0.819212 0.600000 0.832151
0.940000 0.600000 0.832151
0.000000 0.720000 0.832151
0.110394 0.720000 0.832151
0.225427 0.720000 0.832151
0.342279 0.720000 0.832151
0.460328 0.720000 0.832151
0.579274 0.720000 0.832151
0.698942 0.720000 0.832151
0.819212 0.720000 0.832151
0.940000 0.720000 0.832151
0.000000 0.840000 0.832151
0.110394 0.840000 0.832151
0.225427 0.840000 0.832151
0.342279 0.840000 0.832151
0.460328 0.840000 0.832151
0.579274 0.840000 0.832151
0.698942 0.840000 0.832151
0.819212 0.840000 0.832151
0.940000 0.840000 0.832151
0.000000 0.960000 0.832151
0.110394 0.960000 0.832151
0.225427 0.960000 0.832151
0.342279 0.960000 0.832151
0.460328 0.960000 0.832151
0.579274 0.960000 0.832151
0.698942 0.960000 0.832151
0.819212 0.960000 0.832151
0.940000 0.960000 0.832151
0.000000 0.000000 0.966363
0.110394 0.000000 0.966363
0.225427 0.000000 0.966363
0.342279 0.000000 0.966363
0.460328 0.000000 0.966363
0.579274 0.000000 0.966363
0.698942 0.000000 0.966363
0.819212 0.000000 0.966363
0.940000 0.000000 0.966363
0.000000 0.120000 0.966363
0.110394 0.120000 0.966363
0.225427 0.120000 0.966363
0.342279 0.120000 0.966363
0.460328 0.120000 0.966363
0.579274 0.120000 0.966363
0.698942 0.120000 0.966363
0.819212 0.120000 0.966363
0.940000 0.120000 0.966363
0.000000 0.240000 0.966363
0.110394 0.240000 0.966363
0.225427 0.240000 0.966363
0.342279 0.240000 0.966363
0.460328 0.240000 0.966363
0.579274 0.240000 0.966363
0.698942 0.240000 0.966363
0.819212 0.240000 0.966363
0.940000 0.240000 0.966363
0.000000 0.360000 0.966363
0.110394 0.360000 0.966363
0.225427 0.360000 0.966363
0.342279 0.360000 0.966363
0.460328 0.360000 0.966363
0.579274 0.360000 0.966363
0.698942 0.360000 0.966363
0.819212 0.360000 0.966363
0.940000 0.360000 0.966363
0.000000 0.480000 0.966363
0.110394 0.480000 0.966363
0.225427 0.480000 0.966363
0.342279 0.480000 0.966363
0.460328 0.480000 0.966363
0.579274 0.480000 0.966363
0.698942 0.480000 0.966363
0.819212 0.480000 0.966363
0.940000 0.480000 0.966363
0.000000 0.600000 0.966363
0.110394 0.600000 0.966363
0.225427 0.600000 0.966363
0.342279 0.600000 0.966363
0.460328 0.600000 0.966363
0.579274 0.600000 0.966363
0.698942 0.600000 0.966363
0.819212 0.600000 0.966363
0.940000 0.600000 0.966363
0.000000 0.720000 0.966363
0.110394 0.720000 0.966363
0.225427 0.720000 0.966363
0.342279 0.720000 0.966363
0.460328 0.720000 0.966363
0.579274 0.720000 0.966363
0.698942 0.720000 0.966363
0.819212 0.720000 0.966363
0.940000 0.720000 0.966363
0.000000 0.840000 0.966363
0.110394 0.840000 0.966363
0.225427 0.840000 0.966363
0.342279 0.840000 0.966363
0.460328 0.840000 0.966363
0.579274 0.840000 0.966363
0.698942 0.840000 0.966363
0.819212 0.840000 0.966363
0.940000 0.840000 0.966363
0.000000 0.960000 0.966363
0.110394 0.960000 0.966363
0.225427 0.960000 0.966363
0.342279 0.960000 0.966363
0.460328 0.960000 0.966363
0.579274 0.960000 0.966363
0.698942 0.960000 0.966363
0.819212 0.960000 0.966363
0.940000 0.960000 0.966363
0.000000 0.000000 1.100000
0.110394 0.000000 1.100000
0.225427 0.000000 1.100000
0.342279 0.000000 1.100000
0.460328 0.000000 1.100000
0.579274 0.000000 1.100000
0.698942 0.000000 1.100000
0.819212 0.000000 1.100000
0.940000 0.000000 1.100000
0.000000 0.120000 1.100000
0.110394 0.120000 1.100000
0.225427 0.120000 1.100000
0.342279 0.120000 1.100000
0.460328 0.120000 1.100000
0.579274 0.120000 1.100000
0.698942 0.120000 1.100000
0.819212 0.120000 1.100000
0.940000 0.120000 1.100000
0.000000 0.240000 1.100000
0.110394 0.240000 1.100000
0.225427 0.240000 1.100000
0.342279 0.240000 1.100000
0.460328 0.240000 1.100000
0.579274 0.240000 1.100000
0.698942 0.240000 1.100000
0.819212 0.240000 1.100000
0.940000 0.240000 1.100000
0.000000 0.360000 1.100000
0.110394 0.360000 1.100000
0.225427 0.360000 1.100000
0.342279 0.360000 1.100000
0.460328 0.360000 1.100000
0.579274 0.360000 1.100000
0.698942 0.360000 1.100000
0.819212 0.360000 1.100000
0.940000 0.360000 1.100000
0.000000 0.480000 1.100000
0.110394 0.480000 1.100000
0.225427 0.480000 1.100000
0.342279 0.480000 1.100000
0.460328 0.480000 1.100000
0.579274 0.480000 1.100000
0.698942 0.480000 1.100000
0.819212 0.480000 1.100000
0.940000 0.480000 1.100000
0.000000 0.600000 1.100000
0.110394 0.600000 1.100000
0.225427 0.600000 1.100000
0.342279 0.600000 1.100000
0.460328 0.600000 1.100000
0.579274 0.600000 1.100000
0.698942 0.600000 1.100000
0.819212 0.600000 1.100000
0.940000 0.600000 1.100000
0.000000 0.720000 1.100000
0.110394 0.720000 1.100000
0.225427 0.720000 1.100000
0.342279 0.720000 1.100000
0.460328 0.720000 1.100000
0.579274 0.720000 1.100000
0.698942 0.720000 1.100000
0.819212 0.720000 1.100000
0.940000 0.720000 1.100000
0.000000 0.840000 1.100000
0.110394 0.840000 1.100000
0.225427 0.840000 1.100000
0.342279 0.840000 1.100000
0.460328 0.840000 1.100000
0.579274 0.840000 1.100000
0.698942 0.840000 1.100000
0.819212 0.840000 1.100000
0.940000 0.840000 1.100000
0.000000 0.960000 1.100000
0.110394 0.960000 1.100000
0.225427 0.960000 1.100000
0.342279 0.960000 1.100000
0.460328 0.960000 1.100000
0.579274 0.960000 1.100000
0.698942 0.960000 1.100000
0.819212 0.960000 1.100000
0.940000 0.960000 1.100000
