public/assets/luts/b12_spire.cube
TITLE "b12_spire"
LUT_3D_SIZE 5
DOMAIN_MIN 0 0 0
DOMAIN_MAX 1 1 1
0.000000 0.000000 0.000000
0.225427 0.000000 0.000000
0.460328 0.000000 0.000000
0.698942 0.000000 0.000000
0.940000 0.000000 0.000000
0.000000 0.240000 0.000000
0.225427 0.240000 0.000000
0.460328 0.240000 0.000000
0.698942 0.240000 0.000000
0.940000 0.240000 0.000000
0.000000 0.480000 0.000000
0.225427 0.480000 0.000000
0.460328 0.480000 0.000000
0.698942 0.480000 0.000000
0.940000 0.480000 0.000000
0.000000 0.720000 0.000000
0.225427 0.720000 0.000000
0.460328 0.720000 0.000000
0.698942 0.720000 0.000000
0.940000 0.720000 0.000000
0.000000 0.960000 0.000000
0.225427 0.960000 0.000000
0.460328 0.960000 0.000000
0.698942 0.960000 0.000000
0.940000 0.960000 0.000000
0.000000 0.000000 0.286678
0.225427 0.000000 0.286678
0.460328 0.000000 0.286678
0.698942 0.000000 0.286678
0.940000 0.000000 0.286678
0.000000 0.240000 0.286678
0.225427 0.240000 0.286678
0.460328 0.240000 0.286678
0.698942 0.240000 0.286678
0.940000 0.240000 0.286678
0.000000 0.480000 0.286678
0.225427 0.480000 0.286678
0.460328 0.480000 0.286678
0.698942 0.480000 0.286678
0.940000 0.480000 0.286678
0.000000 0.720000 0.286678
0.225427 0.720000 0.286678
0.460328 0.720000 0.286678
0.698942 0.720000 0.286678
0.940000 0.720000 0.286678
0.000000 0.960000 0.286678
0.225427 0.960000 0.286678
0.460328 0.960000 0.286678
0.698942 0.960000 0.286678
0.940000 0.960000 0.286678
0.000000 0.000000 0.561557
0.225427 0.000000 0.561557
0.460328 0.000000 0.561557
0.698942 0.000000 0.561557
0.940000 0.000000 0.561557
0.000000 0.240000 0.561557
0.225427 0.240000 0.561557
0.460328 0.240000 0.561557
0.698942 0.240000 0.561557
0.940000 0.240000 0.561557
0.000000 0.480000 0.561557
0.225427 0.480000 0.561557
0.460328 0.480000 0.561557
0.698942 0.480000 0.561557
0.940000 0.480000 0.561557
0.000000 0.720000 0.561557
0.225427 0.720000 0.561557
0.460328 0.720000 0.561557
0.698942 0.720000 0.561557
0.940000 0.720000 0.561557
0.000000 0.960000 0.561557
0.225427 0.960000 0.561557
0.460328 0.960000 0.561557
0.698942 0.960000 0.561557
0.940000 0.960000 0.561557
0.000000 0.000000 0.832151
0.225427 0.000000 0.832151
0.460328 0.000000 0.832151
0.698942 0.000000 0.832151
0.940000 0.000000 0.832151
0.000000 0.240000 0.832151
0.225427 0.240000 0.832151
0.460328 0.240000 0.832151
0.698942 0.240000 0.832151
0.940000 0.240000 0.832151
0.000000 0.480000 0.832151
0.225427 0.480000 0.832151
0.460328 0.480000 0.832151
0.698942 0.480000 0.832151
0.940000 0.480000 0.832151
0.000000 0.720000 0.832151
0.225427 0.720000 0.832151
0.460328 0.720000 0.832151
0.698942 0.720000 0.832151
0.940000 0.720000 0.832151
0.000000 0.960000 0.832151
0.225427 0.960000 0.832151
0.460328 0.960000 0.832151
0.698942 0.960000 0.832151
0.940000 0.960000 0.832151
0.000000 0.000000 1.100000
0.225427 0.000000 1.100000
0.460328 0.000000 1.100000
0.698942 0.000000 1.100000
0.940000 0.000000 1.100000
0.000000 0.240000 1.100000
0.225427 0.240000 1.100000
0.460328 0.240000 1.100000
0.698942 0.240000 1.100000
0.940000 0.240000 1.100000
0.000000 0.480000 1.100000
0.225427 0.480000 1.100000
0.460328 0.480000 1.100000
0.698942 0.480000 1.100000
0.940000 0.480000 1.100000
0.000000 0.720000 1.100000
0.225427 0.720000 1.100000
0.460328 0.720000 1.100000
0.698942 0.720000 1.100000
0.940000 0.720000 1.100000
0.000000 0.960000 1.100000
0.225427 0.960000 1.100000
0.460328 0.960000 1.100000
0.698942 0.960000 1.100000
0.940000 0.960000 1.100000
