public/assets/luts/b12_spire.cube
TITLE "b12_spire"
LUT_3D_SIZE 17
DOMAIN_MIN 0 0 0
DOMAIN_MAX 1 1 1
0.000000 0.000000 0.000000
0.054061 0.000000 0.000000
0.110394 0.000000 0.000000
0.167617 0.000000 0.000000
0.225427 0.000000 0.000000
0.283677 0.000000 0.000000
0.342279 0.000000 0.000000
0.401176 0.000000 0.000000
0.460328 0.000000 0.000000
0.519702 0.000000 0.000000
0.579274 0.000000 0.000000
0.639026 0.000000 0.000000
0.698942 0.000000 0.000000
0.759007 0.000000 0.000000
0.819212 0.000000 0.000000
0.879545 0.000000 0.000000
0.940000 0.000000 0.000000
0.000000 0.060000 0.000000
0.054061 0.060000 0.000000
0.110394 0.060000 0.000000
0.167617 0.060000 0.000000
0.225427 0.060000 0.000000
0.283677 0.060000 0.000000
0.342279 0.060000 0.000000
0.401176 0.060000 0.000000
0.460328 0.060000 0.000000
0.519702 0.060000 0.000000
0.579274 0.060000 0.000000
0.639026 0.060000 0.000000
0.698942 0.060000 0.000000
0.759007 0.060000 0.000000
0.819212 0.060000 0.000000
0.879545 0.060000 0.000000
0.940000 0.060000 0.000000
0.000000 0.120000 0.000000
0.054061 0.120000 0.000000
0.110394 0.120000 0.000000
0.167617 0.120000 0.000000
0.225427 0.120000 0.000000
0.283677 0.120000 0.000000
0.342279 0.120000 0.000000
0.401176 0.120000 0.000000
0.460328 0.120000 0.000000
0.519702 0.120000 0.000000
0.579274 0.120000 0.000000
0.639026 0.120000 0.000000
0.698942 0.120000 0.000000
0.759007 0.120000 0.000000
0.819212 0.120000 0.000000
0.879545 0.120000 0.000000
0.940000 0.120000 0.000000
0.000000 0.180000 0.000000
0.054061 0.180000 0.000000
0.110394 0.180000 0.000000
0.167617 0.180000 0.000000
0.225427 0.180000 0.000000
0.283677 0.180000 0.000000
0.342279 0.180000 0.000000
0.401176 0.180000 0.000000
0.460328 0.180000 0.000000
0.519702 0.180000 0.000000
0.579274 0.180000 0.000000
0.639026 0.180000 0.000000
0.698942 0.180000 0.000000
0.759007 0.180000 0.000000
0.819212 0.180000 0.000000
0.879545 0.180000 0.000000
0.940000 0.180000 0.000000
0.000000 0.240000 0.000000
0.054061 0.240000 0.000000
0.110394 0.240000 0.000000
0.167617 0.240000 0.000000
0.225427 0.240000 0.000000
0.283677 0.240000 0.000000
0.342279 0.240000 0.000000
0.401176 0.240000 0.000000
0.460328 0.240000 0.000000
0.519702 0.240000 0.000000
0.579274 0.240000 0.000000
0.639026 0.240000 0.000000
0.698942 0.240000 0.000000
0.759007 0.240000 0.000000
0.819212 0.240000 0.000000
0.879545 0.240000 0.000000
0.940000 0.240000 0.000000
0.000000 0.300000 0.000000
0.054061 0.300000 0.000000
0.110394 0.300000 0.000000
0.167617 0.300000 0.000000
0.225427 0.300000 0.000000
0.283677 0.300000 0.000000
0.342279 0.300000 0.000000
0.401176 0.300000 0.000000
0.460328 0.300000 0.000000
0.519702 0.300000 0.000000
0.579274 0.300000 0.000000
0.639026 0.300000 0.000000
0.698942 0.300000 0.000000
0.759007 0.300000 0.000000
0.819212 0.300000 0.000000
0.879545 0.300000 0.000000
0.940000 0.300000 0.000000
0.000000 0.360000 0.000000
0.054061 0.360000 0.000000
0.110394 0.360000 0.000000
0.167617 0.360000 0.000000
0.225427 0.360000 0.000000
0.283677 0.360000 0.000000
0.342279 0.360000 0.000000
0.401176 0.360000 0.000000
0.460328 0.360000 0.000000
0.519702 0.360000 0.000000
0.579274 0.360000 0.000000
0.639026 0.360000 0.000000
0.698942 0.360000 0.000000
0.759007 0.360000 0.000000
0.819212 0.360000 0.000000
0.879545 0.360000 0.000000
0.940000 0.360000 0.000000
0.000000 0.420000 0.000000
0.054061 0.420000 0.000000
0.110394 0.420000 0.000000
0.167617 0.420000 0.000000
0.225427 0.420000 0.000000
0.283677 0.420000 0.000000
0.342279 0.420000 0.000000
0.401176 0.420000 0.000000
0.460328 0.420000 0.000000
0.519702 0.420000 0.000000
0.579274 0.420000 0.000000
0.639026 0.420000 0.000000
0.698942 0.420000 0.000000
0.759007 0.420000 0.000000
0.819212 0.420000 0.000000
0.879545 0.420000 0.000000
0.940000 0.420000 0.000000
0.000000 0.480000 0.000000
0.054061 0.480000 0.000000
0.110394 0.480000 0.000000
0.167617 0.480000 0.000000
0.225427 0.480000 0.000000
0.283677 0.480000 0.000000
0.342279 0.480000 0.000000
0.401176 0.480000 0.000000
0.460328 0.480000 0.000000
0.519702 0.480000 0.000000
0.579274 0.480000 0.000000
0.639026 0.480000 0.000000
0.698942 0.480000 0.000000
0.759007 0.480000 0.000000
0.819212 0.480000 0.000000
0.879545 0.480000 0.000000
0.940000 0.480000 0.000000
0.000000 0.540000 0.000000
0.054061 0.540000 0.000000
0.110394 0.540000 0.000000
0.167617 0.540000 0.000000
0.225427 0.540000 0.000000
0.283677 0.540000 0.000000
0.342279 0.540000 0.000000
0.401176 0.540000 0.000000
0.460328 0.540000 0.000000
0.519702 0.540000 0.000000
0.579274 0.540000 0.000000
0.639026 0.540000 0.000000
0.698942 0.540000 0.000000
0.759007 0.540000 0.000000
0.819212 0.540000 0.000000
0.879545 0.540000 0.000000
0.940000 0.540000 0.000000
0.000000 0.600000 0.000000
0.054061 0.600000 0.000000
0.110394 0.600000 0.000000
0.167617 0.600000 0.000000
0.225427 0.600000 0.000000
0.283677 0.600000 0.000000
0.342279 0.600000 0.000000
0.401176 0.600000 0.000000
0.460328 0.600000 0.000000
0.519702 0.600000 0.000000
0.579274 0.600000 0.000000
0.639026 0.600000 0.000000
0.698942 0.600000 0.000000
0.759007 0.600000 0.000000
0.819212 0.600000 0.000000
0.879545 0.600000 0.000000
0.940000 0.600000 0.000000
0.000000 0.660000 0.000000
0.054061 0.660000 0.000000
0.110394 0.660000 0.000000
0.167617 0.660000 0.000000
0.225427 0.660000 0.000000
0.283677 0.660000 0.000000
0.342279 0.660000 0.000000
0.401176 0.660000 0.000000
0.460328 0.660000 0.000000
0.519702 0.660000 0.000000
0.579274 0.660000 0.000000
0.639026 0.660000 0.000000
0.698942 0.660000 0.000000
0.759007 0.660000 0.000000
0.819212 0.660000 0.000000
0.879545 0.660000 0.000000
0.940000 0.660000 0.000000
0.000000 0.720000 0.000000
0.054061 0.720000 0.000000
0.110394 0.720000 0.000000
0.167617 0.720000 0.000000
0.225427 0.720000 0.000000
0.283677 0.720000 0.000000
0.342279 0.720000 0.000000
0.401176 0.720000 0.000000
0.460328 0.720000 0.000000
0.519702 0.720000 0.000000
0.579274 0.720000 0.000000
0.639026 0.720000 0.000000
0.698942 0.720000 0.000000
0.759007 0.720000 0.000000
0.819212 0.720000 0.000000
0.879545 0.720000 0.000000
0.940000 0.720000 0.000000
0.000000 0.780000 0.000000
0.054061 0.780000 0.000000
0.110394 0.780000 0.000000
0.167617 0.780000 0.000000
0.225427 0.780000 0.000000
0.283677 0.780000 0.000000
0.342279 0.780000 0.000000
0.401176 0.780000 0.000000
0.460328 0.780000 0.000000
0.519702 0.780000 0.000000
0.579274 0.780000 0.000000
0.639026 0.780000 0.000000
0.698942 0.780000 0.000000
0.759007 0.780000 0.000000
0.819212 0.780000 0.000000
0.879545 0.780000 0.000000
0.940000 0.780000 0.000000
0.000000 0.840000 0.000000
0.054061 0.840000 0.000000
0.110394 0.840000 0.000000
0.167617 0.840000 0.000000
0.225427 0.840000 0.000000
0.283677 0.840000 0.000000
0.342279 0.840000 0.000000
0.401176 0.840000 0.000000
0.460328 0.840000 0.000000
0.519702 0.840000 0.000000
0.579274 0.840000 0.000000
0.639026 0.840000 0.000000
0.698942 0.840000 0.000000
0.759007 0.840000 0.000000
0.819212 0.840000 0.000000
0.879545 0.840000 0.000000
0.940000 0.840000 0.000000
0.000000 0.900000 0.000000
0.054061 0.900000 0.000000
0.110394 0.900000 0.000000
0.167617 0.900000 0.000000
0.225427 0.900000 0.000000
0.283677 0.900000 0.000000
0.342279 0.900000 0.000000
0.401176 0.900000 0.000000
0.460328 0.900000 0.000000
0.519702 0.900000 0.000000
0.579274 0.900000 0.000000
0.639026 0.900000 0.000000
0.698942 0.900000 0.000000
0.759007 0.900000 0.000000
0.819212 0.900000 0.000000
0.879545 0.900000 0.000000
0.940000 0.900000 0.000000
0.000000 0.960000 0.000000
0.054061 0.960000 0.000000
0.110394 0.960000 0.000000
0.167617 0.960000 0.000000
0.225427 0.960000 0.000000
0.283677 0.960000 0.000000
0.342279 0.960000 0.000000
0.401176 0.960000 0.000000
0.460328 0.960000 0.000000
0.519702 0.960000 0.000000
0.579274 0.960000 0.000000
0.639026 0.960000 0.000000
0.698942 0.960000 0.000000
0.759007 0.960000 0.000000
0.819212 0.960000 0.000000
0.879545 0.960000 0.000000
0.940000 0.960000 0.000000
0.000000 0.000000 0.074713
0.054061 0.000000 0.074713
0.110394 0.000000 0.074713
0.167617 0.000000 0.074713
0.225427 0.000000 0.074713
0.283677 0.000000 0.074713
0.342279 0.000000 0.074713
0.401176 0.000000 0.074713
0.460328 0.000000 0.074713
0.519702 0.000000 0.074713
0.579274 0.000000 0.074713
0.639026 0.000000 0.074713
0.698942 0.000000 0.074713
0.759007 0.000000 0.074713
0.819212 0.000000 0.074713
0.879545 0.000000 0.074713
0.940000 0.000000 0.074713
0.000000 0.060000 0.074713
0.054061 0.060000 0.074713
0.110394 0.060000 0.074713
0.167617 0.060000 0.074713
0.225427 0.060000 0.074713
0.283677 0.060000 0.074713
0.342279 0.060000 0.074713
0.401176 0.060000 0.074713
0.460328 0.060000 0.074713
0.519702 0.060000 0.074713
0.579274 0.060000 0.074713
0.639026 0.060000 0.074713
0.698942 0.060000 0.074713
0.759007 0.060000 0.074713
0.819212 0.060000 0.074713
0.879545 0.060000 0.074713
0.940000 0.060000 0.074713
0.000000 0.120000 0.074713
0.054061 0.120000 0.074713
0.110394 0.120000 0.074713
0.167617 0.120000 0.074713
0.225427 0.120000 0.074713
0.283677 0.120000 0.074713
0.342279 0.120000 0.074713
0.401176 0.120000 0.074713
0.460328 0.120000 0.074713
0.519702 0.120000 0.074713
0.579274 0.120000 0.074713
0.639026 0.120000 0.074713
0.698942 0.120000 0.074713
0.759007 0.120000 0.074713
0.819212 0.120000 0.074713
0.879545 0.120000 0.074713
0.940000 0.120000 0.074713
0.000000 0.180000 0.074713
0.054061 0.180000 0.074713
0.110394 0.180000 0.074713
0.167617 0.180000 0.074713
0.225427 0.180000 0.074713
0.283677 0.180000 0.074713
0.342279 0.180000 0.074713
0.401176 0.180000 0.074713
0.460328 0.180000 0.074713
0.519702 0.180000 0.074713
0.579274 0.180000 0.074713
0.639026 0.180000 0.074713
0.698942 0.180000 0.074713
0.759007 0.180000 0.074713
0.819212 0.180000 0.074713
0.879545 0.180000 0.074713
0.940000 0.180000 0.074713
0.000000 0.240000 0.074713
0.054061 0.240000 0.074713
0.110394 0.240000 0.074713
0.167617 0.240000 0.074713
0.225427 0.240000 0.074713
0.283677 0.240000 0.074713
0.342279 0.240000 0.074713
0.401176 0.240000 0.074713
0.460328 0.240000 0.074713
0.519702 0.240000 0.074713
0.579274 0.240000 0.074713
0.639026 0.240000 0.074713
0.698942 0.240000 0.074713
0.759007 0.240000 0.074713
0.819212 0.240000 0.074713
0.879545 0.240000 0.074713
0.940000 0.240000 0.074713
0.000000 0.300000 0.074713
0.054061 0.300000 0.074713
0.110394 0.300000 0.074713
0.167617 0.300000 0.074713
0.225427 0.300000 0.074713
0.283677 0.300000 0.074713
0.342279 0.300000 0.074713
0.401176 0.300000 0.074713
0.460328 0.300000 0.074713
0.519702 0.300000 0.074713
0.579274 0.300000 0.074713
0.639026 0.300000 0.074713
0.698942 0.300000 0.074713
0.759007 0.300000 0.074713
0.819212 0.300000 0.074713
0.879545 0.300000 0.074713
0.940000 0.300000 0.074713
0.000000 0.360000 0.074713
0.054061 0.360000 0.074713
0.110394 0.360000 0.074713
0.167617 0.360000 0.074713
0.225427 0.360000 0.074713
0.283677 0.360000 0.074713
0.342279 0.360000 0.074713
0.401176 0.360000 0.074713
0.460328 0.360000 0.074713
0.519702 0.360000 0.074713
0.579274 0.360000 0.074713
0.639026 0.360000 0.074713
0.698942 0.360000 0.074713
0.759007 0.360000 0.074713
0.819212 0.360000 0.074713
0.879545 0.360000 0.074713
0.940000 0.360000 0.074713
0.000000 0.420000 0.074713
0.054061 0.420000 0.074713
0.110394 0.420000 0.074713
0.167617 0.420000 0.074713
0.225427 0.420000 0.074713
0.283677 0.420000 0.074713
0.342279 0.420000 0.074713
0.401176 0.420000 0.074713
0.460328 0.420000 0.074713
0.519702 0.420000 0.074713
0.579274 0.420000 0.074713
0.639026 0.420000 0.074713
0.698942 0.420000 0.074713
0.759007 0.420000 0.074713
0.819212 0.420000 0.074713
0.879545 0.420000 0.074713
0.940000 0.420000 0.074713
0.000000 0.480000 0.074713
0.054061 0.480000 0.074713
0.110394 0.480000 0.074713
0.167617 0.480000 0.074713
0.225427 0.480000 0.074713
0.283677 0.480000 0.074713
0.342279 0.480000 0.074713
0.401176 0.480000 0.074713
0.460328 0.480000 0.074713
0.519702 0.480000 0.074713
0.579274 0.480000 0.074713
0.639026 0.480000 0.074713
0.698942 0.480000 0.074713
0.759007 0.480000 0.074713
0.819212 0.480000 0.074713
0.879545 0.480000 0.074713
0.940000 0.480000 0.074713
0.000000 0.540000 0.074713
0.054061 0.540000 0.074713
0.110394 0.540000 0.074713
0.167617 0.540000 0.074713
0.225427 0.540000 0.074713
0.283677 0.540000 0.074713
0.342279 0.540000 0.074713
0.401176 0.540000 0.074713
0.460328 0.540000 0.074713
0.519702 0.540000 0.074713
0.579274 0.540000 0.074713
0.639026 0.540000 0.074713
0.698942 0.540000 0.074713
0.759007 0.540000 0.074713
0.819212 0.540000 0.074713
0.879545 0.540000 0.074713
0.940000 0.540000 0.074713
0.000000 0.600000 0.074713
0.054061 0.600000 0.074713
0.110394 0.600000 0.074713
0.167617 0.600000 0.074713
0.225427 0.600000 0.074713
0.283677 0.600000 0.074713
0.342279 0.600000 0.074713
0.401176 0.600000 0.074713
0.460328 0.600000 0.074713
0.519702 0.600000 0.074713
0.579274 0.600000 0.074713
0.639026 0.600000 0.074713
0.698942 0.600000 0.074713
0.759007 0.600000 0.074713
0.819212 0.600000 0.074713
0.879545 0.600000 0.074713
0.940000 0.600000 0.074713
0.000000 0.660000 0.074713
0.054061 0.660000 0.074713
0.110394 0.660000 0.074713
0.167617 0.660000 0.074713
0.225427 0.660000 0.074713
0.283677 0.660000 0.074713
0.342279 0.660000 0.074713
0.401176 0.660000 0.074713
0.460328 0.660000 0.074713
0.519702 0.660000 0.074713
0.579274 0.660000 0.074713
0.639026 0.660000 0.074713
0.698942 0.660000 0.074713
0.759007 0.660000 0.074713
0.819212 0.660000 0.074713
0.879545 0.660000 0.074713
0.940000 0.660000 0.074713
0.000000 0.720000 0.074713
0.054061 0.720000 0.074713
0.110394 0.720000 0.074713
0.167617 0.720000 0.074713
0.225427 0.720000 0.074713
0.283677 0.720000 0.074713
0.342279 0.720000 0.074713
0.401176 0.720000 0.074713
0.460328 0.720000 0.074713
0.519702 0.720000 0.074713
0.579274 0.720000 0.074713
0.639026 0.720000 0.074713
0.698942 0.720000 0.074713
0.759007 0.720000 0.074713
0.819212 0.720000 0.074713
0.879545 0.720000 0.074713
0.940000 0.720000 0.074713
0.000000 0.780000 0.074713
0.054061 0.780000 0.074713
0.110394 0.780000 0.074713
0.167617 0.780000 0.074713
0.225427 0.780000 0.074713
0.283677 0.780000 0.074713
0.342279 0.780000 0.074713
0.401176 0.780000 0.074713
0.460328 0.780000 0.074713
0.519702 0.780000 0.074713
0.579274 0.780000 0.074713
0.639026 0.780000 0.074713
0.698942 0.780000 0.074713
0.759007 0.780000 0.074713
0.819212 0.780000 0.074713
0.879545 0.780000 0.074713
0.940000 0.780000 0.074713
0.000000 0.840000 0.074713
0.054061 0.840000 0.074713
0.110394 0.840000 0.074713
0.167617 0.840000 0.074713
0.225427 0.840000 0.074713
0.283677 0.840000 0.074713
0.342279 0.840000 0.074713
0.401176 0.840000 0.074713
0.460328 0.840000 0.074713
0.519702 0.840000 0.074713
0.579274 0.840000 0.074713
0.639026 0.840000 0.074713
0.698942 0.840000 0.074713
0.759007 0.840000 0.074713
0.819212 0.840000 0.074713
0.879545 0.840000 0.074713
0.940000 0.840000 0.074713
0.000000 0.900000 0.074713
0.054061 0.900000 0.074713
0.110394 0.900000 0.074713
0.167617 0.900000 0.074713
0.225427 0.900000 0.074713
0.283677 0.900000 0.074713
0.342279 0.900000 0.074713
0.401176 0.900000 0.074713
0.460328 0.900000 0.074713
0.519702 0.900000 0.074713
0.579274 0.900000 0.074713
0.639026 0.900000 0.074713
0.698942 0.900000 0.074713
0.759007 0.900000 0.074713
0.819212 0.900000 0.074713
0.879545 0.900000 0.074713
0.940000 0.900000 0.074713
0.000000 0.960000 0.074713
0.054061 0.960000 0.074713
0.110394 0.960000 0.074713
0.167617 0.960000 0.074713
0.225427 0.960000 0.074713
0.283677 0.960000 0.074713
0.342279 0.960000 0.074713
0.401176 0.960000 0.074713
0.460328 0.960000 0.074713
0.519702 0.960000 0.074713
0.579274 0.960000 0.074713
0.639026 0.960000 0.074713
0.698942 0.960000 0.074713
0.759007 0.960000 0.074713
0.819212 0.960000 0.074713
0.879545 0.960000 0.074713
0.940000 0.960000 0.074713
0.000000 0.000000 0.146351
0.054061 0.000000 0.146351
0.110394 0.000000 0.146351
0.167617 0.000000 0.146351
0.225427 0.000000 0.146351
0.283677 0.000000 0.146351
0.342279 0.000000 0.146351
0.401176 0.000000 0.146351
0.460328 0.000000 0.146351
0.519702 0.000000 0.146351
0.579274 0.000000 0.146351
0.639026 0.000000 0.146351
0.698942 0.000000 0.146351
0.759007 0.000000 0.146351
0.819212 0.000000 0.146351
0.879545 0.000000 0.146351
0.940000 0.000000 0.146351
0.000000 0.060000 0.146351
0.054061 0.060000 0.146351
0.110394 0.060000 0.146351
0.167617 0.060000 0.146351
0.225427 0.060000 0.146351
0.283677 0.060000 0.146351
0.342279 0.060000 0.146351
0.401176 0.060000 0.146351
0.460328 0.060000 0.146351
0.519702 0.060000 0.146351
0.579274 0.060000 0.146351
0.639026 0.060000 0.146351
0.698942 0.060000 0.146351
0.759007 0.060000 0.146351
0.819212 0.060000 0.146351
0.879545 0.060000 0.146351
0.940000 0.060000 0.146351
0.000000 0.120000 0.146351
0.054061 0.120000 0.146351
0.110394 0.120000 0.146351
0.167617 0.120000 0.146351
0.225427 0.120000 0.146351
0.283677 0.120000 0.146351
0.342279 0.120000 0.146351
0.401176 0.120000 0.146351
0.460328 0.120000 0.146351
0.519702 0.120000 0.146351
0.579274 0.120000 0.146351
0.639026 0.120000 0.146351
0.698942 0.120000 0.146351
0.759007 0.120000 0.146351
0.819212 0.120000 0.146351
0.879545 0.120000 0.146351
0.940000 0.120000 0.146351
0.000000 0.180000 0.146351
0.054061 0.180000 0.146351
0.110394 0.180000 0.146351
0.167617 0.180000 0.146351
0.225427 0.180000 0.146351
0.283677 0.180000 0.146351
0.342279 0.180000 0.146351
0.401176 0.180000 0.146351
0.460328 0.180000 0.146351
0.519702 0.180000 0.146351
0.579274 0.180000 0.146351
0.639026 0.180000 0.146351
0.698942 0.180000 0.146351
0.759007 0.180000 0.146351
0.819212 0.180000 0.146351
0.879545 0.180000 0.146351
0.940000 0.180000 0.146351
0.000000 0.240000 0.146351
0.054061 0.240000 0.146351
0.110394 0.240000 0.146351
0.167617 0.240000 0.146351
0.225427 0.240000 0.146351
0.283677 0.240000 0.146351
0.342279 0.240000 0.146351
0.401176 0.240000 0.146351
0.460328 0.240000 0.146351
0.519702 0.240000 0.146351
0.579274 0.240000 0.146351
0.639026 0.240000 0.146351
0.698942 0.240000 0.146351
0.759007 0.240000 0.146351
0.819212 0.240000 0.146351
0.879545 0.240000 0.146351
0.940000 0.240000 0.146351
0.000000 0.300000 0.146351
0.054061 0.300000 0.146351
0.110394 0.300000 0.146351
0.167617 0.300000 0.146351
0.225427 0.300000 0.146351
0.283677 0.300000 0.146351
0.342279 0.300000 0.146351
0.401176 0.300000 0.146351
0.460328 0.300000 0.146351
0.519702 0.300000 0.146351
0.579274 0.300000 0.146351
0.639026 0.300000 0.146351
0.698942 0.300000 0.146351
0.759007 0.300000 0.146351
0.819212 0.300000 0.146351
0.879545 0.300000 0.146351
0.940000 0.300000 0.146351
0.000000 0.360000 0.146351
0.054061 0.360000 0.146351
0.110394 0.360000 0.146351
0.167617 0.360000 0.146351
0.225427 0.360000 0.146351
0.283677 0.360000 0.146351
0.342279 0.360000 0.146351
0.401176 0.360000 0.146351
0.460328 0.360000 0.146351
0.519702 0.360000 0.146351
0.579274 0.360000 0.146351
0.639026 0.360000 0.146351
0.698942 0.360000 0.146351
0.759007 0.360000 0.146351
0.819212 0.360000 0.146351
0.879545 0.360000 0.146351
0.940000 0.360000 0.146351
0.000000 0.420000 0.146351
0.054061 0.420000 0.146351
0.110394 0.420000 0.146351
0.167617 0.420000 0.146351
0.225427 0.420000 0.146351
0.283677 0.420000 0.146351
0.342279 0.420000 0.146351
0.401176 0.420000 0.146351
0.460328 0.420000 0.146351
0.519702 0.420000 0.146351
0.579274 0.420000 0.146351
0.639026 0.420000 0.146351
0.698942 0.420000 0.146351
0.759007 0.420000 0.146351
0.819212 0.420000 0.146351
0.879545 0.420000 0.146351
0.940000 0.420000 0.146351
0.000000 0.480000 0.146351
0.054061 0.480000 0.146351
0.110394 0.480000 0.146351
0.167617 0.480000 0.146351
0.225427 0.480000 0.146351
0.283677 0.480000 0.146351
0.342279 0.480000 0.146351
0.401176 0.480000 0.146351
0.460328 0.480000 0.146351
0.519702 0.480000 0.146351
0.579274 0.480000 0.146351
0.639026 0.480000 0.146351
0.698942 0.480000 0.146351
0.759007 0.480000 0.146351
0.819212 0.480000 0.146351
0.879545 0.480000 0.146351
0.940000 0.480000 0.146351
0.000000 0.540000 0.146351
0.054061 0.540000 0.146351
0.110394 0.540000 0.146351
0.167617 0.540000 0.146351
0.225427 0.540000 0.146351
0.283677 0.540000 0.146351
0.342279 0.540000 0.146351
0.401176 0.540000 0.146351
0.460328 0.540000 0.146351
0.519702 0.540000 0.146351
0.579274 0.540000 0.146351
0.639026 0.540000 0.146351
0.698942 0.540000 0.146351
0.759007 0.540000 0.146351
0.819212 0.540000 0.146351
0.879545 0.540000 0.146351
0.940000 0.540000 0.146351
0.000000 0.600000 0.146351
0.054061 0.600000 0.146351
0.110394 0.600000 0.146351
0.167617 0.600000 0.146351
0.225427 0.600000 0.146351
0.283677 0.600000 0.146351
0.342279 0.600000 0.146351
0.401176 0.600000 0.146351
0.460328 0.600000 0.146351
0.519702 0.600000 0.146351
0.579274 0.600000 0.146351
0.639026 0.600000 0.146351
0.698942 0.600000 0.146351
0.759007 0.600000 0.146351
0.819212 0.600000 0.146351
0.879545 0.600000 0.146351
0.940000 0.600000 0.146351
0.000000 0.660000 0.146351
0.054061 0.660000 0.146351
0.110394 0.660000 0.146351
0.167617 0.660000 0.146351
0.225427 0.660000 0.146351
0.283677 0.660000 0.146351
0.342279 0.660000 0.146351
0.401176 0.660000 0.146351
0.460328 0.660000 0.146351
0.519702 0.660000 0.146351
0.579274 0.660000 0.146351
0.639026 0.660000 0.146351
0.698942 0.660000 0.146351
0.759007 0.660000 0.146351
0.819212 0.660000 0.146351
0.879545 0.660000 0.146351
0.940000 0.660000 0.146351
0.000000 0.720000 0.146351
0.054061 0.720000 0.146351
0.110394 0.720000 0.146351
0.167617 0.720000 0.146351
0.225427 0.720000 0.146351
0.283677 0.720000 0.146351
0.342279 0.720000 0.146351
0.401176 0.720000 0.146351
0.460328 0.720000 0.146351
0.519702 0.720000 0.146351
0.579274 0.720000 0.146351
0.639026 0.720000 0.146351
0.698942 0.720000 0.146351
0.759007 0.720000 0.146351
0.819212 0.720000 0.146351
0.879545 0.720000 0.146351
0.940000 0.720000 0.146351
0.000000 0.780000 0.146351
0.054061 0.780000 0.146351
0.110394 0.780000 0.146351
0.167617 0.780000 0.146351
0.225427 0.780000 0.146351
0.283677 0.780000 0.146351
0.342279 0.780000 0.146351
0.401176 0.780000 0.146351
0.460328 0.780000 0.146351
0.519702 0.780000 0.146351
0.579274 0.780000 0.146351
0.639026 0.780000 0.146351
0.698942 0.780000 0.146351
0.759007 0.780000 0.146351
0.819212 0.780000 0.146351
0.879545 0.780000 0.146351
0.940000 0.780000 0.146351
0.000000 0.840000 0.146351
0.054061 0.840000 0.146351
0.110394 0.840000 0.146351
0.167617 0.840000 0.146351
0.225427 0.840000 0.146351
0.283677 0.840000 0.146351
0.342279 0.840000 0.146351
0.401176 0.840000 0.146351
0.460328 0.840000 0.146351
0.519702 0.840000 0.146351
0.579274 0.840000 0.146351
0.639026 0.840000 0.146351
0.698942 0.840000 0.146351
0.759007 0.840000 0.146351
0.819212 0.840000 0.146351
0.879545 0.840000 0.146351
0.940000 0.840000 0.146351
0.000000 0.900000 0.146351
0.054061 0.900000 0.146351
0.110394 0.900000 0.146351
0.167617 0.900000 0.146351
0.225427 0.900000 0.146351
0.283677 0.900000 0.146351
0.342279 0.900000 0.146351
0.401176 0.900000 0.146351
0.460328 0.900000 0.146351
0.519702 0.900000 0.146351
0.579274 0.900000 0.146351
0.639026 0.900000 0.146351
0.698942 0.900000 0.146351
0.759007 0.900000 0.146351
0.819212 0.900000 0.146351
0.879545 0.900000 0.146351
0.940000 0.900000 0.146351
0.000000 0.960000 0.146351
0.054061 0.960000 0.146351
0.110394 0.960000 0.146351
0.167617 0.960000 0.146351
0.225427 0.960000 0.146351
0.283677 0.960000 0.146351
0.342279 0.960000 0.146351
0.401176 0.960000 0.146351
0.460328 0.960000 0.146351
0.519702 0.960000 0.146351
0.579274 0.960000 0.146351
0.639026 0.960000 0.146351
0.698942 0.960000 0.146351
0.759007 0.960000 0.146351
0.819212 0.960000 0.146351
0.879545 0.960000 0.146351
0.940000 0.960000 0.146351
0.000000 0.000000 0.216872
0.054061 0.000000 0.216872
0.110394 0.000000 0.216872
0.167617 0.000000 0.216872
0.225427 0.000000 0.216872
0.283677 0.000000 0.216872
0.342279 0.000000 0.216872
0.401176 0.000000 0.216872
0.460328 0.000000 0.216872
0.519702 0.000000 0.216872
0.579274 0.000000 0.216872
0.639026 0.000000 0.216872
0.698942 0.000000 0.216872
0.759007 0.000000 0.216872
0.819212 0.000000 0.216872
0.879545 0.000000 0.216872
0.940000 0.000000 0.216872
0.000000 0.060000 0.216872
0.054061 0.060000 0.216872
